(.../EAGLE-7.7.0/pcbgcode/pcb-gcode.ulp)
(Copyright 2005 - 2012 by John Johnson)
(See readme.txt for licensing terms.)
(This file generated from the board:)
(.../electronics/Columba2/booster.brd)
(Current profile is .../EAGLE 8.0/pcbgcode/profiles/mach.pp  )
(This file generated 19.1.2019 2:21)
(Settings from pcb-machine.h)
(spindle on time = 1.0000)
(  Tool Size)
(0.1700  )
(spindle speed = 30000.0000)
(tool change at 0.0000  0.0000  25.4000 )
(feed rate xy = F100   )
(feed rate z  = F50    )
(Z Axis Settings)
(  High     Up        Down     Drill)
(12.0000 	1.0000  	-0.1000 	-1.8000 )
(Settings from pcb-defaults.h)
(isolate min = 0.0254)
(isolate max = 0.3000)
(isolate step = 0.1000)
(Generated top outlines, top drill, )
(Unit of measure: mm)
(Metric Mode)
G21
(Absolute Coordinates)
G90
S30000
G00 Z12.0000 
G00 X0.0000  Y0.0000  
M03
G04 P1.000000
G00 Z1.0000  
G00 X1.9576  Y2.4367  
G01 Z-0.1000 F50    
G01 X1.9102  Y2.5189  F100   
G01 X1.8856  Y2.6105  
G01 X1.8856  Y10.2054 
G01 X1.9102  Y10.2971 
G01 X1.9576  Y10.3793 
G01 X2.9576  Y11.3793 
G01 X3.0247  Y11.4464 
G01 X3.1069  Y11.4938 
G01 X3.1986  Y11.5184 
G01 X7.7934  Y11.5184 
G01 X7.8851  Y11.4938 
G01 X7.9673  Y11.4464 
G01 X9.5453  Y9.8684  
G01 X10.0180 Y9.8684  
G01 X10.0585 Y9.8516  
G01 X10.0896 Y9.8205  
G01 X10.1064 Y9.7800  
G01 X10.1064 Y9.5184  
G01 X10.6856 Y9.5184  
G01 X10.6856 Y9.5300  
G01 X10.7024 Y9.5705  
G01 X10.7335 Y9.6016  
G01 X10.7740 Y9.6184  
G01 X11.7180 Y9.6184  
G01 X11.7585 Y9.6016  
G01 X11.7896 Y9.5705  
G01 X11.8064 Y9.5300  
G01 X11.8064 Y9.4684  
G01 X11.8434 Y9.4684  
G01 X11.9351 Y9.4438  
G01 X12.0173 Y9.3964  
G01 X12.4673 Y8.9464  
G01 X12.5344 Y8.8793  
G01 X12.5818 Y8.7971  
G01 X12.6064 Y8.7054  
G01 X12.6064 Y6.0606  
G01 X12.5818 Y5.9689  
G01 X12.5344 Y5.8867  
G01 X11.8064 Y5.1587  
G01 X11.8064 Y4.6860  
G01 X11.7896 Y4.6455  
G01 X11.7585 Y4.6144  
G01 X11.7180 Y4.5976  
G01 X10.7740 Y4.5976  
G01 X10.7335 Y4.6144  
G01 X10.7024 Y4.6455  
G01 X10.6856 Y4.6860  
G01 X10.6856 Y4.7476  
G01 X10.1064 Y4.7476  
G01 X10.1064 Y4.4360  
G01 X10.0896 Y4.3955  
G01 X10.0585 Y4.3644  
G01 X10.0180 Y4.3476  
G01 X8.4740  Y4.3476  
G01 X8.4335  Y4.3644  
G01 X8.4024  Y4.3955  
G01 X8.3856  Y4.4360  
G01 X8.3856  Y5.7800  
G01 X8.4024  Y5.8205  
G01 X8.4335  Y5.8516  
G01 X8.4740  Y5.8684  
G01 X10.0180 Y5.8684  
G01 X10.0585 Y5.8516  
G01 X10.0896 Y5.8205  
G01 X10.1064 Y5.7800  
G01 X10.1064 Y5.4684  
G01 X10.6856 Y5.4684  
G01 X10.6856 Y5.5300  
G01 X10.7024 Y5.5705  
G01 X10.7335 Y5.6016  
G01 X10.7740 Y5.6184  
G01 X11.2467 Y5.6184  
G01 X11.8856 Y6.2573  
G01 X11.8856 Y8.5087  
G01 X11.7692 Y8.6251  
G01 X11.7585 Y8.6144  
G01 X11.7180 Y8.5976  
G01 X10.7740 Y8.5976  
G01 X10.7335 Y8.6144  
G01 X10.7024 Y8.6455  
G01 X10.6856 Y8.6860  
G01 X10.6856 Y8.7976  
G01 X10.1064 Y8.7976  
G01 X10.1064 Y8.4360  
G01 X10.0896 Y8.3955  
G01 X10.0585 Y8.3644  
G01 X10.0180 Y8.3476  
G01 X8.4740  Y8.3476  
G01 X8.4335  Y8.3644  
G01 X8.4024  Y8.3955  
G01 X8.3856  Y8.4360  
G01 X8.3856  Y9.7800  
G01 X8.4024  Y9.8205  
G01 X8.4335  Y9.8516  
G01 X8.4740  Y9.8684  
G01 X8.5259  Y9.8684  
G01 X7.5967  Y10.7976 
G01 X3.3953  Y10.7976 
G01 X2.6064  Y10.0087 
G01 X2.6064  Y2.8073  
G01 X3.2708  Y2.1428  
G01 X3.2909  Y2.1912  
G01 X3.3864  Y2.3341  
G01 X3.5079  Y2.4556  
G01 X3.6508  Y2.5511  
G01 X3.8095  Y2.6169  
G01 X3.9781  Y2.6504  
G01 X5.6739  Y2.6504  
G01 X5.8425  Y2.6169  
G01 X6.0012  Y2.5511  
G01 X6.1441  Y2.4556  
G01 X6.2656  Y2.3341  
G01 X6.3611  Y2.1912  
G01 X6.4269  Y2.0325  
G01 X6.4604  Y1.8639  
G01 X6.4604  Y1.6921  
G01 X6.4269  Y1.5235  
G01 X6.3611  Y1.3648  
G01 X6.2656  Y1.2219  
G01 X6.1441  Y1.1004  
G01 X6.0012  Y1.0049  
G01 X5.8425  Y0.9391  
G01 X5.6739  Y0.9056  
G01 X3.9781  Y0.9056  
G01 X3.8095  Y0.9391  
G01 X3.6508  Y1.0049  
G01 X3.5079  Y1.1004  
G01 X3.3864  Y1.2219  
G01 X3.2909  Y1.3648  
G01 X3.2690  Y1.4176  
G01 X3.0785  Y1.4176  
G01 X2.9869  Y1.4422  
G01 X2.9047  Y1.4896  
G01 X2.0247  Y2.3696  
G01 X1.9576  Y2.4367  
G00 Z1.0000  
G00 X3.3864  Y3.7619  
G01 Z-0.1000 F50    
G01 X3.2909  Y3.9048  F100   
G01 X3.2251  Y4.0635  
G01 X3.1916  Y4.2321  
G01 X3.1916  Y4.4039  
G01 X3.2251  Y4.5725  
G01 X3.2909  Y4.7312  
G01 X3.3864  Y4.8741  
G01 X3.5079  Y4.9956  
G01 X3.6508  Y5.0911  
G01 X3.8095  Y5.1569  
G01 X3.9781  Y5.1904  
G01 X5.6739  Y5.1904  
G01 X5.8425  Y5.1569  
G01 X6.0012  Y5.0911  
G01 X6.1441  Y4.9956  
G01 X6.2656  Y4.8741  
G01 X6.3611  Y4.7312  
G01 X6.4269  Y4.5725  
G01 X6.4604  Y4.4039  
G01 X6.4604  Y4.2321  
G01 X6.4269  Y4.0635  
G01 X6.4044  Y4.0093  
G01 X7.4673  Y2.9464  
G01 X7.5344  Y2.8793  
G01 X7.5818  Y2.7971  
G01 X7.6064  Y2.7054  
G01 X7.6064  Y2.3073  
G01 X8.3953  Y1.5184  
G01 X16.0967 Y1.5184  
G01 X18.4218 Y3.8435  
G01 X18.3809 Y3.9048  
G01 X18.3151 Y4.0635  
G01 X18.2816 Y4.2321  
G01 X18.2816 Y4.4039  
G01 X18.3151 Y4.5725  
G01 X18.3809 Y4.7312  
G01 X18.4764 Y4.8741  
G01 X18.5979 Y4.9956  
G01 X18.7408 Y5.0911  
G01 X18.8995 Y5.1569  
G01 X19.0681 Y5.1904  
G01 X20.7639 Y5.1904  
G01 X20.9325 Y5.1569  
G01 X21.0912 Y5.0911  
G01 X21.2341 Y4.9956  
G01 X21.3556 Y4.8741  
G01 X21.4511 Y4.7312  
G01 X21.5169 Y4.5725  
G01 X21.5504 Y4.4039  
G01 X21.5504 Y4.2321  
G01 X21.5169 Y4.0635  
G01 X21.4511 Y3.9048  
G01 X21.3556 Y3.7619  
G01 X21.2341 Y3.6404  
G01 X21.0912 Y3.5449  
G01 X20.9325 Y3.4791  
G01 X20.7639 Y3.4456  
G01 X19.0681 Y3.4456  
G01 X19.0474 Y3.4497  
G01 X16.4673 Y0.8696  
G01 X16.3851 Y0.8222  
G01 X16.2934 Y0.7976  
G01 X8.1985  Y0.7976  
G01 X8.1069  Y0.8222  
G01 X8.0247  Y0.8696  
G01 X6.9576  Y1.9367  
G01 X6.9102  Y2.0189  
G01 X6.8856  Y2.1105  
G01 X6.8856  Y2.5087  
G01 X5.8939  Y3.5004  
G01 X5.8425  Y3.4791  
G01 X5.6739  Y3.4456  
G01 X3.9781  Y3.4456  
G01 X3.8095  Y3.4791  
G01 X3.6508  Y3.5449  
G01 X3.5079  Y3.6404  
G01 X3.3864  Y3.7619  
G00 Z1.0000  
G00 X3.3864  Y6.3019  
G01 Z-0.1000 F50    
G01 X3.2909  Y6.4448  F100   
G01 X3.2251  Y6.6035  
G01 X3.1916  Y6.7721  
G01 X3.1916  Y6.9439  
G01 X3.2251  Y7.1125  
G01 X3.2909  Y7.2712  
G01 X3.3864  Y7.4141  
G01 X3.5079  Y7.5356  
G01 X3.6508  Y7.6311  
G01 X3.8095  Y7.6969  
G01 X3.9781  Y7.7304  
G01 X5.6739  Y7.7304  
G01 X5.8425  Y7.6969  
G01 X6.0012  Y7.6311  
G01 X6.1441  Y7.5356  
G01 X6.2656  Y7.4141  
G01 X6.3611  Y7.2712  
G01 X6.4269  Y7.1125  
G01 X6.4604  Y6.9439  
G01 X6.4604  Y6.7721  
G01 X6.4269  Y6.6035  
G01 X6.3927  Y6.5210  
G01 X7.5344  Y5.3793  
G01 X7.5818  Y5.2971  
G01 X7.6064  Y5.2054  
G01 X7.6064  Y4.8073  
G01 X8.4537  Y3.9600  
G01 X8.4740  Y3.9684  
G01 X10.0180 Y3.9684  
G01 X10.0585 Y3.9516  
G01 X10.0896 Y3.9205  
G01 X10.1064 Y3.8800  
G01 X10.1064 Y3.5684  
G01 X10.6856 Y3.5684  
G01 X10.6856 Y3.6300  
G01 X10.7024 Y3.6705  
G01 X10.7335 Y3.7016  
G01 X10.7740 Y3.7184  
G01 X11.7180 Y3.7184  
G01 X11.7585 Y3.7016  
G01 X11.7896 Y3.6705  
G01 X11.8064 Y3.6300  
G01 X11.8064 Y2.7860  
G01 X11.7896 Y2.7455  
G01 X11.7585 Y2.7144  
G01 X11.7180 Y2.6976  
G01 X10.7740 Y2.6976  
G01 X10.7335 Y2.7144  
G01 X10.7024 Y2.7455  
G01 X10.6856 Y2.7860  
G01 X10.6856 Y2.8476  
G01 X10.1064 Y2.8476  
G01 X10.1064 Y2.5360  
G01 X10.0896 Y2.4955  
G01 X10.0585 Y2.4644  
G01 X10.0180 Y2.4476  
G01 X8.4740  Y2.4476  
G01 X8.4335  Y2.4644  
G01 X8.4024  Y2.4955  
G01 X8.3856  Y2.5360  
G01 X8.3856  Y3.0087  
G01 X7.0247  Y4.3696  
G01 X6.9576  Y4.4367  
G01 X6.9102  Y4.5189  
G01 X6.8856  Y4.6105  
G01 X6.8856  Y5.0087  
G01 X5.8656  Y6.0287  
G01 X5.8425  Y6.0191  
G01 X5.6739  Y5.9856  
G01 X3.9781  Y5.9856  
G01 X3.8095  Y6.0191  
G01 X3.6508  Y6.0849  
G01 X3.5079  Y6.1804  
G01 X3.3864  Y6.3019  
G00 Z1.0000  
G00 X3.3864  Y8.8419  
G01 Z-0.1000 F50    
G01 X3.2909  Y8.9848  F100   
G01 X3.2251  Y9.1435  
G01 X3.1916  Y9.3121  
G01 X3.1916  Y9.4839  
G01 X3.2251  Y9.6525  
G01 X3.2909  Y9.8112  
G01 X3.3864  Y9.9541  
G01 X3.5079  Y10.0756 
G01 X3.6508  Y10.1711 
G01 X3.8095  Y10.2369 
G01 X3.9781  Y10.2704 
G01 X5.6739  Y10.2704 
G01 X5.8425  Y10.2369 
G01 X6.0012  Y10.1711 
G01 X6.1441  Y10.0756 
G01 X6.2656  Y9.9541  
G01 X6.3611  Y9.8112  
G01 X6.4269  Y9.6525  
G01 X6.4604  Y9.4839  
G01 X6.4604  Y9.4533  
G01 X8.3453  Y7.5684  
G01 X8.3856  Y7.5684  
G01 X8.3856  Y7.8800  
G01 X8.4024  Y7.9205  
G01 X8.4335  Y7.9516  
G01 X8.4740  Y7.9684  
G01 X10.0180 Y7.9684  
G01 X10.0585 Y7.9516  
G01 X10.0896 Y7.9205  
G01 X10.1064 Y7.8800  
G01 X10.1064 Y7.5684  
G01 X10.6856 Y7.5684  
G01 X10.6856 Y7.6300  
G01 X10.7024 Y7.6705  
G01 X10.7335 Y7.7016  
G01 X10.7740 Y7.7184  
G01 X11.7180 Y7.7184  
G01 X11.7585 Y7.7016  
G01 X11.7896 Y7.6705  
G01 X11.8064 Y7.6300  
G01 X11.8064 Y6.7860  
G01 X11.7896 Y6.7455  
G01 X11.7585 Y6.7144  
G01 X11.7180 Y6.6976  
G01 X10.7740 Y6.6976  
G01 X10.7335 Y6.7144  
G01 X10.7024 Y6.7455  
G01 X10.6856 Y6.7860  
G01 X10.6856 Y6.8476  
G01 X10.1064 Y6.8476  
G01 X10.1064 Y6.5360  
G01 X10.0896 Y6.4955  
G01 X10.0585 Y6.4644  
G01 X10.0180 Y6.4476  
G01 X8.4740  Y6.4476  
G01 X8.4335  Y6.4644  
G01 X8.4024  Y6.4955  
G01 X8.3856  Y6.5360  
G01 X8.3856  Y6.8476  
G01 X8.1486  Y6.8476  
G01 X8.0569  Y6.8722  
G01 X7.9747  Y6.9196  
G01 X7.9076  Y6.9867  
G01 X6.1590  Y8.7353  
G01 X6.1441  Y8.7204  
G01 X6.0012  Y8.6249  
G01 X5.8425  Y8.5591  
G01 X5.6739  Y8.5256  
G01 X3.9781  Y8.5256  
G01 X3.8095  Y8.5591  
G01 X3.6508  Y8.6249  
G01 X3.5079  Y8.7204  
G01 X3.3864  Y8.8419  
G00 Z1.0000  
G00 X12.8335 Y8.6516  
G01 Z-0.1000 F50    
G01 X12.8740 Y8.6684  F100   
G01 X13.8180 Y8.6684  
G01 X13.8585 Y8.6516  
G01 X13.8896 Y8.6205  
G01 X13.9064 Y8.5800  
G01 X13.9064 Y8.1073  
G01 X14.3776 Y7.6361  
G01 X14.3776 Y7.8800  
G01 X14.3944 Y7.9205  
G01 X14.4255 Y7.9516  
G01 X14.4660 Y7.9684  
G01 X16.0100 Y7.9684  
G01 X16.0505 Y7.9516  
G01 X16.0816 Y7.9205  
G01 X16.0984 Y7.8800  
G01 X16.0984 Y7.5684  
G01 X16.3927 Y7.5684  
G01 X18.2816 Y9.4573  
G01 X18.2816 Y9.4839  
G01 X18.3151 Y9.6525  
G01 X18.3809 Y9.8112  
G01 X18.4764 Y9.9541  
G01 X18.5979 Y10.0756 
G01 X18.7408 Y10.1711 
G01 X18.8995 Y10.2369 
G01 X19.0681 Y10.2704 
G01 X20.7639 Y10.2704 
G01 X20.9325 Y10.2369 
G01 X21.0912 Y10.1711 
G01 X21.2341 Y10.0756 
G01 X21.3556 Y9.9541  
G01 X21.4511 Y9.8112  
G01 X21.5169 Y9.6525  
G01 X21.5504 Y9.4839  
G01 X21.5504 Y9.3121  
G01 X21.5169 Y9.1435  
G01 X21.4511 Y8.9848  
G01 X21.3556 Y8.8419  
G01 X21.2341 Y8.7204  
G01 X21.0912 Y8.6249  
G01 X20.9325 Y8.5591  
G01 X20.7639 Y8.5256  
G01 X19.0681 Y8.5256  
G01 X18.8995 Y8.5591  
G01 X18.7408 Y8.6249  
G01 X18.5979 Y8.7204  
G01 X18.5810 Y8.7373  
G01 X16.8304 Y6.9867  
G01 X16.7633 Y6.9196  
G01 X16.6811 Y6.8722  
G01 X16.5894 Y6.8476  
G01 X16.0984 Y6.8476  
G01 X16.0984 Y6.5360  
G01 X16.0816 Y6.4955  
G01 X16.0505 Y6.4644  
G01 X16.0100 Y6.4476  
G01 X14.4660 Y6.4476  
G01 X14.4255 Y6.4644  
G01 X14.3944 Y6.4955  
G01 X14.3776 Y6.5360  
G01 X14.3776 Y6.8476  
G01 X14.2485 Y6.8476  
G01 X14.1569 Y6.8722  
G01 X14.0747 Y6.9196  
G01 X14.0076 Y6.9867  
G01 X13.3467 Y7.6476  
G01 X12.8740 Y7.6476  
G01 X12.8335 Y7.6644  
G01 X12.8024 Y7.6955  
G01 X12.7856 Y7.7360  
G01 X12.7856 Y8.5800  
G01 X12.8024 Y8.6205  
G01 X12.8335 Y8.6516  
G00 Z1.0000  
G00 X14.3776 Y8.4360  
G01 Z-0.1000 F50    
G01 X14.3776 Y9.7800  F100   
G01 X14.3944 Y9.8205  
G01 X14.4255 Y9.8516  
G01 X14.4660 Y9.8684  
G01 X15.4887 Y9.8684  
G01 X17.0667 Y11.4464 
G01 X17.1489 Y11.4938 
G01 X17.2405 Y11.5184 
G01 X21.2854 Y11.5184 
G01 X21.3771 Y11.4938 
G01 X21.4593 Y11.4464 
G01 X21.5264 Y11.3793 
G01 X22.5264 Y10.3793 
G01 X22.5738 Y10.2971 
G01 X22.5984 Y10.2054 
G01 X22.5984 Y3.1105  
G01 X22.5738 Y3.0189  
G01 X22.5264 Y2.9367  
G01 X22.4593 Y2.8696  
G01 X21.5343 Y1.9447  
G01 X21.5504 Y1.8639  
G01 X21.5504 Y1.6921  
G01 X21.5169 Y1.5235  
G01 X21.4511 Y1.3648  
G01 X21.3556 Y1.2219  
G01 X21.2341 Y1.1004  
G01 X21.0912 Y1.0049  
G01 X20.9325 Y0.9391  
G01 X20.7639 Y0.9056  
G01 X19.0681 Y0.9056  
G01 X18.8995 Y0.9391  
G01 X18.7408 Y1.0049  
G01 X18.5979 Y1.1004  
G01 X18.4764 Y1.2219  
G01 X18.3809 Y1.3648  
G01 X18.3151 Y1.5235  
G01 X18.2816 Y1.6921  
G01 X18.2816 Y1.8639  
G01 X18.3151 Y2.0325  
G01 X18.3809 Y2.1912  
G01 X18.4764 Y2.3341  
G01 X18.5979 Y2.4556  
G01 X18.7408 Y2.5511  
G01 X18.8995 Y2.6169  
G01 X19.0681 Y2.6504  
G01 X20.7639 Y2.6504  
G01 X20.9325 Y2.6169  
G01 X21.0912 Y2.5511  
G01 X21.1093 Y2.5390  
G01 X21.8776 Y3.3073  
G01 X21.8776 Y5.2276  
G01 X18.4373 Y5.2276  
G01 X16.2904 Y3.0807  
G01 X16.2233 Y3.0136  
G01 X16.1411 Y2.9662  
G01 X16.0984 Y2.9547  
G01 X16.0984 Y2.5360  
G01 X16.0816 Y2.4955  
G01 X16.0505 Y2.4644  
G01 X16.0100 Y2.4476  
G01 X14.4660 Y2.4476  
G01 X14.4255 Y2.4644  
G01 X14.3944 Y2.4955  
G01 X14.3776 Y2.5360  
G01 X14.3776 Y3.8800  
G01 X14.3944 Y3.9205  
G01 X14.4255 Y3.9516  
G01 X14.4660 Y3.9684  
G01 X16.0100 Y3.9684  
G01 X16.0505 Y3.9516  
G01 X16.0816 Y3.9205  
G01 X16.0902 Y3.8998  
G01 X18.0667 Y5.8764  
G01 X18.1489 Y5.9238  
G01 X18.2405 Y5.9484  
G01 X21.8776 Y5.9484  
G01 X21.8776 Y10.0087 
G01 X21.0887 Y10.7976 
G01 X17.4373 Y10.7976 
G01 X16.0984 Y9.4587  
G01 X16.0984 Y8.4360  
G01 X16.0816 Y8.3955  
G01 X16.0505 Y8.3644  
G01 X16.0100 Y8.3476  
G01 X14.4660 Y8.3476  
G01 X14.4255 Y8.3644  
G01 X14.3944 Y8.3955  
G01 X14.3776 Y8.4360  
G00 Z1.0000  
G00 X14.4255 Y5.8516  
G01 Z-0.1000 F50    
G01 X14.4660 Y5.8684  F100   
G01 X16.0100 Y5.8684  
G01 X16.0505 Y5.8516  
G01 X16.0816 Y5.8205  
G01 X16.0984 Y5.7800  
G01 X16.0984 Y5.7741  
G01 X17.4036 Y7.0793  
G01 X17.4707 Y7.1464  
G01 X17.5529 Y7.1938  
G01 X17.6445 Y7.2184  
G01 X18.3590 Y7.2184  
G01 X18.3809 Y7.2712  
G01 X18.4764 Y7.4141  
G01 X18.5979 Y7.5356  
G01 X18.7408 Y7.6311  
G01 X18.8995 Y7.6969  
G01 X19.0681 Y7.7304  
G01 X20.7639 Y7.7304  
G01 X20.9325 Y7.6969  
G01 X21.0912 Y7.6311  
G01 X21.2341 Y7.5356  
G01 X21.3556 Y7.4141  
G01 X21.4511 Y7.2712  
G01 X21.5169 Y7.1125  
G01 X21.5504 Y6.9439  
G01 X21.5504 Y6.7721  
G01 X21.5169 Y6.6035  
G01 X21.4511 Y6.4448  
G01 X21.3556 Y6.3019  
G01 X21.2341 Y6.1804  
G01 X21.0912 Y6.0849  
G01 X20.9325 Y6.0191  
G01 X20.7639 Y5.9856  
G01 X19.0681 Y5.9856  
G01 X18.8995 Y6.0191  
G01 X18.7408 Y6.0849  
G01 X18.5979 Y6.1804  
G01 X18.4764 Y6.3019  
G01 X18.3809 Y6.4448  
G01 X18.3590 Y6.4976  
G01 X17.8413 Y6.4976  
G01 X16.1633 Y4.8196  
G01 X16.0984 Y4.7821  
G01 X16.0984 Y4.4360  
G01 X16.0816 Y4.3955  
G01 X16.0505 Y4.3644  
G01 X16.0100 Y4.3476  
G01 X14.4660 Y4.3476  
G01 X14.4255 Y4.3644  
G01 X14.3944 Y4.3955  
G01 X14.3776 Y4.4360  
G01 X14.3776 Y4.6799  
G01 X13.9064 Y4.2087  
G01 X13.9064 Y3.7360  
G01 X13.8896 Y3.6955  
G01 X13.8585 Y3.6644  
G01 X13.8180 Y3.6476  
G01 X12.8740 Y3.6476  
G01 X12.8335 Y3.6644  
G01 X12.8024 Y3.6955  
G01 X12.7856 Y3.7360  
G01 X12.7856 Y4.5800  
G01 X12.8024 Y4.6205  
G01 X12.8335 Y4.6516  
G01 X12.8740 Y4.6684  
G01 X13.3467 Y4.6684  
G01 X14.0076 Y5.3293  
G01 X14.0747 Y5.3964  
G01 X14.1569 Y5.4438  
G01 X14.2485 Y5.4684  
G01 X14.3776 Y5.4684  
G01 X14.3776 Y5.7800  
G01 X14.3944 Y5.8205  
G01 X14.4255 Y5.8516  
G00 Z1.0000  
G00 X1.8776  Y2.3753  
G01 Z-0.1000 F50    
G01 X1.8170  Y2.4803  F100   
G01 X1.7856  Y2.5974  
G01 X1.7856  Y10.2186 
G01 X1.8170  Y10.3357 
G01 X1.8776  Y10.4407 
G01 X2.8776  Y11.4407 
G01 X2.9633  Y11.5264 
G01 X3.0683  Y11.5870 
G01 X3.1854  Y11.6184 
G01 X7.8066  Y11.6184 
G01 X7.9237  Y11.5870 
G01 X8.0287  Y11.5264 
G01 X9.5867  Y9.9684  
G01 X10.0379 Y9.9684  
G01 X10.1152 Y9.9364  
G01 X10.1744 Y9.8772  
G01 X10.2064 Y9.7998  
G01 X10.2064 Y9.6184  
G01 X10.6140 Y9.6184  
G01 X10.6176 Y9.6272  
G01 X10.6768 Y9.6864  
G01 X10.7541 Y9.7184  
G01 X11.7378 Y9.7184  
G01 X11.8152 Y9.6864  
G01 X11.8744 Y9.6272  
G01 X11.9040 Y9.5557  
G01 X11.9737 Y9.5370  
G01 X12.0787 Y9.4764  
G01 X12.5287 Y9.0264  
G01 X12.6144 Y8.9407  
G01 X12.6750 Y8.8357  
G01 X12.7064 Y8.7186  
G01 X12.7064 Y8.6501  
G01 X12.7176 Y8.6772  
G01 X12.7768 Y8.7364  
G01 X12.8541 Y8.7684  
G01 X13.8378 Y8.7684  
G01 X13.9152 Y8.7364  
G01 X13.9744 Y8.6772  
G01 X14.0064 Y8.5998  
G01 X14.0064 Y8.1487  
G01 X14.2776 Y7.8775  
G01 X14.2776 Y7.8998  
G01 X14.3096 Y7.9772  
G01 X14.3688 Y8.0364  
G01 X14.4461 Y8.0684  
G01 X16.0298 Y8.0684  
G01 X16.1072 Y8.0364  
G01 X16.1664 Y7.9772  
G01 X16.1984 Y7.8998  
G01 X16.1984 Y7.6684  
G01 X16.3513 Y7.6684  
G01 X18.1828 Y9.4999  
G01 X18.2190 Y9.6816  
G01 X18.2923 Y9.8586  
G01 X18.3987 Y10.0179 
G01 X18.5341 Y10.1533 
G01 X18.6934 Y10.2597 
G01 X18.8704 Y10.3330 
G01 X19.0582 Y10.3704 
G01 X20.7738 Y10.3704 
G01 X20.9616 Y10.3330 
G01 X21.1386 Y10.2597 
G01 X21.2979 Y10.1533 
G01 X21.4333 Y10.0179 
G01 X21.5397 Y9.8586  
G01 X21.6130 Y9.6816  
G01 X21.6504 Y9.4938  
G01 X21.6504 Y9.3022  
G01 X21.6130 Y9.1144  
G01 X21.5397 Y8.9374  
G01 X21.4333 Y8.7781  
G01 X21.2979 Y8.6427  
G01 X21.1386 Y8.5363  
G01 X20.9616 Y8.4630  
G01 X20.7738 Y8.4256  
G01 X19.0582 Y8.4256  
G01 X18.8704 Y8.4630  
G01 X18.6934 Y8.5363  
G01 X18.5903 Y8.6052  
G01 X16.9104 Y6.9253  
G01 X16.8247 Y6.8396  
G01 X16.7197 Y6.7790  
G01 X16.6026 Y6.7476  
G01 X16.1984 Y6.7476  
G01 X16.1984 Y6.5161  
G01 X16.1664 Y6.4388  
G01 X16.1072 Y6.3796  
G01 X16.0298 Y6.3476  
G01 X14.4461 Y6.3476  
G01 X14.3688 Y6.3796  
G01 X14.3096 Y6.4388  
G01 X14.2776 Y6.5161  
G01 X14.2776 Y6.7476  
G01 X14.2354 Y6.7476  
G01 X14.1183 Y6.7790  
G01 X14.0133 Y6.8396  
G01 X13.9276 Y6.9253  
G01 X13.3053 Y7.5476  
G01 X12.8541 Y7.5476  
G01 X12.7768 Y7.5796  
G01 X12.7176 Y7.6388  
G01 X12.7064 Y7.6659  
G01 X12.7064 Y6.0474  
G01 X12.6750 Y5.9303  
G01 X12.6144 Y5.8253  
G01 X11.9064 Y5.1173  
G01 X11.9064 Y4.6661  
G01 X11.8744 Y4.5888  
G01 X11.8152 Y4.5296  
G01 X11.7378 Y4.4976  
G01 X10.7541 Y4.4976  
G01 X10.6768 Y4.5296  
G01 X10.6176 Y4.5888  
G01 X10.5933 Y4.6476  
G01 X10.2064 Y4.6476  
G01 X10.2064 Y4.4161  
G01 X10.1744 Y4.3388  
G01 X10.1152 Y4.2796  
G01 X10.0379 Y4.2476  
G01 X8.4541  Y4.2476  
G01 X8.3768  Y4.2796  
G01 X8.3176  Y4.3388  
G01 X8.2856  Y4.4161  
G01 X8.2856  Y5.7999  
G01 X8.3176  Y5.8772  
G01 X8.3768  Y5.9364  
G01 X8.4541  Y5.9684  
G01 X10.0379 Y5.9684  
G01 X10.1152 Y5.9364  
G01 X10.1744 Y5.8772  
G01 X10.2064 Y5.7999  
G01 X10.2064 Y5.5684  
G01 X10.5933 Y5.5684  
G01 X10.6176 Y5.6272  
G01 X10.6768 Y5.6864  
G01 X10.7541 Y5.7184  
G01 X11.2053 Y5.7184  
G01 X11.7856 Y6.2987  
G01 X11.7856 Y6.6174  
G01 X11.7378 Y6.5976  
G01 X10.7541 Y6.5976  
G01 X10.6768 Y6.6296  
G01 X10.6176 Y6.6888  
G01 X10.5933 Y6.7476  
G01 X10.2064 Y6.7476  
G01 X10.2064 Y6.5161  
G01 X10.1744 Y6.4388  
G01 X10.1152 Y6.3796  
G01 X10.0379 Y6.3476  
G01 X8.4541  Y6.3476  
G01 X8.3768  Y6.3796  
G01 X8.3176  Y6.4388  
G01 X8.2856  Y6.5161  
G01 X8.2856  Y6.7476  
G01 X8.1354  Y6.7476  
G01 X8.0183  Y6.7790  
G01 X7.9133  Y6.8396  
G01 X7.8276  Y6.9253  
G01 X6.1493  Y8.6036  
G01 X6.0486  Y8.5363  
G01 X5.8716  Y8.4630  
G01 X5.6838  Y8.4256  
G01 X3.9682  Y8.4256  
G01 X3.7804  Y8.4630  
G01 X3.6034  Y8.5363  
G01 X3.4441  Y8.6427  
G01 X3.3087  Y8.7781  
G01 X3.2023  Y8.9374  
G01 X3.1290  Y9.1144  
G01 X3.0916  Y9.3022  
G01 X3.0916  Y9.4938  
G01 X3.1290  Y9.6816  
G01 X3.2023  Y9.8586  
G01 X3.3087  Y10.0179 
G01 X3.4441  Y10.1533 
G01 X3.6034  Y10.2597 
G01 X3.7804  Y10.3330 
G01 X3.9682  Y10.3704 
G01 X5.6838  Y10.3704 
G01 X5.8716  Y10.3330 
G01 X6.0486  Y10.2597 
G01 X6.2079  Y10.1533 
G01 X6.3433  Y10.0179 
G01 X6.4497  Y9.8586  
G01 X6.5230  Y9.6816  
G01 X6.5602  Y9.4949  
G01 X8.2856  Y7.7695  
G01 X8.2856  Y7.8998  
G01 X8.3176  Y7.9772  
G01 X8.3768  Y8.0364  
G01 X8.4541  Y8.0684  
G01 X10.0379 Y8.0684  
G01 X10.1152 Y8.0364  
G01 X10.1744 Y7.9772  
G01 X10.2064 Y7.8998  
G01 X10.2064 Y7.6684  
G01 X10.5933 Y7.6684  
G01 X10.6176 Y7.7272  
G01 X10.6768 Y7.7864  
G01 X10.7541 Y7.8184  
G01 X11.7378 Y7.8184  
G01 X11.7856 Y7.7986  
G01 X11.7856 Y8.4673  
G01 X11.7502 Y8.5027  
G01 X11.7378 Y8.4976  
G01 X10.7541 Y8.4976  
G01 X10.6768 Y8.5296  
G01 X10.6176 Y8.5888  
G01 X10.5856 Y8.6661  
G01 X10.5856 Y8.6976  
G01 X10.2064 Y8.6976  
G01 X10.2064 Y8.4161  
G01 X10.1744 Y8.3388  
G01 X10.1152 Y8.2796  
G01 X10.0379 Y8.2476  
G01 X8.4541  Y8.2476  
G01 X8.3768  Y8.2796  
G01 X8.3176  Y8.3388  
G01 X8.2856  Y8.4161  
G01 X8.2856  Y9.7998  
G01 X8.3176  Y9.8772  
G01 X8.3467  Y9.9062  
G01 X7.5553  Y10.6976 
G01 X3.4367  Y10.6976 
G01 X2.7064  Y9.9673  
G01 X2.7064  Y2.8487  
G01 X3.2480  Y2.3071  
G01 X3.3087  Y2.3979  
G01 X3.4441  Y2.5333  
G01 X3.6034  Y2.6397  
G01 X3.7804  Y2.7130  
G01 X3.9682  Y2.7504  
G01 X5.6838  Y2.7504  
G01 X5.8716  Y2.7130  
G01 X6.0486  Y2.6397  
G01 X6.2079  Y2.5333  
G01 X6.3433  Y2.3979  
G01 X6.4497  Y2.2386  
G01 X6.5230  Y2.0616  
G01 X6.5604  Y1.8738  
G01 X6.5604  Y1.6822  
G01 X6.5230  Y1.4944  
G01 X6.4497  Y1.3174  
G01 X6.3433  Y1.1581  
G01 X6.2079  Y1.0227  
G01 X6.0486  Y0.9163  
G01 X5.8716  Y0.8430  
G01 X5.6838  Y0.8056  
G01 X3.9682  Y0.8056  
G01 X3.7804  Y0.8430  
G01 X3.6034  Y0.9163  
G01 X3.4441  Y1.0227  
G01 X3.3087  Y1.1581  
G01 X3.2023  Y1.3174  
G01 X3.0654  Y1.3176  
G01 X2.9483  Y1.3490  
G01 X2.8433  Y1.4096  
G01 X1.9633  Y2.2896  
G01 X1.8776  Y2.3753  
G00 Z1.0000  
G00 X3.3087  Y3.6981  
G01 Z-0.1000 F50    
G01 X3.2023  Y3.8574  F100   
G01 X3.1290  Y4.0344  
G01 X3.0916  Y4.2222  
G01 X3.0916  Y4.4138  
G01 X3.1290  Y4.6016  
G01 X3.2023  Y4.7786  
G01 X3.3087  Y4.9379  
G01 X3.4441  Y5.0733  
G01 X3.6034  Y5.1797  
G01 X3.7804  Y5.2530  
G01 X3.9682  Y5.2904  
G01 X5.6838  Y5.2904  
G01 X5.8716  Y5.2530  
G01 X6.0486  Y5.1797  
G01 X6.2079  Y5.0733  
G01 X6.3433  Y4.9379  
G01 X6.4497  Y4.7786  
G01 X6.5230  Y4.6016  
G01 X6.5604  Y4.4138  
G01 X6.5604  Y4.2222  
G01 X6.5230  Y4.0344  
G01 X7.5287  Y3.0264  
G01 X7.6144  Y2.9407  
G01 X7.6750  Y2.8357  
G01 X7.7064  Y2.7186  
G01 X7.7064  Y2.3487  
G01 X8.4367  Y1.6184  
G01 X16.0553 Y1.6184  
G01 X18.2931 Y3.8562  
G01 X18.2190 Y4.0344  
G01 X18.1816 Y4.2222  
G01 X18.1816 Y4.4138  
G01 X18.2190 Y4.6016  
G01 X18.2923 Y4.7786  
G01 X18.3987 Y4.9379  
G01 X18.5341 Y5.0733  
G01 X18.6154 Y5.1276  
G01 X18.4787 Y5.1276  
G01 X16.3704 Y3.0193  
G01 X16.2847 Y2.9336  
G01 X16.1984 Y2.8838  
G01 X16.1984 Y2.5161  
G01 X16.1664 Y2.4388  
G01 X16.1072 Y2.3796  
G01 X16.0298 Y2.3476  
G01 X14.4461 Y2.3476  
G01 X14.3688 Y2.3796  
G01 X14.3096 Y2.4388  
G01 X14.2776 Y2.5161  
G01 X14.2776 Y3.8998  
G01 X14.3096 Y3.9772  
G01 X14.3688 Y4.0364  
G01 X14.4461 Y4.0684  
G01 X16.0298 Y4.0684  
G01 X16.0917 Y4.0428  
G01 X18.0053 Y5.9564  
G01 X18.1103 Y6.0170  
G01 X18.2274 Y6.0484  
G01 X18.6154 Y6.0484  
G01 X18.5341 Y6.1027  
G01 X18.3987 Y6.2381  
G01 X18.2923 Y6.3974  
G01 X17.8827 Y6.3976  
G01 X16.2247 Y4.7396  
G01 X16.1984 Y4.7244  
G01 X16.1984 Y4.4161  
G01 X16.1664 Y4.3388  
G01 X16.1072 Y4.2796  
G01 X16.0298 Y4.2476  
G01 X14.4461 Y4.2476  
G01 X14.3688 Y4.2796  
G01 X14.3096 Y4.3388  
G01 X14.2776 Y4.4161  
G01 X14.2776 Y4.4385  
G01 X14.0064 Y4.1673  
G01 X14.0064 Y3.7161  
G01 X13.9744 Y3.6388  
G01 X13.9152 Y3.5796  
G01 X13.8378 Y3.5476  
G01 X12.8541 Y3.5476  
G01 X12.7768 Y3.5796  
G01 X12.7176 Y3.6388  
G01 X12.6856 Y3.7161  
G01 X12.6856 Y4.5998  
G01 X12.7176 Y4.6772  
G01 X12.7768 Y4.7364  
G01 X12.8541 Y4.7684  
G01 X13.3053 Y4.7684  
G01 X13.9276 Y5.3907  
G01 X14.0133 Y5.4764  
G01 X14.1183 Y5.5370  
G01 X14.2354 Y5.5684  
G01 X14.2776 Y5.5684  
G01 X14.2776 Y5.7999  
G01 X14.3096 Y5.8772  
G01 X14.3688 Y5.9364  
G01 X14.4461 Y5.9684  
G01 X16.0298 Y5.9684  
G01 X16.1072 Y5.9364  
G01 X16.1132 Y5.9303  
G01 X17.3236 Y7.1407  
G01 X17.4093 Y7.2264  
G01 X17.5143 Y7.2870  
G01 X17.6314 Y7.3184  
G01 X18.2922 Y7.3184  
G01 X18.3987 Y7.4779  
G01 X18.5341 Y7.6133  
G01 X18.6934 Y7.7197  
G01 X18.8704 Y7.7930  
G01 X19.0582 Y7.8304  
G01 X20.7738 Y7.8304  
G01 X20.9616 Y7.7930  
G01 X21.1386 Y7.7197  
G01 X21.2979 Y7.6133  
G01 X21.4333 Y7.4779  
G01 X21.5397 Y7.3186  
G01 X21.6130 Y7.1416  
G01 X21.6504 Y6.9538  
G01 X21.6504 Y6.7622  
G01 X21.6130 Y6.5744  
G01 X21.5397 Y6.3974  
G01 X21.4333 Y6.2381  
G01 X21.2979 Y6.1027  
G01 X21.2166 Y6.0484  
G01 X21.7776 Y6.0484  
G01 X21.7776 Y9.9673  
G01 X21.0473 Y10.6976 
G01 X17.4787 Y10.6976 
G01 X16.1984 Y9.4173  
G01 X16.1984 Y8.4161  
G01 X16.1664 Y8.3388  
G01 X16.1072 Y8.2796  
G01 X16.0298 Y8.2476  
G01 X14.4461 Y8.2476  
G01 X14.3688 Y8.2796  
G01 X14.3096 Y8.3388  
G01 X14.2776 Y8.4161  
G01 X14.2776 Y9.7998  
G01 X14.3096 Y9.8772  
G01 X14.3688 Y9.9364  
G01 X14.4461 Y9.9684  
G01 X15.4473 Y9.9684  
G01 X17.0053 Y11.5264 
G01 X17.1103 Y11.5870 
G01 X17.2274 Y11.6184 
G01 X21.2986 Y11.6184 
G01 X21.4157 Y11.5870 
G01 X21.5207 Y11.5264 
G01 X21.6064 Y11.4407 
G01 X22.6064 Y10.4407 
G01 X22.6670 Y10.3357 
G01 X22.6984 Y10.2186 
G01 X22.6984 Y3.0974  
G01 X22.6670 Y2.9803  
G01 X22.6064 Y2.8753  
G01 X22.5207 Y2.7896  
G01 X21.6428 Y1.9117  
G01 X21.6504 Y1.8738  
G01 X21.6504 Y1.6822  
G01 X21.6130 Y1.4944  
G01 X21.5397 Y1.3174  
G01 X21.4333 Y1.1581  
G01 X21.2979 Y1.0227  
G01 X21.1386 Y0.9163  
G01 X20.9616 Y0.8430  
G01 X20.7738 Y0.8056  
G01 X19.0582 Y0.8056  
G01 X18.8704 Y0.8430  
G01 X18.6934 Y0.9163  
G01 X18.5341 Y1.0227  
G01 X18.3987 Y1.1581  
G01 X18.2923 Y1.3174  
G01 X18.2190 Y1.4944  
G01 X18.1816 Y1.6822  
G01 X18.1816 Y1.8738  
G01 X18.2190 Y2.0616  
G01 X18.2923 Y2.2386  
G01 X18.3987 Y2.3979  
G01 X18.5341 Y2.5333  
G01 X18.6934 Y2.6397  
G01 X18.8704 Y2.7130  
G01 X19.0582 Y2.7504  
G01 X20.7738 Y2.7504  
G01 X20.9616 Y2.7130  
G01 X21.0891 Y2.6602  
G01 X21.7776 Y3.3487  
G01 X21.7776 Y5.1276  
G01 X21.2166 Y5.1276  
G01 X21.2979 Y5.0733  
G01 X21.4333 Y4.9379  
G01 X21.5397 Y4.7786  
G01 X21.6130 Y4.6016  
G01 X21.6504 Y4.4138  
G01 X21.6504 Y4.2222  
G01 X21.6130 Y4.0344  
G01 X21.5397 Y3.8574  
G01 X21.4333 Y3.6981  
G01 X21.2979 Y3.5627  
G01 X21.1386 Y3.4563  
G01 X20.9616 Y3.3830  
G01 X20.7738 Y3.3456  
G01 X19.0847 Y3.3456  
G01 X16.5287 Y0.7896  
G01 X16.4237 Y0.7290  
G01 X16.3066 Y0.6976  
G01 X8.1854  Y0.6976  
G01 X8.0683  Y0.7290  
G01 X7.9633  Y0.7896  
G01 X6.8776  Y1.8753  
G01 X6.8170  Y1.9803  
G01 X6.7856  Y2.0974  
G01 X6.7856  Y2.4673  
G01 X5.8702  Y3.3827  
G01 X5.6838  Y3.3456  
G01 X3.9682  Y3.3456  
G01 X3.7804  Y3.3830  
G01 X3.6034  Y3.4563  
G01 X3.4441  Y3.5627  
G01 X3.3087  Y3.6981  
G00 Z1.0000  
G00 X3.3087  Y6.2381  
G01 Z-0.1000 F50    
G01 X3.2023  Y6.3974  F100   
G01 X3.1290  Y6.5744  
G01 X3.0916  Y6.7622  
G01 X3.0916  Y6.9538  
G01 X3.1290  Y7.1416  
G01 X3.2023  Y7.3186  
G01 X3.3087  Y7.4779  
G01 X3.4441  Y7.6133  
G01 X3.6034  Y7.7197  
G01 X3.7804  Y7.7930  
G01 X3.9682  Y7.8304  
G01 X5.6838  Y7.8304  
G01 X5.8716  Y7.7930  
G01 X6.0486  Y7.7197  
G01 X6.2079  Y7.6133  
G01 X6.3433  Y7.4779  
G01 X6.4497  Y7.3186  
G01 X6.5230  Y7.1416  
G01 X6.5604  Y6.9538  
G01 X6.5604  Y6.7622  
G01 X6.5230  Y6.5744  
G01 X6.5106  Y6.5445  
G01 X7.6144  Y5.4407  
G01 X7.6750  Y5.3357  
G01 X7.7064  Y5.2186  
G01 X7.7064  Y4.8487  
G01 X8.4867  Y4.0684  
G01 X10.0379 Y4.0684  
G01 X10.1152 Y4.0364  
G01 X10.1744 Y3.9772  
G01 X10.2064 Y3.8998  
G01 X10.2064 Y3.6684  
G01 X10.5933 Y3.6684  
G01 X10.6176 Y3.7272  
G01 X10.6768 Y3.7864  
G01 X10.7541 Y3.8184  
G01 X11.7378 Y3.8184  
G01 X11.8152 Y3.7864  
G01 X11.8744 Y3.7272  
G01 X11.9064 Y3.6498  
G01 X11.9064 Y2.7661  
G01 X11.8744 Y2.6888  
G01 X11.8152 Y2.6296  
G01 X11.7378 Y2.5976  
G01 X10.7541 Y2.5976  
G01 X10.6768 Y2.6296  
G01 X10.6176 Y2.6888  
G01 X10.5933 Y2.7476  
G01 X10.2064 Y2.7476  
G01 X10.2064 Y2.5161  
G01 X10.1744 Y2.4388  
G01 X10.1152 Y2.3796  
G01 X10.0379 Y2.3476  
G01 X8.4541  Y2.3476  
G01 X8.3768  Y2.3796  
G01 X8.3176  Y2.4388  
G01 X8.2856  Y2.5161  
G01 X8.2856  Y2.9673  
G01 X6.9633  Y4.2896  
G01 X6.8776  Y4.3753  
G01 X6.8170  Y4.4803  
G01 X6.7856  Y4.5974  
G01 X6.7856  Y4.9673  
G01 X5.8368  Y5.9161  
G01 X5.6838  Y5.8856  
G01 X3.9682  Y5.8856  
G01 X3.7804  Y5.9230  
G01 X3.6034  Y5.9963  
G01 X3.4441  Y6.1027  
G01 X3.3087  Y6.2381  
G00 Z1.0000  
G00 X1.7976  Y2.3139  
G01 Z-0.1000 F50    
G01 X1.7238  Y2.4417  F100   
G01 X1.6856  Y2.5842  
G01 X1.6856  Y10.2318 
G01 X1.7238  Y10.3743 
G01 X1.7976  Y10.5021 
G01 X2.7976  Y11.5021 
G01 X2.9019  Y11.6064 
G01 X3.0297  Y11.6802 
G01 X3.1722  Y11.7184 
G01 X7.8198  Y11.7184 
G01 X7.9623  Y11.6802 
G01 X8.0901  Y11.6064 
G01 X9.6281  Y10.0684 
G01 X10.0369 Y10.0684 
G01 X10.1158 Y10.0472 
G01 X10.1866 Y10.0064 
G01 X10.2444 Y9.9486  
G01 X10.2852 Y9.8778  
G01 X10.3064 Y9.7989  
G01 X10.3064 Y9.7184  
G01 X10.5674 Y9.7184  
G01 X10.6054 Y9.7564  
G01 X10.6762 Y9.7972  
G01 X10.7551 Y9.8184  
G01 X11.7369 Y9.8184  
G01 X11.8158 Y9.7972  
G01 X11.8866 Y9.7564  
G01 X11.9444 Y9.6986  
G01 X11.9787 Y9.6392  
G01 X12.0123 Y9.6302  
G01 X12.1401 Y9.5564  
G01 X12.5901 Y9.1064  
G01 X12.6944 Y9.0021  
G01 X12.7682 Y8.8743  
G01 X12.7756 Y8.8469  
G01 X12.8551 Y8.8684  
G01 X13.8369 Y8.8684  
G01 X13.9158 Y8.8472  
G01 X13.9866 Y8.8064  
G01 X14.0444 Y8.7486  
G01 X14.0852 Y8.6778  
G01 X14.1064 Y8.5989  
G01 X14.1064 Y8.1901  
G01 X14.2438 Y8.0527  
G01 X14.2974 Y8.1064  
G01 X14.3682 Y8.1472  
G01 X14.4083 Y8.1580  
G01 X14.3682 Y8.1688  
G01 X14.2974 Y8.2096  
G01 X14.2396 Y8.2674  
G01 X14.1988 Y8.3382  
G01 X14.1776 Y8.4171  
G01 X14.1776 Y9.7989  
G01 X14.1988 Y9.8778  
G01 X14.2396 Y9.9486  
G01 X14.2974 Y10.0064 
G01 X14.3682 Y10.0472 
G01 X14.4471 Y10.0684 
G01 X15.4059 Y10.0684 
G01 X16.9439 Y11.6064 
G01 X17.0717 Y11.6802 
G01 X17.2142 Y11.7184 
G01 X21.3118 Y11.7184 
G01 X21.4543 Y11.6802 
G01 X21.5821 Y11.6064 
G01 X21.6864 Y11.5021 
G01 X22.6864 Y10.5021 
G01 X22.7602 Y10.3743 
G01 X22.7984 Y10.2318 
G01 X22.7984 Y3.0842  
G01 X22.7602 Y2.9417  
G01 X22.6864 Y2.8139  
G01 X22.5821 Y2.7096  
G01 X21.7483 Y1.8758  
G01 X21.7504 Y1.8624  
G01 X21.7504 Y1.6936  
G01 X21.7240 Y1.5269  
G01 X21.6718 Y1.3663  
G01 X21.5952 Y1.2159  
G01 X21.4960 Y1.0794  
G01 X21.3766 Y0.9600  
G01 X21.2401 Y0.8608  
G01 X21.0897 Y0.7842  
G01 X20.9291 Y0.7320  
G01 X20.7624 Y0.7056  
G01 X19.0696 Y0.7056  
G01 X18.9029 Y0.7320  
G01 X18.7423 Y0.7842  
G01 X18.5919 Y0.8608  
G01 X18.4554 Y0.9600  
G01 X18.3360 Y1.0794  
G01 X18.2368 Y1.2159  
G01 X18.1602 Y1.3663  
G01 X18.1080 Y1.5269  
G01 X18.0816 Y1.6936  
G01 X18.0816 Y1.8624  
G01 X18.1080 Y2.0291  
G01 X18.1602 Y2.1897  
G01 X18.2368 Y2.3401  
G01 X18.2799 Y2.3994  
G01 X16.5901 Y0.7096  
G01 X16.4623 Y0.6358  
G01 X16.3198 Y0.5976  
G01 X8.1722  Y0.5976  
G01 X8.0297  Y0.6358  
G01 X7.9019  Y0.7096  
G01 X6.7976  Y1.8139  
G01 X6.7238  Y1.9417  
G01 X6.6856  Y2.0842  
G01 X6.6856  Y2.4259  
G01 X5.8394  Y3.2721  
G01 X5.6724  Y3.2456  
G01 X3.9796  Y3.2456  
G01 X3.8129  Y3.2720  
G01 X3.6523  Y3.3242  
G01 X3.5019  Y3.4008  
G01 X3.3654  Y3.5000  
G01 X3.2460  Y3.6194  
G01 X3.1468  Y3.7559  
G01 X3.0702  Y3.9063  
G01 X3.0180  Y4.0669  
G01 X2.9916  Y4.2336  
G01 X2.9916  Y4.4024  
G01 X3.0180  Y4.5691  
G01 X3.0702  Y4.7297  
G01 X3.1468  Y4.8801  
G01 X3.2460  Y5.0166  
G01 X3.3654  Y5.1360  
G01 X3.5019  Y5.2352  
G01 X3.6523  Y5.3118  
G01 X3.8129  Y5.3640  
G01 X3.9796  Y5.3904  
G01 X5.6724  Y5.3904  
G01 X5.8391  Y5.3640  
G01 X5.9997  Y5.3118  
G01 X6.1501  Y5.2352  
G01 X6.2866  Y5.1360  
G01 X6.4060  Y5.0166  
G01 X6.5052  Y4.8801  
G01 X6.5818  Y4.7297  
G01 X6.6340  Y4.5691  
G01 X6.6604  Y4.4024  
G01 X6.6604  Y4.2336  
G01 X6.6340  Y4.0669  
G01 X6.6329  Y4.0636  
G01 X7.5901  Y3.1064  
G01 X7.6944  Y3.0021  
G01 X7.7682  Y2.8743  
G01 X7.8064  Y2.7318  
G01 X7.8064  Y2.3901  
G01 X8.4781  Y1.7184  
G01 X16.0139 Y1.7184  
G01 X18.1742 Y3.8787  
G01 X18.1602 Y3.9063  
G01 X18.1080 Y4.0669  
G01 X18.0816 Y4.2336  
G01 X18.0816 Y4.4024  
G01 X18.1080 Y4.5691  
G01 X18.1303 Y4.6378  
G01 X16.4504 Y2.9579  
G01 X16.3461 Y2.8536  
G01 X16.2984 Y2.8260  
G01 X16.2984 Y2.5171  
G01 X16.2772 Y2.4382  
G01 X16.2364 Y2.3674  
G01 X16.1786 Y2.3096  
G01 X16.1078 Y2.2688  
G01 X16.0289 Y2.2476  
G01 X14.4471 Y2.2476  
G01 X14.3682 Y2.2688  
G01 X14.2974 Y2.3096  
G01 X14.2396 Y2.3674  
G01 X14.1988 Y2.4382  
G01 X14.1776 Y2.5171  
G01 X14.1776 Y3.8989  
G01 X14.1988 Y3.9778  
G01 X14.2396 Y4.0486  
G01 X14.2974 Y4.1064  
G01 X14.3682 Y4.1472  
G01 X14.4083 Y4.1580  
G01 X14.3682 Y4.1688  
G01 X14.2974 Y4.2096  
G01 X14.2438 Y4.2633  
G01 X14.1064 Y4.1259  
G01 X14.1064 Y3.7171  
G01 X14.0852 Y3.6382  
G01 X14.0444 Y3.5674  
G01 X13.9866 Y3.5096  
G01 X13.9158 Y3.4688  
G01 X13.8369 Y3.4476  
G01 X12.8551 Y3.4476  
G01 X12.7762 Y3.4688  
G01 X12.7054 Y3.5096  
G01 X12.6476 Y3.5674  
G01 X12.6068 Y3.6382  
G01 X12.5856 Y3.7171  
G01 X12.5856 Y4.5989  
G01 X12.6068 Y4.6778  
G01 X12.6476 Y4.7486  
G01 X12.7054 Y4.8064  
G01 X12.7762 Y4.8472  
G01 X12.8551 Y4.8684  
G01 X13.2639 Y4.8684  
G01 X13.8476 Y5.4521  
G01 X13.9519 Y5.5564  
G01 X14.0797 Y5.6302  
G01 X14.1776 Y5.6564  
G01 X14.1776 Y5.7989  
G01 X14.1988 Y5.8778  
G01 X14.2396 Y5.9486  
G01 X14.2974 Y6.0064  
G01 X14.3682 Y6.0472  
G01 X14.4471 Y6.0684  
G01 X16.0289 Y6.0684  
G01 X16.0928 Y6.0513  
G01 X16.7159 Y6.6744  
G01 X16.6158 Y6.6476  
G01 X16.2984 Y6.6476  
G01 X16.2984 Y6.5171  
G01 X16.2772 Y6.4382  
G01 X16.2364 Y6.3674  
G01 X16.1786 Y6.3096  
G01 X16.1078 Y6.2688  
G01 X16.0289 Y6.2476  
G01 X14.4471 Y6.2476  
G01 X14.3682 Y6.2688  
G01 X14.2974 Y6.3096  
G01 X14.2396 Y6.3674  
G01 X14.1988 Y6.4382  
G01 X14.1776 Y6.5171  
G01 X14.1776 Y6.6596  
G01 X14.0797 Y6.6858  
G01 X13.9519 Y6.7596  
G01 X13.8476 Y6.8639  
G01 X13.2639 Y7.4476  
G01 X12.8551 Y7.4476  
G01 X12.8064 Y7.4607  
G01 X12.8064 Y6.0342  
G01 X12.7682 Y5.8917  
G01 X12.6944 Y5.7639  
G01 X12.0064 Y5.0759  
G01 X12.0064 Y4.6671  
G01 X11.9852 Y4.5882  
G01 X11.9444 Y4.5174  
G01 X11.8866 Y4.4596  
G01 X11.8158 Y4.4188  
G01 X11.7369 Y4.3976  
G01 X10.7551 Y4.3976  
G01 X10.6762 Y4.4188  
G01 X10.6054 Y4.4596  
G01 X10.5476 Y4.5174  
G01 X10.5302 Y4.5476  
G01 X10.3064 Y4.5476  
G01 X10.3064 Y4.4171  
G01 X10.2852 Y4.3382  
G01 X10.2444 Y4.2674  
G01 X10.1866 Y4.2096  
G01 X10.1158 Y4.1688  
G01 X10.0757 Y4.1580  
G01 X10.1158 Y4.1472  
G01 X10.1866 Y4.1064  
G01 X10.2444 Y4.0486  
G01 X10.2852 Y3.9778  
G01 X10.3064 Y3.8989  
G01 X10.3064 Y3.7684  
G01 X10.5302 Y3.7684  
G01 X10.5476 Y3.7986  
G01 X10.6054 Y3.8564  
G01 X10.6762 Y3.8972  
G01 X10.7551 Y3.9184  
G01 X11.7369 Y3.9184  
G01 X11.8158 Y3.8972  
G01 X11.8866 Y3.8564  
G01 X11.9444 Y3.7986  
G01 X11.9852 Y3.7278  
G01 X12.0064 Y3.6489  
G01 X12.0064 Y2.7671  
G01 X11.9852 Y2.6882  
G01 X11.9444 Y2.6174  
G01 X11.8866 Y2.5596  
G01 X11.8158 Y2.5188  
G01 X11.7369 Y2.4976  
G01 X10.7551 Y2.4976  
G01 X10.6762 Y2.5188  
G01 X10.6054 Y2.5596  
G01 X10.5476 Y2.6174  
G01 X10.5302 Y2.6476  
G01 X10.3064 Y2.6476  
G01 X10.3064 Y2.5171  
G01 X10.2852 Y2.4382  
G01 X10.2444 Y2.3674  
G01 X10.1866 Y2.3096  
G01 X10.1158 Y2.2688  
G01 X10.0369 Y2.2476  
G01 X8.4551  Y2.2476  
G01 X8.3762  Y2.2688  
G01 X8.3054  Y2.3096  
G01 X8.2476  Y2.3674  
G01 X8.2068  Y2.4382  
G01 X8.1856  Y2.5171  
G01 X8.1856  Y2.9259  
G01 X6.9019  Y4.2096  
G01 X6.7976  Y4.3139  
G01 X6.7238  Y4.4417  
G01 X6.6856  Y4.5842  
G01 X6.6856  Y4.9259  
G01 X5.8049  Y5.8066  
G01 X5.6724  Y5.7856  
G01 X3.9796  Y5.7856  
G01 X3.8129  Y5.8120  
G01 X3.6523  Y5.8642  
G01 X3.5019  Y5.9408  
G01 X3.3654  Y6.0400  
G01 X3.2460  Y6.1594  
G01 X3.1468  Y6.2959  
G01 X3.0702  Y6.4463  
G01 X3.0180  Y6.6069  
G01 X2.9916  Y6.7736  
G01 X2.9916  Y6.9424  
G01 X3.0180  Y7.1091  
G01 X3.0702  Y7.2697  
G01 X3.1468  Y7.4201  
G01 X3.2460  Y7.5566  
G01 X3.3654  Y7.6760  
G01 X3.5019  Y7.7752  
G01 X3.6523  Y7.8518  
G01 X3.8129  Y7.9040  
G01 X3.9796  Y7.9304  
G01 X5.6724  Y7.9304  
G01 X5.8391  Y7.9040  
G01 X5.9997  Y7.8518  
G01 X6.1501  Y7.7752  
G01 X6.2866  Y7.6760  
G01 X6.4060  Y7.5566  
G01 X6.5052  Y7.4201  
G01 X6.5818  Y7.2697  
G01 X6.6340  Y7.1091  
G01 X6.6604  Y6.9424  
G01 X6.6604  Y6.7736  
G01 X6.6340  Y6.6069  
G01 X6.6231  Y6.5734  
G01 X7.6944  Y5.5021  
G01 X7.7682  Y5.3743  
G01 X7.8064  Y5.2318  
G01 X7.8064  Y4.8901  
G01 X8.1856  Y4.5109  
G01 X8.1856  Y5.7989  
G01 X8.2068  Y5.8778  
G01 X8.2476  Y5.9486  
G01 X8.3054  Y6.0064  
G01 X8.3762  Y6.0472  
G01 X8.4551  Y6.0684  
G01 X10.0369 Y6.0684  
G01 X10.1158 Y6.0472  
G01 X10.1866 Y6.0064  
G01 X10.2444 Y5.9486  
G01 X10.2852 Y5.8778  
G01 X10.3064 Y5.7989  
G01 X10.3064 Y5.6684  
G01 X10.5302 Y5.6684  
G01 X10.5476 Y5.6986  
G01 X10.6054 Y5.7564  
G01 X10.6762 Y5.7972  
G01 X10.7551 Y5.8184  
G01 X11.1639 Y5.8184  
G01 X11.6856 Y6.3401  
G01 X11.6856 Y6.4976  
G01 X10.7551 Y6.4976  
G01 X10.6762 Y6.5188  
G01 X10.6054 Y6.5596  
G01 X10.5476 Y6.6174  
G01 X10.5302 Y6.6476  
G01 X10.3064 Y6.6476  
G01 X10.3064 Y6.5171  
G01 X10.2852 Y6.4382  
G01 X10.2444 Y6.3674  
G01 X10.1866 Y6.3096  
G01 X10.1158 Y6.2688  
G01 X10.0369 Y6.2476  
G01 X8.4551  Y6.2476  
G01 X8.3762  Y6.2688  
G01 X8.3054  Y6.3096  
G01 X8.2476  Y6.3674  
G01 X8.2068  Y6.4382  
G01 X8.1856  Y6.5171  
G01 X8.1856  Y6.6476  
G01 X8.1222  Y6.6476  
G01 X7.9797  Y6.6858  
G01 X7.8519  Y6.7596  
G01 X7.7476  Y6.8639  
G01 X6.1372  Y8.4743  
G01 X5.9997  Y8.4042  
G01 X5.8391  Y8.3520  
G01 X5.6724  Y8.3256  
G01 X3.9796  Y8.3256  
G01 X3.8129  Y8.3520  
G01 X3.6523  Y8.4042  
G01 X3.5019  Y8.4808  
G01 X3.3654  Y8.5800  
G01 X3.2460  Y8.6994  
G01 X3.1468  Y8.8359  
G01 X3.0702  Y8.9863  
G01 X3.0180  Y9.1469  
G01 X2.9916  Y9.3136  
G01 X2.9916  Y9.4824  
G01 X3.0180  Y9.6491  
G01 X3.0702  Y9.8097  
G01 X3.1468  Y9.9601  
G01 X3.2460  Y10.0966 
G01 X3.3654  Y10.2160 
G01 X3.5019  Y10.3152 
G01 X3.6523  Y10.3918 
G01 X3.8129  Y10.4440 
G01 X3.9796  Y10.4704 
G01 X5.6724  Y10.4704 
G01 X5.8391  Y10.4440 
G01 X5.9997  Y10.3918 
G01 X6.1501  Y10.3152 
G01 X6.2866  Y10.2160 
G01 X6.4060  Y10.0966 
G01 X6.5052  Y9.9601  
G01 X6.5818  Y9.8097  
G01 X6.6340  Y9.6491  
G01 X6.6503  Y9.5462  
G01 X8.2111  Y7.9854  
G01 X8.2476  Y8.0486  
G01 X8.3054  Y8.1064  
G01 X8.3762  Y8.1472  
G01 X8.4163  Y8.1580  
G01 X8.3762  Y8.1688  
G01 X8.3054  Y8.2096  
G01 X8.2476  Y8.2674  
G01 X8.2068  Y8.3382  
G01 X8.1856  Y8.4171  
G01 X8.1856  Y9.7989  
G01 X8.2068  Y9.8778  
G01 X8.2166  Y9.8949  
G01 X7.5139  Y10.5976 
G01 X3.4781  Y10.5976 
G01 X2.8064  Y9.9259  
G01 X2.8064  Y2.8901  
G01 X3.2350  Y2.4615  
G01 X3.2460  Y2.4766  
G01 X3.3654  Y2.5960  
G01 X3.5019  Y2.6952  
G01 X3.6523  Y2.7718  
G01 X3.8129  Y2.8240  
G01 X3.9796  Y2.8504  
G01 X5.6724  Y2.8504  
G01 X5.8391  Y2.8240  
G01 X5.9997  Y2.7718  
G01 X6.1501  Y2.6952  
G01 X6.2866  Y2.5960  
G01 X6.4060  Y2.4766  
G01 X6.5052  Y2.3401  
G01 X6.5818  Y2.1897  
G01 X6.6340  Y2.0291  
G01 X6.6604  Y1.8624  
G01 X6.6604  Y1.6936  
G01 X6.6340  Y1.5269  
G01 X6.5818  Y1.3663  
G01 X6.5052  Y1.2159  
G01 X6.4060  Y1.0794  
G01 X6.2866  Y0.9600  
G01 X6.1501  Y0.8608  
G01 X5.9997  Y0.7842  
G01 X5.8391  Y0.7320  
G01 X5.6724  Y0.7056  
G01 X3.9796  Y0.7056  
G01 X3.8129  Y0.7320  
G01 X3.6523  Y0.7842  
G01 X3.5019  Y0.8608  
G01 X3.3654  Y0.9600  
G01 X3.2460  Y1.0794  
G01 X3.1468  Y1.2159  
G01 X3.0522  Y1.2176  
G01 X2.9097  Y1.2558  
G01 X2.7819  Y1.3296  
G01 X1.9019  Y2.2096  
G01 X1.7976  Y2.3139  
G00 Z1.0000  
G00 X10.3064 Y7.7684  
G01 Z-0.1000 F50    
G01 X10.5302 Y7.7684  F100   
G01 X10.5476 Y7.7986  
G01 X10.6054 Y7.8564  
G01 X10.6762 Y7.8972  
G01 X10.7551 Y7.9184  
G01 X11.6856 Y7.9184  
G01 X11.6856 Y8.3976  
G01 X10.7551 Y8.3976  
G01 X10.6762 Y8.4188  
G01 X10.6054 Y8.4596  
G01 X10.5476 Y8.5174  
G01 X10.5068 Y8.5882  
G01 X10.5042 Y8.5976  
G01 X10.3064 Y8.5976  
G01 X10.3064 Y8.4171  
G01 X10.2852 Y8.3382  
G01 X10.2444 Y8.2674  
G01 X10.1866 Y8.2096  
G01 X10.1158 Y8.1688  
G01 X10.0757 Y8.1580  
G01 X10.1158 Y8.1472  
G01 X10.1866 Y8.1064  
G01 X10.2444 Y8.0486  
G01 X10.2852 Y7.9778  
G01 X10.3064 Y7.8989  
G01 X10.3064 Y7.7684  
G00 Z1.0000  
G00 X16.2984 Y7.7684  
G01 Z-0.1000 F50    
G01 X16.3099 Y7.7684  F100   
G01 X18.0925 Y9.5510  
G01 X18.1080 Y9.6491  
G01 X18.1602 Y9.8097  
G01 X18.2368 Y9.9601  
G01 X18.3360 Y10.0966 
G01 X18.4554 Y10.2160 
G01 X18.5919 Y10.3152 
G01 X18.7423 Y10.3918 
G01 X18.9029 Y10.4440 
G01 X19.0696 Y10.4704 
G01 X20.7624 Y10.4704 
G01 X20.9291 Y10.4440 
G01 X21.0897 Y10.3918 
G01 X21.2401 Y10.3152 
G01 X21.3766 Y10.2160 
G01 X21.4960 Y10.0966 
G01 X21.5952 Y9.9601  
G01 X21.6718 Y9.8097  
G01 X21.6776 Y9.7919  
G01 X21.6776 Y9.9259  
G01 X21.0059 Y10.5976 
G01 X17.5201 Y10.5976 
G01 X16.2984 Y9.3759  
G01 X16.2984 Y8.4171  
G01 X16.2772 Y8.3382  
G01 X16.2364 Y8.2674  
G01 X16.1786 Y8.2096  
G01 X16.1078 Y8.1688  
G01 X16.0677 Y8.1580  
G01 X16.1078 Y8.1472  
G01 X16.1786 Y8.1064  
G01 X16.2364 Y8.0486  
G01 X16.2772 Y7.9778  
G01 X16.2984 Y7.8989  
G01 X16.2984 Y7.7684  
G00 Z1.0000  
G00 X17.5181 Y7.3916  
G01 Z-0.1000 F50    
G01 X17.6182 Y7.4184  F100   
G01 X18.2360 Y7.4184  
G01 X18.3360 Y7.5566  
G01 X18.4554 Y7.6760  
G01 X18.5919 Y7.7752  
G01 X18.7423 Y7.8518  
G01 X18.9029 Y7.9040  
G01 X19.0696 Y7.9304  
G01 X20.7624 Y7.9304  
G01 X20.9291 Y7.9040  
G01 X21.0897 Y7.8518  
G01 X21.2401 Y7.7752  
G01 X21.3766 Y7.6760  
G01 X21.4960 Y7.5566  
G01 X21.5952 Y7.4201  
G01 X21.6718 Y7.2697  
G01 X21.6776 Y7.2519  
G01 X21.6776 Y9.0041  
G01 X21.6718 Y8.9863  
G01 X21.5952 Y8.8359  
G01 X21.4960 Y8.6994  
G01 X21.3766 Y8.5800  
G01 X21.2401 Y8.4808  
G01 X21.0897 Y8.4042  
G01 X20.9291 Y8.3520  
G01 X20.7624 Y8.3256  
G01 X19.0696 Y8.3256  
G01 X18.9029 Y8.3520  
G01 X18.7423 Y8.4042  
G01 X18.6021 Y8.4756  
G01 X17.5181 Y7.3916  
G00 Z1.0000  
G00 X17.9241 Y6.2976  
G01 Z-0.1000 F50    
G01 X16.2984 Y4.6719  F100   
G01 X16.2984 Y4.4171  
G01 X16.2888 Y4.3813  
G01 X17.9439 Y6.0364  
G01 X18.0717 Y6.1102  
G01 X18.2142 Y6.1484  
G01 X18.3470 Y6.1484  
G01 X18.3360 Y6.1594  
G01 X18.2368 Y6.2959  
G01 X17.9241 Y6.2976  
G00 Z1.0000  
G00 X21.5952 Y6.2959  
G01 Z-0.1000 F50    
G01 X21.4960 Y6.1594  F100   
G01 X21.4850 Y6.1484  
G01 X21.6776 Y6.1484  
G01 X21.6776 Y6.4641  
G01 X21.6718 Y6.4463  
G01 X21.5952 Y6.2959  
G00 Z1.0000  
G00 X21.6776 Y5.0276  
G01 Z-0.1000 F50    
G01 X21.4850 Y5.0276  F100   
G01 X21.4960 Y5.0166  
G01 X21.5952 Y4.8801  
G01 X21.6718 Y4.7297  
G01 X21.6776 Y4.7119  
G01 X21.6776 Y5.0276  
G00 Z1.0000  
G00 X21.6776 Y3.9241  
G01 Z-0.1000 F50    
G01 X21.6718 Y3.9063  F100   
G01 X21.5952 Y3.7559  
G01 X21.4960 Y3.6194  
G01 X21.3766 Y3.5000  
G01 X21.2401 Y3.4008  
G01 X21.0897 Y3.3242  
G01 X20.9291 Y3.2720  
G01 X20.7624 Y3.2456  
G01 X19.1261 Y3.2456  
G01 X18.5326 Y2.6521  
G01 X18.5919 Y2.6952  
G01 X18.7423 Y2.7718  
G01 X18.9029 Y2.8240  
G01 X19.0696 Y2.8504  
G01 X20.7624 Y2.8504  
G01 X20.9291 Y2.8240  
G01 X21.0667 Y2.7793  
G01 X21.6776 Y3.3901  
G01 X21.6776 Y3.9241  
G00 Z1.0000  
G00 X1.7330  Y2.2370  
G01 Z-0.1000 F50    
G01 X1.6608  Y2.3452  F100   
G01 X1.6110  Y2.4654  
G01 X1.5856  Y2.5930  
G01 X1.5856  Y10.2230 
G01 X1.6110  Y10.3506 
G01 X1.6608  Y10.4708 
G01 X1.7330  Y10.5790 
G01 X2.7330  Y11.5790 
G01 X2.8250  Y11.6710 
G01 X2.9332  Y11.7432 
G01 X3.0534  Y11.7930 
G01 X3.1810  Y11.8184 
G01 X7.8110  Y11.8184 
G01 X7.9386  Y11.7930 
G01 X8.0588  Y11.7432 
G01 X8.1670  Y11.6710 
G01 X9.6695  Y10.1684 
G01 X10.0500 Y10.1684 
G01 X10.1544 Y10.1404 
G01 X10.2480 Y10.0864 
G01 X10.3244 Y10.0100 
G01 X10.3784 Y9.9164  
G01 X10.4047 Y9.8184  
G01 X10.5260 Y9.8184  
G01 X10.5440 Y9.8364  
G01 X10.6376 Y9.8904  
G01 X10.7420 Y9.9184  
G01 X11.7500 Y9.9184  
G01 X11.8544 Y9.8904  
G01 X11.9480 Y9.8364  
G01 X12.0244 Y9.7600  
G01 X12.0485 Y9.7182  
G01 X12.1088 Y9.6932  
G01 X12.2170 Y9.6210  
G01 X12.6670 Y9.1710  
G01 X12.7590 Y9.0790  
G01 X12.8312 Y8.9708  
G01 X12.8332 Y8.9660  
G01 X12.8420 Y8.9684  
G01 X13.8500 Y8.9684  
G01 X13.9544 Y8.9404  
G01 X14.0480 Y8.8864  
G01 X14.0776 Y8.8568  
G01 X14.0776 Y9.8120  
G01 X14.1056 Y9.9164  
G01 X14.1596 Y10.0100 
G01 X14.2360 Y10.0864 
G01 X14.3296 Y10.1404 
G01 X14.4340 Y10.1684 
G01 X15.3645 Y10.1684 
G01 X16.8670 Y11.6710 
G01 X16.9752 Y11.7432 
G01 X17.0954 Y11.7930 
G01 X17.2230 Y11.8184 
G01 X21.3030 Y11.8184 
G01 X21.4306 Y11.7930 
G01 X21.5508 Y11.7432 
G01 X21.6590 Y11.6710 
G01 X21.7510 Y11.5790 
G01 X22.7510 Y10.5790 
G01 X22.8232 Y10.4708 
G01 X22.8730 Y10.3506 
G01 X22.8984 Y10.2230 
G01 X22.8984 Y3.0930  
G01 X22.8730 Y2.9654  
G01 X22.8232 Y2.8452  
G01 X22.7510 Y2.7370  
G01 X22.6590 Y2.6450  
G01 X21.8504 Y1.8365  
G01 X21.8504 Y1.6857  
G01 X21.8215 Y1.5035  
G01 X21.7645 Y1.3280  
G01 X21.6807 Y1.1635  
G01 X21.5723 Y1.0142  
G01 X21.4418 Y0.8837  
G01 X21.2925 Y0.7753  
G01 X21.1280 Y0.6915  
G01 X20.9525 Y0.6345  
G01 X20.7703 Y0.6056  
G01 X19.0617 Y0.6056  
G01 X18.8795 Y0.6345  
G01 X18.7040 Y0.6915  
G01 X18.5395 Y0.7753  
G01 X18.3902 Y0.8837  
G01 X18.2597 Y1.0142  
G01 X18.1513 Y1.1635  
G01 X18.0675 Y1.3280  
G01 X18.0105 Y1.5035  
G01 X17.9816 Y1.6857  
G01 X17.9816 Y1.8703  
G01 X17.9984 Y1.9765  
G01 X16.6670 Y0.6450  
G01 X16.5588 Y0.5728  
G01 X16.4386 Y0.5230  
G01 X16.3110 Y0.4976  
G01 X8.1810  Y0.4976  
G01 X8.0534  Y0.5230  
G01 X7.9332  Y0.5728  
G01 X7.8250  Y0.6450  
G01 X6.7604  Y1.7097  
G01 X6.7604  Y1.6857  
G01 X6.7315  Y1.5035  
G01 X6.6745  Y1.3280  
G01 X6.5907  Y1.1635  
G01 X6.4823  Y1.0142  
G01 X6.3518  Y0.8837  
G01 X6.2025  Y0.7753  
G01 X6.0380  Y0.6915  
G01 X5.8625  Y0.6345  
G01 X5.6803  Y0.6056  
G01 X3.9717  Y0.6056  
G01 X3.7895  Y0.6345  
G01 X3.6140  Y0.6915  
G01 X3.4495  Y0.7753  
G01 X3.3002  Y0.8837  
G01 X3.1697  Y1.0142  
G01 X3.0946  Y1.1176  
G01 X3.0610  Y1.1176  
G01 X2.9334  Y1.1430  
G01 X2.8132  Y1.1928  
G01 X2.7050  Y1.2650  
G01 X1.8250  Y2.1450  
G01 X1.7330  Y2.2370  
G00 Z1.0000  
G00 X3.2330  Y2.6050  
G01 Z-0.1000 F50    
G01 X3.3002  Y2.6723  F100   
G01 X3.4495  Y2.7807  
G01 X3.6140  Y2.8645  
G01 X3.7895  Y2.9215  
G01 X3.9717  Y2.9504  
G01 X5.6803  Y2.9504  
G01 X5.8625  Y2.9215  
G01 X6.0380  Y2.8645  
G01 X6.1757  Y2.7944  
G01 X5.8047  Y3.1653  
G01 X5.6803  Y3.1456  
G01 X3.9717  Y3.1456  
G01 X3.7895  Y3.1745  
G01 X3.6140  Y3.2315  
G01 X3.4495  Y3.3153  
G01 X3.3002  Y3.4237  
G01 X3.1697  Y3.5542  
G01 X3.0613  Y3.7035  
G01 X2.9775  Y3.8680  
G01 X2.9205  Y4.0435  
G01 X2.9064  Y4.1323  
G01 X2.9064  Y2.9315  
G01 X3.2330  Y2.6050  
G00 Z1.0000  
G00 X2.9064  Y4.5037  
G01 Z-0.1000 F50    
G01 X2.9205  Y4.5925  F100   
G01 X2.9775  Y4.7680  
G01 X3.0613  Y4.9325  
G01 X3.1697  Y5.0818  
G01 X3.3002  Y5.2123  
G01 X3.4495  Y5.3207  
G01 X3.6140  Y5.4045  
G01 X3.7895  Y5.4615  
G01 X3.9717  Y5.4904  
G01 X5.6803  Y5.4904  
G01 X5.8625  Y5.4615  
G01 X6.0380  Y5.4045  
G01 X6.0941  Y5.3759  
G01 X5.7702  Y5.6998  
G01 X5.6803  Y5.6856  
G01 X3.9717  Y5.6856  
G01 X3.7895  Y5.7145  
G01 X3.6140  Y5.7715  
G01 X3.4495  Y5.8553  
G01 X3.3002  Y5.9637  
G01 X3.1697  Y6.0942  
G01 X3.0613  Y6.2435  
G01 X2.9775  Y6.4080  
G01 X2.9205  Y6.5835  
G01 X2.9064  Y6.6723  
G01 X2.9064  Y4.5037  
G00 Z1.0000  
G00 X2.9064  Y7.0437  
G01 Z-0.1000 F50    
G01 X2.9205  Y7.1325  F100   
G01 X2.9775  Y7.3080  
G01 X3.0613  Y7.4725  
G01 X3.1697  Y7.6218  
G01 X3.3002  Y7.7523  
G01 X3.4495  Y7.8607  
G01 X3.6140  Y7.9445  
G01 X3.7895  Y8.0015  
G01 X3.9717  Y8.0304  
G01 X5.6803  Y8.0304  
G01 X5.8625  Y8.0015  
G01 X6.0380  Y7.9445  
G01 X6.2025  Y7.8607  
G01 X6.3518  Y7.7523  
G01 X6.4823  Y7.6218  
G01 X6.5907  Y7.4725  
G01 X6.6745  Y7.3080  
G01 X6.7315  Y7.1325  
G01 X6.7604  Y6.9503  
G01 X6.7604  Y6.7657  
G01 X6.7347  Y6.6033  
G01 X7.7590  Y5.5790  
G01 X7.8312  Y5.4708  
G01 X7.8810  Y5.3506  
G01 X7.9064  Y5.2230  
G01 X7.9064  Y4.9315  
G01 X8.0856  Y4.7523  
G01 X8.0856  Y5.8120  
G01 X8.1136  Y5.9164  
G01 X8.1676  Y6.0100  
G01 X8.2440  Y6.0864  
G01 X8.3376  Y6.1404  
G01 X8.4032  Y6.1580  
G01 X8.3376  Y6.1756  
G01 X8.2440  Y6.2296  
G01 X8.1676  Y6.3060  
G01 X8.1136  Y6.3996  
G01 X8.0856  Y6.5040  
G01 X8.0856  Y6.5566  
G01 X8.0034  Y6.5730  
G01 X7.8832  Y6.6228  
G01 X7.7750  Y6.6950  
G01 X7.6830  Y6.7870  
G01 X6.1179  Y8.3522  
G01 X6.0380  Y8.3115  
G01 X5.8625  Y8.2545  
G01 X5.6803  Y8.2256  
G01 X3.9717  Y8.2256  
G01 X3.7895  Y8.2545  
G01 X3.6140  Y8.3115  
G01 X3.4495  Y8.3953  
G01 X3.3002  Y8.5037  
G01 X3.1697  Y8.6342  
G01 X3.0613  Y8.7835  
G01 X2.9775  Y8.9480  
G01 X2.9205  Y9.1235  
G01 X2.9064  Y9.2123  
G01 X2.9064  Y7.0437  
G00 Z1.0000  
G00 X2.9064  Y9.5837  
G01 Z-0.1000 F50    
G01 X2.9205  Y9.6725  F100   
G01 X2.9775  Y9.8480  
G01 X3.0613  Y10.0125 
G01 X3.1326  Y10.1107 
G01 X2.9064  Y9.8845  
G01 X2.9064  Y9.5837  
G00 Z1.0000  
G00 X3.3513  Y10.3293 
G01 Z-0.1000 F50    
G01 X3.4495  Y10.4007 F100   
G01 X3.6140  Y10.4845 
G01 X3.6543  Y10.4976 
G01 X3.5195  Y10.4976 
G01 X3.3513  Y10.3293 
G00 Z1.0000  
G00 X5.9977  Y10.4976 
G01 Z-0.1000 F50    
G01 X6.0380  Y10.4845 F100   
G01 X6.2025  Y10.4007 
G01 X6.3518  Y10.2923 
G01 X6.4823  Y10.1618 
G01 X6.5907  Y10.0125 
G01 X6.6745  Y9.8480  
G01 X6.7315  Y9.6725  
G01 X6.7440  Y9.5940  
G01 X8.1978  Y8.1402  
G01 X8.2156  Y8.1580  
G01 X8.1676  Y8.2060  
G01 X8.1136  Y8.2996  
G01 X8.0856  Y8.4040  
G01 X8.0856  Y9.8120  
G01 X8.1009  Y9.8691  
G01 X7.4725  Y10.4976 
G01 X5.9977  Y10.4976 
G00 Z1.0000  
G00 X10.4064 Y8.4976  
G01 Z-0.1000 F50    
G01 X10.4064 Y8.4040  F100   
G01 X10.3784 Y8.2996  
G01 X10.3244 Y8.2060  
G01 X10.2764 Y8.1580  
G01 X10.3244 Y8.1100  
G01 X10.3784 Y8.0164  
G01 X10.4064 Y7.9120  
G01 X10.4064 Y7.8684  
G01 X10.4760 Y7.8684  
G01 X10.5440 Y7.9364  
G01 X10.6376 Y7.9904  
G01 X10.7420 Y8.0184  
G01 X11.5856 Y8.0184  
G01 X11.5856 Y8.2976  
G01 X10.7420 Y8.2976  
G01 X10.6376 Y8.3256  
G01 X10.5440 Y8.3796  
G01 X10.4676 Y8.4560  
G01 X10.4436 Y8.4976  
G01 X10.4064 Y8.4976  
G00 Z1.0000  
G00 X10.4064 Y6.5476  
G01 Z-0.1000 F50    
G01 X10.4064 Y6.5040  F100   
G01 X10.3784 Y6.3996  
G01 X10.3244 Y6.3060  
G01 X10.2480 Y6.2296  
G01 X10.1544 Y6.1756  
G01 X10.0888 Y6.1580  
G01 X10.1544 Y6.1404  
G01 X10.2480 Y6.0864  
G01 X10.3244 Y6.0100  
G01 X10.3784 Y5.9164  
G01 X10.4064 Y5.8120  
G01 X10.4064 Y5.7684  
G01 X10.4760 Y5.7684  
G01 X10.5440 Y5.8364  
G01 X10.6376 Y5.8904  
G01 X10.7420 Y5.9184  
G01 X11.1225 Y5.9184  
G01 X11.5856 Y6.3815  
G01 X11.5856 Y6.3976  
G01 X10.7420 Y6.3976  
G01 X10.6376 Y6.4256  
G01 X10.5440 Y6.4796  
G01 X10.4760 Y6.5476  
G01 X10.4064 Y6.5476  
G00 Z1.0000  
G00 X10.4064 Y4.4476  
G01 Z-0.1000 F50    
G01 X10.4064 Y4.4040  F100   
G01 X10.3784 Y4.2996  
G01 X10.3244 Y4.2060  
G01 X10.2764 Y4.1580  
G01 X10.3244 Y4.1100  
G01 X10.3784 Y4.0164  
G01 X10.4064 Y3.9120  
G01 X10.4064 Y3.8684  
G01 X10.4760 Y3.8684  
G01 X10.5440 Y3.9364  
G01 X10.6376 Y3.9904  
G01 X10.7420 Y4.0184  
G01 X11.7500 Y4.0184  
G01 X11.8544 Y3.9904  
G01 X11.9480 Y3.9364  
G01 X12.0244 Y3.8600  
G01 X12.0784 Y3.7664  
G01 X12.1064 Y3.6620  
G01 X12.1064 Y2.7540  
G01 X12.0784 Y2.6496  
G01 X12.0244 Y2.5560  
G01 X11.9480 Y2.4796  
G01 X11.8544 Y2.4256  
G01 X11.7500 Y2.3976  
G01 X10.7420 Y2.3976  
G01 X10.6376 Y2.4256  
G01 X10.5440 Y2.4796  
G01 X10.4760 Y2.5476  
G01 X10.4064 Y2.5476  
G01 X10.4064 Y2.5040  
G01 X10.3784 Y2.3996  
G01 X10.3244 Y2.3060  
G01 X10.2480 Y2.2296  
G01 X10.1544 Y2.1756  
G01 X10.0500 Y2.1476  
G01 X8.4420  Y2.1476  
G01 X8.3376  Y2.1756  
G01 X8.2440  Y2.2296  
G01 X8.1676  Y2.3060  
G01 X8.1136  Y2.3996  
G01 X8.0856  Y2.5040  
G01 X8.0856  Y2.8845  
G01 X6.8250  Y4.1450  
G01 X6.7582  Y4.2119  
G01 X6.7401  Y4.0978  
G01 X7.6670  Y3.1710  
G01 X7.7590  Y3.0790  
G01 X7.8312  Y2.9708  
G01 X7.8810  Y2.8506  
G01 X7.9064  Y2.7230  
G01 X7.9064  Y2.4315  
G01 X8.5195  Y1.8184  
G01 X15.9725 Y1.8184  
G01 X18.0563 Y3.9023  
G01 X18.0105 Y4.0435  
G01 X17.9816 Y4.2257  
G01 X17.9816 Y4.3477  
G01 X16.5150 Y2.8810  
G01 X16.4230 Y2.7890  
G01 X16.3984 Y2.7726  
G01 X16.3984 Y2.5040  
G01 X16.3704 Y2.3996  
G01 X16.3164 Y2.3060  
G01 X16.2400 Y2.2296  
G01 X16.1464 Y2.1756  
G01 X16.0420 Y2.1476  
G01 X14.4340 Y2.1476  
G01 X14.3296 Y2.1756  
G01 X14.2360 Y2.2296  
G01 X14.1596 Y2.3060  
G01 X14.1056 Y2.3996  
G01 X14.0776 Y2.5040  
G01 X14.0776 Y3.4592  
G01 X14.0480 Y3.4296  
G01 X13.9544 Y3.3756  
G01 X13.8500 Y3.3476  
G01 X12.8420 Y3.3476  
G01 X12.7376 Y3.3756  
G01 X12.6440 Y3.4296  
G01 X12.5676 Y3.5060  
G01 X12.5136 Y3.5996  
G01 X12.4856 Y3.7040  
G01 X12.4856 Y4.6120  
G01 X12.5136 Y4.7164  
G01 X12.5676 Y4.8100  
G01 X12.6440 Y4.8864  
G01 X12.7376 Y4.9404  
G01 X12.8420 Y4.9684  
G01 X13.2225 Y4.9684  
G01 X13.7830 Y5.5290  
G01 X13.8750 Y5.6210  
G01 X13.9832 Y5.6932  
G01 X14.0776 Y5.7323  
G01 X14.0776 Y5.8120  
G01 X14.1056 Y5.9164  
G01 X14.1596 Y6.0100  
G01 X14.2360 Y6.0864  
G01 X14.3296 Y6.1404  
G01 X14.3952 Y6.1580  
G01 X14.3296 Y6.1756  
G01 X14.2360 Y6.2296  
G01 X14.1596 Y6.3060  
G01 X14.1056 Y6.3996  
G01 X14.0776 Y6.5040  
G01 X14.0776 Y6.5836  
G01 X13.9832 Y6.6228  
G01 X13.8750 Y6.6950  
G01 X13.7830 Y6.7870  
G01 X13.2225 Y7.3476  
G01 X12.9064 Y7.3476  
G01 X12.9064 Y6.0430  
G01 X12.8810 Y5.9154  
G01 X12.8312 Y5.7952  
G01 X12.7590 Y5.6870  
G01 X12.1064 Y5.0345  
G01 X12.1064 Y4.6540  
G01 X12.0784 Y4.5496  
G01 X12.0244 Y4.4560  
G01 X11.9480 Y4.3796  
G01 X11.8544 Y4.3256  
G01 X11.7500 Y4.2976  
G01 X10.7420 Y4.2976  
G01 X10.6376 Y4.3256  
G01 X10.5440 Y4.3796  
G01 X10.4760 Y4.4476  
G01 X10.4064 Y4.4476  
G00 Z1.0000  
G00 X16.3963 Y6.4963  
G01 Z-0.1000 F50    
G01 X16.4477 Y6.5476  F100   
G01 X16.3984 Y6.5476  
G01 X16.3984 Y6.5040  
G01 X16.3963 Y6.4963  
G00 Z1.0000  
G00 X16.3802 Y7.9801  
G01 Z-0.1000 F50    
G01 X17.9988 Y9.5987  F100   
G01 X18.0105 Y9.6725  
G01 X18.0675 Y9.8480  
G01 X18.1513 Y10.0125 
G01 X18.2597 Y10.1618 
G01 X18.3902 Y10.2923 
G01 X18.5395 Y10.4007 
G01 X18.7040 Y10.4845 
G01 X18.7443 Y10.4976 
G01 X17.5615 Y10.4976 
G01 X16.3984 Y9.3345  
G01 X16.3984 Y8.4040  
G01 X16.3704 Y8.2996  
G01 X16.3164 Y8.2060  
G01 X16.2684 Y8.1580  
G01 X16.3164 Y8.1100  
G01 X16.3704 Y8.0164  
G01 X16.3802 Y7.9801  
G00 Z1.0000  
G00 X17.7863 Y7.5184  
G01 Z-0.1000 F50    
G01 X18.1846 Y7.5184  F100   
G01 X18.2597 Y7.6218  
G01 X18.3902 Y7.7523  
G01 X18.5395 Y7.8607  
G01 X18.7040 Y7.9445  
G01 X18.8795 Y8.0015  
G01 X19.0617 Y8.0304  
G01 X20.7703 Y8.0304  
G01 X20.9525 Y8.0015  
G01 X21.1280 Y7.9445  
G01 X21.2925 Y7.8607  
G01 X21.4418 Y7.7523  
G01 X21.5723 Y7.6218  
G01 X21.5776 Y7.6144  
G01 X21.5776 Y8.6416  
G01 X21.5723 Y8.6342  
G01 X21.4418 Y8.5037  
G01 X21.2925 Y8.3953  
G01 X21.1280 Y8.3115  
G01 X20.9525 Y8.2545  
G01 X20.7703 Y8.2256  
G01 X19.0617 Y8.2256  
G01 X18.8795 Y8.2545  
G01 X18.7040 Y8.3115  
G01 X18.6215 Y8.3535  
G01 X17.7863 Y7.5184  
G00 Z1.0000  
G00 X17.9655 Y6.1976  
G01 Z-0.1000 F50    
G01 X17.8727 Y6.1048  F100   
G01 X17.9752 Y6.1732  
G01 X18.0340 Y6.1976  
G01 X17.9655 Y6.1976  
G00 Z1.0000  
G00 X18.9555 Y2.9336  
G01 Z-0.1000 F50    
G01 X19.0617 Y2.9504  F100   
G01 X20.7703 Y2.9504  
G01 X20.9525 Y2.9215  
G01 X21.0394 Y2.8933  
G01 X21.5776 Y3.4315  
G01 X21.5776 Y3.5616  
G01 X21.5723 Y3.5542  
G01 X21.4418 Y3.4237  
G01 X21.2925 Y3.3153  
G01 X21.1280 Y3.2315  
G01 X20.9525 Y3.1745  
G01 X20.7703 Y3.1456  
G01 X19.1675 Y3.1456  
G01 X18.9555 Y2.9336  
G00 Z1.0000  
G00 Z12.0000 
M05
M02
