(.../EAGLE-7.7.0/pcbgcode/pcb-gcode.ulp)
(Copyright 2005 - 2012 by John Johnson)
(See readme.txt for licensing terms.)
(This file generated from the board:)
(.../electronics/Columba2/pmc1.brd)
(Current profile is .../EAGLE 8.0/pcbgcode/profiles/mach.pp  )
(This file generated 18.10.2018 15:06)
(Settings from pcb-machine.h)
(spindle on time = 1.0000)
(spindle speed = 25000.0000)
(text depth = -0.1270)
(tool change at 0.0000  0.0000  25.4000 )
(feed rate xy = F80    )
(feed rate z  = F40    )
(Z Axis Settings)
(  High     Up        Down     Drill)
(12.0000 	1.0000  	-0.1000 	-1.8000 )
(Settings from pcb-defaults.h)
(isolate min = 0.0254)
(isolate max = 0.3000)
(isolate step = 0.1000)
(Generated top outlines, top drill, )
(Unit of measure: mm)
(Metric Mode)
G21
(Absolute Coordinates)
G90
S25000
G00 Z12.0000 
G00 X0.0000  Y0.0000  
M03
G04 P1.000000
G00 Z1.0000  
G00 X40.5638 Y2.2987  
G01 Z-0.1270 F40    
G01 X38.9368 Y2.2987  F80    
G01 X38.9368 Y3.1122  
G01 X39.2080 Y3.3834  
G01 X39.7503 Y3.3834  
G01 X40.0215 Y3.1122  
G01 X40.0215 Y2.2987  
G00 Z1.0000  
G00 X40.5638 Y3.9359  
G01 Z-0.1270 F40    
G01 X38.9368 Y3.9359  F80    
G01 X39.4791 Y4.4782  
G01 X38.9368 Y5.0205  
G01 X40.5638 Y5.0205  
G00 Z1.0000  
G00 X39.2080 Y6.6577  
G01 Z-0.1270 F40    
G01 X38.9368 Y6.3865  F80    
G01 X38.9368 Y5.8442  
G01 X39.2080 Y5.5730  
G01 X40.2926 Y5.5730  
G01 X40.5638 Y5.8442  
G01 X40.5638 Y6.3865  
G01 X40.2926 Y6.6577  
G00 Z1.0000  
G00 X38.9368 Y8.8473  
G01 Z-0.1270 F40    
G01 X40.0215 Y8.8473  F80    
G01 X40.5638 Y9.3897  
G01 X40.0215 Y9.9320  
G01 X38.9368 Y9.9320  
G00 Z1.0000  
G00 X39.4791 Y10.4845 
G01 Z-0.1270 F40    
G01 X38.9368 Y11.0268 F80    
G01 X40.5638 Y11.0268 
G00 Z1.0000  
G00 X40.5638 Y10.4845 
G01 Z-0.1270 F40    
G01 X40.5638 Y11.5691 F80    
G00 Z1.0000  
G00 X1.2126  Y37.4556 
G01 Z-0.1270 F40    
G01 X1.2126  Y38.3802 F80    
G01 X1.5208  Y38.0720 
G01 X1.8290  Y38.3802 
G01 X1.8290  Y37.4556 
G00 Z1.0000  
G00 X2.1334  Y37.4556 
G01 Z-0.1270 F40    
G01 X2.1334  Y38.3802 F80    
G00 Z1.0000  
G00 X2.1334  Y37.9179 
G01 Z-0.1270 F40    
G01 X2.7498  Y37.9179 F80    
G00 Z1.0000  
G00 X2.7498  Y38.3802 
G01 Z-0.1270 F40    
G01 X2.7498  Y37.4556 F80    
G00 Z1.0000  
G00 X4.5913  Y37.4556 
G01 Z-0.1270 F40    
G01 X3.9749  Y37.4556 F80    
G01 X4.5913  Y38.0720 
G01 X4.5913  Y38.2261 
G01 X4.4372  Y38.3802 
G01 X4.1290  Y38.3802 
G01 X3.9749  Y38.2261 
G00 Z1.0000  
G00 X4.8957  Y37.6097 
G01 Z-0.1270 F40    
G01 X4.8957  Y38.2261 F80    
G01 X5.0498  Y38.3802 
G01 X5.3580  Y38.3802 
G01 X5.5121  Y38.2261 
G01 X5.5121  Y37.6097 
G01 X5.3580  Y37.4556 
G01 X5.0498  Y37.4556 
G01 X4.8957  Y37.6097 
G01 X5.5121  Y38.2261 
G00 Z1.0000  
G00 X5.8165  Y38.0720 
G01 Z-0.1270 F40    
G01 X6.1247  Y38.3802 F80    
G01 X6.1247  Y37.4556 
G00 Z1.0000  
G00 X5.8165  Y37.4556 
G01 Z-0.1270 F40    
G01 X6.4329  Y37.4556 F80    
G00 Z1.0000  
G00 X6.7373  Y38.2261 
G01 Z-0.1270 F40    
G01 X6.8914  Y38.3802 F80    
G01 X7.1996  Y38.3802 
G01 X7.3537  Y38.2261 
G01 X7.3537  Y38.0720 
G01 X7.1996  Y37.9179 
G01 X7.3537  Y37.7638 
G01 X7.3537  Y37.6097 
G01 X7.1996  Y37.4556 
G01 X6.8914  Y37.4556 
G01 X6.7373  Y37.6097 
G01 X6.7373  Y37.7638 
G01 X6.8914  Y37.9179 
G01 X6.7373  Y38.0720 
G01 X6.7373  Y38.2261 
G00 Z1.0000  
G00 X6.8914  Y37.9179 
G01 Z-0.1270 F40    
G01 X7.1996  Y37.9179 F80    
G00 Z1.0000  
G00 X36.2564 Y3.2021  
G01 Z-0.1270 F40    
G01 X36.0273 Y2.9731  F80    
G01 X36.0273 Y2.5150  
G01 X36.2564 Y2.2860  
G01 X37.1725 Y2.2860  
G01 X37.4015 Y2.5150  
G01 X37.4015 Y2.9731  
G01 X37.1725 Y3.2021  
G00 Z1.0000  
G00 X37.4015 Y3.8962  
G01 Z-0.1270 F40    
G01 X37.4015 Y4.3543  F80    
G01 X37.1725 Y4.5833  
G01 X36.7144 Y4.5833  
G01 X36.4854 Y4.3543  
G01 X36.4854 Y3.8962  
G01 X36.7144 Y3.6672  
G01 X37.1725 Y3.6672  
G01 X37.4015 Y3.8962  
G00 Z1.0000  
G00 X36.0273 Y5.0484  
G01 Z-0.1270 F40    
G01 X36.0273 Y5.2774  F80    
G01 X37.4015 Y5.2774  
G00 Z1.0000  
G00 X37.4015 Y5.0484  
G01 Z-0.1270 F40    
G01 X37.4015 Y5.5064  F80    
G00 Z1.0000  
G00 X36.4854 Y5.9691  
G01 Z-0.1270 F40    
G01 X37.1725 Y5.9691  F80    
G01 X37.4015 Y6.1982  
G01 X37.4015 Y6.8853  
G01 X36.4854 Y6.8853  
G00 Z1.0000  
G00 X37.4015 Y7.3503  
G01 Z-0.1270 F40    
G01 X36.4854 Y7.3503  F80    
G01 X36.4854 Y7.5793  
G01 X36.7144 Y7.8084  
G01 X37.4015 Y7.8084  
G00 Z1.0000  
G00 X36.7144 Y7.8084  
G01 Z-0.1270 F40    
G01 X36.4854 Y8.0374  F80    
G01 X36.7144 Y8.2664  
G01 X37.4015 Y8.2664  
G00 Z1.0000  
G00 X36.0273 Y8.7315  
G01 Z-0.1270 F40    
G01 X37.4015 Y8.7315  F80    
G01 X37.4015 Y9.4186  
G01 X37.1725 Y9.6476  
G01 X36.7144 Y9.6476  
G01 X36.4854 Y9.4186  
G01 X36.4854 Y8.7315  
G00 Z1.0000  
G00 X36.4854 Y10.3417 
G01 Z-0.1270 F40    
G01 X36.4854 Y10.7998 F80    
G01 X36.7144 Y11.0288 
G01 X37.4015 Y11.0288 
G01 X37.4015 Y10.3417 
G01 X37.1725 Y10.1127 
G01 X36.9434 Y10.3417 
G01 X36.9434 Y11.0288 
G00 Z12.0000 
M05
M02
