(.../EAGLE-7.7.0/pcbgcode/pcb-gcode.ulp)
(Copyright 2005 - 2012 by John Johnson)
(See readme.txt for licensing terms.)
(This file generated from the board:)
(.../electronics/Columba2/pmc1.brd)
(Current profile is .../EAGLE 8.0/pcbgcode/profiles/mach.pp  )
(This file generated 18.10.2018 15:05)
(Settings from pcb-machine.h)
(spindle on time = 1.0000)
(  Tool Size)
(0.1700  )
(spindle speed = 30000.0000)
(tool change at 0.0000  0.0000  25.4000 )
(feed rate xy = F100   )
(feed rate z  = F50    )
(Z Axis Settings)
(  High     Up        Down     Drill)
(12.0000 	1.0000  	-0.1000 	-1.8000 )
(Settings from pcb-defaults.h)
(isolate min = 0.0254)
(isolate max = 0.3000)
(isolate step = 0.1000)
(Generated top outlines, top drill, )
(Unit of measure: mm)
(Metric Mode)
G21
(Absolute Coordinates)
G90
S30000
G00 Z12.0000 
G00 X0.0000  Y0.0000  
M03
G04 P1.000000
G00 Z1.0000  
G00 X2.6412  Y5.2181  
G01 Z-0.1000 F50    
G01 X2.6412  Y5.2181  F100   
G01 X2.3606  Y5.4988  
G01 X2.1055  Y5.8028  
G01 X1.8778  Y6.1279  
G01 X1.6793  Y6.4717  
G01 X1.5116  Y6.8314  
G01 X1.3758  Y7.2044  
G01 X1.2731  Y7.5878  
G01 X1.2042  Y7.9786  
G01 X1.1696  Y8.3740  
G01 X1.1696  Y17.9461 
G01 X1.2068  Y18.2762 
G01 X1.2807  Y18.6001 
G01 X1.3904  Y18.9137 
G01 X1.5346  Y19.2130 
G01 X1.7113  Y19.4943 
G01 X1.9185  Y19.7541 
G01 X2.1534  Y19.9890 
G01 X2.4131  Y20.1961 
G01 X2.6945  Y20.3729 
G01 X2.9938  Y20.5170 
G01 X3.2175  Y20.5953 
G01 X3.1931  Y20.6202 
G01 X2.9918  Y20.8791 
G01 X2.8207  Y21.1590 
G01 X2.6820  Y21.4562 
G01 X2.5774  Y21.7670 
G01 X2.5083  Y22.0877 
G01 X2.4756  Y22.4140 
G01 X2.4795  Y22.7420 
G01 X2.4971  Y22.8824 
G01 X2.4971  Y28.3741 
G01 X2.5303  Y28.6049 
G01 X2.5960  Y28.8287 
G01 X2.6929  Y29.0409 
G01 X2.8190  Y29.2371 
G01 X2.9717  Y29.4133 
G01 X3.1479  Y29.5660 
G01 X3.3441  Y29.6921 
G01 X3.5563  Y29.7890 
G01 X3.7800  Y29.8547 
G01 X4.0109  Y29.8879 
G01 X5.5034  Y29.8879 
G01 X5.7120  Y29.8511 
G01 X5.9110  Y29.7787 
G01 X6.0944  Y29.6728 
G01 X6.2566  Y29.5367 
G01 X6.3928  Y29.3744 
G01 X6.4987  Y29.1910 
G01 X6.5711  Y28.9920 
G01 X6.5842  Y28.9179 
G01 X6.7695  Y28.9179 
G01 X6.8100  Y28.9011 
G01 X6.8411  Y28.8700 
G01 X6.8579  Y28.8295 
G01 X6.8579  Y28.6179 
G01 X7.1121  Y28.6179 
G01 X7.1121  Y28.8295 
G01 X7.1289  Y28.8700 
G01 X7.1600  Y28.9011 
G01 X7.2005  Y28.9179 
G01 X8.2445  Y28.9179 
G01 X8.2850  Y28.9011 
G01 X8.3161  Y28.8700 
G01 X8.3329  Y28.8295 
G01 X8.3329  Y27.6855 
G01 X8.3161  Y27.6450 
G01 X8.2850  Y27.6139 
G01 X8.2445  Y27.5971 
G01 X7.2005  Y27.5971 
G01 X7.1600  Y27.6139 
G01 X7.1289  Y27.6450 
G01 X7.1121  Y27.6855 
G01 X7.1121  Y27.8971 
G01 X6.8579  Y27.8971 
G01 X6.8579  Y27.6855 
G01 X6.8411  Y27.6450 
G01 X6.8100  Y27.6139 
G01 X6.7695  Y27.5971 
G01 X5.7255  Y27.5971 
G01 X5.6850  Y27.6139 
G01 X5.6539  Y27.6450 
G01 X5.6371  Y27.6855 
G01 X5.6371  Y28.8295 
G01 X5.6539  Y28.8700 
G01 X5.6850  Y28.9011 
G01 X5.7255  Y28.9179 
G01 X5.8219  Y28.9179 
G01 X5.7986  Y28.9583 
G01 X5.7437  Y29.0237 
G01 X5.6783  Y29.0786 
G01 X5.6044  Y29.1212 
G01 X5.5242  Y29.1504 
G01 X5.4402  Y29.1652 
G01 X5.3975  Y29.1671 
G01 X4.1275  Y29.1671 
G01 X4.0626  Y29.1648 
G01 X3.9341  Y29.1463 
G01 X3.8096  Y29.1097 
G01 X3.6916  Y29.0558 
G01 X3.5824  Y28.9857 
G01 X3.4843  Y28.9007 
G01 X3.3993  Y28.8026 
G01 X3.3292  Y28.6934 
G01 X3.2752  Y28.5754 
G01 X3.2387  Y28.4508 
G01 X3.2202  Y28.3224 
G01 X3.2179  Y28.2575 
G01 X3.2179  Y22.8848 
G01 X3.2210  Y22.8624 
G01 X3.2179  Y22.8376 
G01 X3.2179  Y22.8126 
G01 X3.2131  Y22.7948 
G01 X3.2033  Y22.6925 
G01 X3.2003  Y22.4459 
G01 X3.2249  Y22.2005 
G01 X3.2768  Y21.9594 
G01 X3.3555  Y21.7256 
G01 X3.4598  Y21.5021 
G01 X3.5884  Y21.2917 
G01 X3.7399  Y21.0970 
G01 X3.9121  Y20.9205 
G01 X4.0273  Y20.8264 
G01 X4.0635  Y20.8414 
G01 X4.2321  Y20.8749 
G01 X5.9279  Y20.8749 
G01 X6.0965  Y20.8414 
G01 X6.2552  Y20.7756 
G01 X6.3981  Y20.6801 
G01 X6.5196  Y20.5586 
G01 X6.6151  Y20.4157 
G01 X6.6809  Y20.2570 
G01 X6.7144  Y20.0884 
G01 X6.7144  Y19.9166 
G01 X6.6809  Y19.7480 
G01 X6.6151  Y19.5893 
G01 X6.5196  Y19.4464 
G01 X6.3981  Y19.3249 
G01 X6.2552  Y19.2294 
G01 X6.0965  Y19.1636 
G01 X5.9279  Y19.1301 
G01 X4.2321  Y19.1301 
G01 X4.0635  Y19.1636 
G01 X3.9048  Y19.2294 
G01 X3.8796  Y19.2462 
G01 X3.7158  Y19.2090 
G01 X3.5584  Y19.1539 
G01 X3.4082  Y19.0815 
G01 X3.2670  Y18.9928 
G01 X3.1366  Y18.8888 
G01 X3.0187  Y18.7709 
G01 X2.9147  Y18.6405 
G01 X2.8260  Y18.4993 
G01 X2.7536  Y18.3491 
G01 X2.6985  Y18.1917 
G01 X2.6614  Y18.0291 
G01 X2.6427  Y17.8634 
G01 X2.6404  Y17.7800 
G01 X2.6404  Y8.5725  
G01 X2.6433  Y8.4384  
G01 X2.6667  Y8.1712  
G01 X2.7133  Y7.9070  
G01 X2.7827  Y7.6479  
G01 X2.8744  Y7.3959  
G01 X2.9878  Y7.1528  
G01 X3.1219  Y6.9205  
G01 X3.2758  Y6.7008  
G01 X3.4482  Y6.4953  
G01 X3.6378  Y6.3057  
G01 X3.8433  Y6.1333  
G01 X4.0630  Y5.9794  
G01 X4.2953  Y5.8453  
G01 X4.5384  Y5.7319  
G01 X4.6805  Y5.6802  
G01 X5.1432  Y6.1429  
G01 X6.2868  Y6.1429  
G01 X6.8892  Y5.5405  
G01 X7.1869  Y5.6129  
G01 X7.4825  Y5.7127  
G01 X7.7684  Y5.8379  
G01 X8.0422  Y5.9876  
G01 X8.3020  Y6.1606  
G01 X8.5456  Y6.3555  
G01 X8.7714  Y6.5710  
G01 X8.9775  Y6.8053  
G01 X9.1625  Y7.0567  
G01 X9.3248  Y7.3232  
G01 X9.4633  Y7.6029  
G01 X9.5768  Y7.8936  
G01 X9.6646  Y8.1930  
G01 X9.7260  Y8.4990  
G01 X9.7421  Y8.6200  
G01 X9.7421  Y11.3860 
G01 X9.7227  Y11.5475 
G01 X9.7094  Y11.9606 
G01 X9.7322  Y12.3732 
G01 X9.7908  Y12.7823 
G01 X9.8849  Y13.1847 
G01 X10.0137 Y13.5774 
G01 X10.1762 Y13.9574 
G01 X10.3712 Y14.3217 
G01 X10.5972 Y14.6677 
G01 X10.8526 Y14.9926 
G01 X11.1352 Y15.2941 
G01 X11.4431 Y15.5698 
G01 X11.7738 Y15.8176 
G01 X12.1249 Y16.0356 
G01 X12.4936 Y16.2222 
G01 X12.8772 Y16.3760 
G01 X13.2728 Y16.4957 
G01 X13.6772 Y16.5805 
G01 X13.8543 Y16.6018 
G01 X13.8976 Y16.6104 
G01 X13.9260 Y16.6104 
G01 X13.9543 Y16.6138 
G01 X13.9983 Y16.6104 
G01 X14.2746 Y16.6104 
G01 X14.2746 Y16.8121 
G01 X13.4880 Y16.8121 
G01 X13.4475 Y16.8289 
G01 X13.4164 Y16.8600 
G01 X13.3996 Y16.9005 
G01 X13.3996 Y18.5445 
G01 X13.4164 Y18.5850 
G01 X13.4475 Y18.6161 
G01 X13.4880 Y18.6329 
G01 X16.5320 Y18.6329 
G01 X16.5725 Y18.6161 
G01 X16.6036 Y18.5850 
G01 X16.6204 Y18.5445 
G01 X16.6204 Y16.9005 
G01 X16.6036 Y16.8600 
G01 X16.5725 Y16.8289 
G01 X16.5320 Y16.8121 
G01 X15.7454 Y16.8121 
G01 X15.7454 Y16.6104 
G01 X34.2900 Y16.6104 
G01 X34.3250 Y16.6115 
G01 X34.3943 Y16.6207 
G01 X34.4618 Y16.6388 
G01 X34.5264 Y16.6655 
G01 X34.5870 Y16.7005 
G01 X34.6425 Y16.7431 
G01 X34.6919 Y16.7925 
G01 X34.7345 Y16.8480 
G01 X34.7695 Y16.9086 
G01 X34.7962 Y16.9732 
G01 X34.8143 Y17.0407 
G01 X34.8235 Y17.1100 
G01 X34.8246 Y17.1450 
G01 X34.8246 Y19.6962 
G01 X34.8630 Y20.0616 
G01 X34.9394 Y20.4210 
G01 X35.0529 Y20.7704 
G01 X35.2024 Y21.1061 
G01 X35.3861 Y21.4243 
G01 X35.6021 Y21.7215 
G01 X35.8479 Y21.9946 
G01 X36.1210 Y22.2404 
G01 X36.4182 Y22.4564 
G01 X36.7196 Y22.6304 
G01 X36.7196 Y23.1045 
G01 X36.7364 Y23.1450 
G01 X36.7675 Y23.1761 
G01 X36.8080 Y23.1929 
G01 X39.8520 Y23.1929 
G01 X39.8925 Y23.1761 
G01 X39.9236 Y23.1450 
G01 X39.9404 Y23.1045 
G01 X39.9404 Y21.4605 
G01 X39.9236 Y21.4200 
G01 X39.8925 Y21.3889 
G01 X39.8520 Y21.3721 
G01 X37.5113 Y21.3721 
G01 X37.4063 Y21.3253 
G01 X37.2219 Y21.2189 
G01 X37.0496 Y21.0937 
G01 X36.8913 Y20.9512 
G01 X36.7488 Y20.7929 
G01 X36.6236 Y20.6206 
G01 X36.5172 Y20.4362 
G01 X36.4305 Y20.2416 
G01 X36.3647 Y20.0391 
G01 X36.3204 Y19.8308 
G01 X36.2982 Y19.6190 
G01 X36.2954 Y19.5125 
G01 X36.2954 Y17.0136 
G01 X36.2611 Y16.7529 
G01 X36.1930 Y16.4990 
G01 X36.0924 Y16.2561 
G01 X35.9610 Y16.0285 
G01 X35.8010 Y15.8199 
G01 X35.6151 Y15.6340 
G01 X35.4065 Y15.4740 
G01 X35.1789 Y15.3426 
G01 X34.9360 Y15.2420 
G01 X34.6821 Y15.1739 
G01 X34.4214 Y15.1396 
G01 X14.0208 Y15.1396 
G01 X13.9167 Y15.1248 
G01 X13.6382 Y15.0664 
G01 X13.3659 Y14.9840 
G01 X13.1017 Y14.8781 
G01 X12.8478 Y14.7496 
G01 X12.6061 Y14.5995 
G01 X12.3784 Y14.4288 
G01 X12.1664 Y14.2390 
G01 X11.9718 Y14.0314 
G01 X11.7960 Y13.8077 
G01 X11.6403 Y13.5695 
G01 X11.5060 Y13.3186 
G01 X11.3941 Y13.0569 
G01 X11.3055 Y12.7866 
G01 X11.2407 Y12.5095 
G01 X11.2003 Y12.2278 
G01 X11.1846 Y11.9437 
G01 X11.1938 Y11.6593 
G01 X11.2055 Y11.5396 
G01 X11.2129 Y11.5024 
G01 X11.2129 Y11.4740 
G01 X11.2163 Y11.4457 
G01 X11.2129 Y11.4017 
G01 X11.2129 Y8.6040  
G01 X11.2164 Y8.5633  
G01 X11.2129 Y8.5318  
G01 X11.2129 Y8.5001  
G01 X11.2049 Y8.4600  
G01 X11.1841 Y8.2722  
G01 X11.0974 Y7.8400  
G01 X10.9734 Y7.4170  
G01 X10.8130 Y7.0065  
G01 X10.6174 Y6.6114  
G01 X10.3881 Y6.2349  
G01 X10.1269 Y5.8799  
G01 X9.8357  Y5.5489  
G01 X9.5168  Y5.2446  
G01 X9.1726  Y4.9692  
G01 X8.8057  Y4.7249  
G01 X8.4189  Y4.5135  
G01 X8.0152  Y4.3366  
G01 X7.5975  Y4.1956  
G01 X7.1692  Y4.0915  
G01 X6.9650  Y4.0604  
G01 X6.2868  Y3.3821  
G01 X5.1432  Y3.3821  
G01 X4.3346  Y4.1907  
G01 X4.3346  Y4.2378  
G01 X3.9739  Y4.3691  
G01 X3.6142  Y4.5368  
G01 X3.2704  Y4.7353  
G01 X2.9453  Y4.9630  
G01 X2.6412  Y5.2181  
G00 Z1.0000  
G00 X4.6621  Y8.9432  
G01 Z-0.1000 F50    
G01 X4.5344  Y9.1190  F100   
G01 X4.4357  Y9.3126  
G01 X4.3686  Y9.5193  
G01 X4.3346  Y9.7339  
G01 X4.3346  Y9.9511  
G01 X4.3686  Y10.1657 
G01 X4.4357  Y10.3724 
G01 X4.5344  Y10.5660 
G01 X4.6621  Y10.7418 
G01 X4.8157  Y10.8954 
G01 X4.9796  Y11.0145 
G01 X4.9796  Y16.5901 
G01 X4.2321  Y16.5901 
G01 X4.0635  Y16.6236 
G01 X3.9048  Y16.6894 
G01 X3.7619  Y16.7849 
G01 X3.6404  Y16.9064 
G01 X3.5449  Y17.0493 
G01 X3.4791  Y17.2080 
G01 X3.4456  Y17.3766 
G01 X3.4456  Y17.5484 
G01 X3.4791  Y17.7170 
G01 X3.5449  Y17.8757 
G01 X3.6404  Y18.0186 
G01 X3.7619  Y18.1401 
G01 X3.9048  Y18.2356 
G01 X4.0635  Y18.3014 
G01 X4.2321  Y18.3349 
G01 X5.9279  Y18.3349 
G01 X6.0965  Y18.3014 
G01 X6.2552  Y18.2356 
G01 X6.3117  Y18.1979 
G01 X9.5629  Y18.1979 
G01 X12.1953 Y20.5378 
G01 X12.2312 Y20.5737 
G01 X12.2493 Y20.5858 
G01 X12.2656 Y20.6003 
G01 X12.3094 Y20.6260 
G01 X12.3517 Y20.6542 
G01 X12.3718 Y20.6625 
G01 X12.3905 Y20.6735 
G01 X12.4385 Y20.6902 
G01 X12.4855 Y20.7096 
G01 X12.5068 Y20.7139 
G01 X12.5274 Y20.7210 
G01 X12.5777 Y20.7280 
G01 X12.6276 Y20.7379 
G01 X12.6493 Y20.7379 
G01 X12.6709 Y20.7409 
G01 X12.7216 Y20.7379 
G01 X16.5100 Y20.7379 
G01 X16.5450 Y20.7390 
G01 X16.6143 Y20.7482 
G01 X16.6818 Y20.7663 
G01 X16.7464 Y20.7930 
G01 X16.8070 Y20.8280 
G01 X16.8625 Y20.8706 
G01 X16.9119 Y20.9200 
G01 X16.9545 Y20.9755 
G01 X16.9895 Y21.0360 
G01 X17.0162 Y21.1007 
G01 X17.0343 Y21.1682 
G01 X17.0435 Y21.2375 
G01 X17.0446 Y21.2725 
G01 X17.0446 Y25.4129 
G01 X16.3587 Y26.0988 
G01 X16.2563 Y26.2012 
G01 X16.1758 Y26.3217 
G01 X16.1204 Y26.4555 
G01 X16.0921 Y26.5976 
G01 X16.0921 Y30.3221 
G01 X15.3504 Y30.3221 
G01 X15.3504 Y30.1405 
G01 X15.3336 Y30.1000 
G01 X15.3025 Y30.0689 
G01 X15.2620 Y30.0521 
G01 X13.3130 Y30.0521 
G01 X13.2725 Y30.0689 
G01 X13.2414 Y30.1000 
G01 X13.2246 Y30.1405 
G01 X13.2246 Y32.0895 
G01 X13.2414 Y32.1300 
G01 X13.2725 Y32.1611 
G01 X13.3130 Y32.1779 
G01 X15.2620 Y32.1779 
G01 X15.3025 Y32.1611 
G01 X15.3336 Y32.1300 
G01 X15.3504 Y32.0895 
G01 X15.3504 Y31.7929 
G01 X16.0921 Y31.7929 
G01 X16.0921 Y35.7083 
G01 X16.1253 Y36.0030 
G01 X16.1913 Y36.2921 
G01 X16.2892 Y36.5720 
G01 X16.4179 Y36.8392 
G01 X16.5757 Y37.0903 
G01 X16.7606 Y37.3222 
G01 X16.9703 Y37.5319 
G01 X17.2022 Y37.7168 
G01 X17.4533 Y37.8746 
G01 X17.7205 Y38.0033 
G01 X18.0004 Y38.1012 
G01 X18.2895 Y38.1672 
G01 X18.5842 Y38.2004 
G01 X37.3987 Y38.2004 
G01 X37.7089 Y38.1627 
G01 X38.0123 Y38.0880 
G01 X38.3045 Y37.9771 
G01 X38.5812 Y37.8319 
G01 X38.8383 Y37.6544 
G01 X39.0722 Y37.4472 
G01 X39.2794 Y37.2133 
G01 X39.4569 Y36.9562 
G01 X39.6021 Y36.6795 
G01 X39.6236 Y36.6229 
G01 X40.0270 Y36.6229 
G01 X40.0675 Y36.6061 
G01 X40.0986 Y36.5750 
G01 X40.1154 Y36.5345 
G01 X40.1154 Y34.5855 
G01 X40.0986 Y34.5450 
G01 X40.0675 Y34.5139 
G01 X40.0270 Y34.4971 
G01 X38.0780 Y34.4971 
G01 X38.0375 Y34.5139 
G01 X38.0064 Y34.5450 
G01 X37.9896 Y34.5855 
G01 X37.9896 Y36.4387 
G01 X37.9284 Y36.4929 
G01 X37.8178 Y36.5692 
G01 X37.6989 Y36.6316 
G01 X37.5734 Y36.6792 
G01 X37.4430 Y36.7114 
G01 X37.3096 Y36.7276 
G01 X37.2425 Y36.7296 
G01 X18.7325 Y36.7296 
G01 X18.6669 Y36.7278 
G01 X18.5366 Y36.7131 
G01 X18.4087 Y36.6839 
G01 X18.2849 Y36.6406 
G01 X18.1667 Y36.5837 
G01 X18.0557 Y36.5139 
G01 X17.9531 Y36.4321 
G01 X17.8604 Y36.3394 
G01 X17.7786 Y36.2368 
G01 X17.7088 Y36.1258 
G01 X17.6519 Y36.0076 
G01 X17.6086 Y35.8838 
G01 X17.5794 Y35.7559 
G01 X17.5647 Y35.6256 
G01 X17.5629 Y35.5600 
G01 X17.5629 Y26.9746 
G01 X18.2488 Y26.2887 
G01 X18.3512 Y26.1863 
G01 X18.4317 Y26.0658 
G01 X18.4871 Y25.9320 
G01 X18.5154 Y25.7899 
G01 X18.5154 Y21.1411 
G01 X18.4811 Y20.8804 
G01 X18.4130 Y20.6265 
G01 X18.3124 Y20.3836 
G01 X18.1810 Y20.1560 
G01 X18.0210 Y19.9474 
G01 X17.8351 Y19.7615 
G01 X17.6265 Y19.6015 
G01 X17.3989 Y19.4701 
G01 X17.1560 Y19.3695 
G01 X16.9021 Y19.3014 
G01 X16.6414 Y19.2671 
G01 X12.9796 Y19.2671 
G01 X10.3472 Y16.9272 
G01 X10.3113 Y16.8913 
G01 X10.2932 Y16.8792 
G01 X10.2769 Y16.8647 
G01 X10.2331 Y16.8390 
G01 X10.1908 Y16.8108 
G01 X10.1707 Y16.8025 
G01 X10.1520 Y16.7915 
G01 X10.1040 Y16.7748 
G01 X10.0570 Y16.7554 
G01 X10.0357 Y16.7511 
G01 X10.0151 Y16.7440 
G01 X9.9648  Y16.7370 
G01 X9.9149  Y16.7271 
G01 X9.8932  Y16.7271 
G01 X9.8716  Y16.7241 
G01 X9.8209  Y16.7271 
G01 X6.4504  Y16.7271 
G01 X6.4504  Y11.0145 
G01 X6.6143  Y10.8954 
G01 X6.7679  Y10.7418 
G01 X6.8956  Y10.5660 
G01 X6.9943  Y10.3724 
G01 X7.0614  Y10.1657 
G01 X7.0954  Y9.9511  
G01 X7.0954  Y9.7339  
G01 X7.0614  Y9.5193  
G01 X6.9943  Y9.3126  
G01 X6.8956  Y9.1190  
G01 X6.7679  Y8.9432  
G01 X6.6143  Y8.7896  
G01 X6.4385  Y8.6619  
G01 X6.2449  Y8.5632  
G01 X6.0382  Y8.4961  
G01 X5.8236  Y8.4621  
G01 X5.6064  Y8.4621  
G01 X5.3918  Y8.4961  
G01 X5.1851  Y8.5632  
G01 X4.9915  Y8.6619  
G01 X4.8157  Y8.7896  
G01 X4.6621  Y8.9432  
G00 Z1.0000  
G00 X4.2321  Y21.6701 
G01 Z-0.1000 F50    
G01 X4.0635  Y21.7036 F100   
G01 X3.9048  Y21.7694 
G01 X3.7619  Y21.8649 
G01 X3.6404  Y21.9864 
G01 X3.5449  Y22.1293 
G01 X3.4791  Y22.2880 
G01 X3.4456  Y22.4566 
G01 X3.4456  Y22.6284 
G01 X3.4791  Y22.7970 
G01 X3.5449  Y22.9557 
G01 X3.6404  Y23.0986 
G01 X3.7619  Y23.2201 
G01 X3.8324  Y23.2673 
G01 X3.7587  Y23.4392 
G01 X3.6853  Y23.7005 
G01 X3.6466  Y23.9691 
G01 X3.6433  Y24.2404 
G01 X3.6735  Y24.4933 
G01 X3.6404  Y24.5264 
G01 X3.5449  Y24.6693 
G01 X3.4791  Y24.8280 
G01 X3.4456  Y24.9966 
G01 X3.4456  Y25.1684 
G01 X3.4791  Y25.3370 
G01 X3.5449  Y25.4957 
G01 X3.6404  Y25.6386 
G01 X3.7619  Y25.7601 
G01 X3.7671  Y25.7636 
G01 X3.7671  Y27.9144 
G01 X3.7971  Y28.0651 
G01 X3.8559  Y28.2072 
G01 X3.9371  Y28.3287 
G01 X3.9371  Y28.8295 
G01 X3.9539  Y28.8700 
G01 X3.9850  Y28.9011 
G01 X4.0255  Y28.9179 
G01 X5.0695  Y28.9179 
G01 X5.1100  Y28.9011 
G01 X5.1411  Y28.8700 
G01 X5.1579  Y28.8295 
G01 X5.1579  Y27.6855 
G01 X5.1411  Y27.6450 
G01 X5.1100  Y27.6139 
G01 X5.0695  Y27.5971 
G01 X4.4879  Y27.5971 
G01 X4.4879  Y25.9549 
G01 X5.9279  Y25.9549 
G01 X6.0965  Y25.9214 
G01 X6.2552  Y25.8556 
G01 X6.3981  Y25.7601 
G01 X6.5196  Y25.6386 
G01 X6.6056  Y25.5100 
G01 X6.8446  Y25.5820 
G01 X7.1358  Y25.6999 
G01 X7.4149  Y25.8442 
G01 X7.6794  Y26.0136 
G01 X7.9272  Y26.2067 
G01 X8.1561  Y26.4218 
G01 X8.3642  Y26.6572 
G01 X8.5497  Y26.9107 
G01 X8.7110  Y27.1803 
G01 X8.8468  Y27.4636 
G01 X8.8968  Y27.5987 
G01 X8.8600  Y27.6139 
G01 X8.8289  Y27.6450 
G01 X8.8121  Y27.6855 
G01 X8.8121  Y28.8295 
G01 X8.8289  Y28.8700 
G01 X8.8600  Y28.9011 
G01 X8.9005  Y28.9179 
G01 X9.4216  Y28.9179 
G01 X9.4251  Y28.9264 
G01 X9.4615  Y29.0620 
G01 X9.4798  Y29.2013 
G01 X9.4821  Y29.2715 
G01 X9.4821  Y31.7062 
G01 X9.5211  Y32.2522 
G01 X9.5990  Y32.7939 
G01 X9.7154  Y33.3288 
G01 X9.8696  Y33.8540 
G01 X10.0609 Y34.3668 
G01 X10.2883 Y34.8647 
G01 X10.5506 Y35.3451 
G01 X10.8465 Y35.8056 
G01 X11.1745 Y36.2438 
G01 X11.5330 Y36.6575 
G01 X11.9200 Y37.0445 
G01 X12.3337 Y37.4030 
G01 X12.7719 Y37.7310 
G01 X13.2324 Y38.0269 
G01 X13.7128 Y38.2892 
G01 X14.2107 Y38.5166 
G01 X14.7235 Y38.7079 
G01 X15.2487 Y38.8621 
G01 X15.7836 Y38.9785 
G01 X16.3253 Y39.0564 
G01 X16.8713 Y39.0954 
G01 X38.5861 Y39.0954 
G01 X38.9216 Y39.0601 
G01 X39.2515 Y38.9900 
G01 X39.5723 Y38.8858 
G01 X39.8804 Y38.7486 
G01 X40.1725 Y38.5800 
G01 X40.4454 Y38.3817 
G01 X40.6960 Y38.1560 
G01 X40.9217 Y37.9054 
G01 X41.1200 Y37.6325 
G01 X41.2886 Y37.3404 
G01 X41.4258 Y37.0323 
G01 X41.5300 Y36.7115 
G01 X41.6001 Y36.3816 
G01 X41.6354 Y36.0461 
G01 X41.6354 Y20.4943 
G01 X41.5992 Y20.1497 
G01 X41.5271 Y19.8108 
G01 X41.4201 Y19.4813 
G01 X41.2792 Y19.1648 
G01 X41.1059 Y18.8648 
G01 X40.9023 Y18.5845 
G01 X40.6705 Y18.3270 
G01 X40.4130 Y18.0952 
G01 X40.1327 Y17.8916 
G01 X39.9404 Y17.7805 
G01 X39.9404 Y16.9005 
G01 X39.9236 Y16.8600 
G01 X39.8925 Y16.8289 
G01 X39.8520 Y16.8121 
G01 X36.8080 Y16.8121 
G01 X36.7675 Y16.8289 
G01 X36.7364 Y16.8600 
G01 X36.7196 Y16.9005 
G01 X36.7196 Y18.5445 
G01 X36.7364 Y18.5850 
G01 X36.7675 Y18.6161 
G01 X36.8080 Y18.6329 
G01 X39.8520 Y18.6329 
G01 X39.8925 Y18.6161 
G01 X39.9565 Y18.6589 
G01 X40.1576 Y18.8399 
G01 X40.3386 Y19.0410 
G01 X40.4976 Y19.2598 
G01 X40.6329 Y19.4941 
G01 X40.7429 Y19.7413 
G01 X40.8265 Y19.9986 
G01 X40.8828 Y20.2632 
G01 X40.9111 Y20.5322 
G01 X40.9146 Y20.6675 
G01 X40.9146 Y30.6971 
G01 X40.1154 Y30.6971 
G01 X40.1154 Y30.1405 
G01 X40.0986 Y30.1000 
G01 X40.0675 Y30.0689 
G01 X40.0270 Y30.0521 
G01 X38.0780 Y30.0521 
G01 X38.0375 Y30.0689 
G01 X38.0064 Y30.1000 
G01 X37.9896 Y30.1405 
G01 X37.9896 Y32.0895 
G01 X38.0064 Y32.1300 
G01 X38.0375 Y32.1611 
G01 X38.0780 Y32.1779 
G01 X40.0270 Y32.1779 
G01 X40.0675 Y32.1611 
G01 X40.0986 Y32.1300 
G01 X40.1154 Y32.0895 
G01 X40.1154 Y31.4179 
G01 X40.9146 Y31.4179 
G01 X40.9146 Y35.8775 
G01 X40.9112 Y36.0082 
G01 X40.8839 Y36.2681 
G01 X40.8295 Y36.5238 
G01 X40.7487 Y36.7724 
G01 X40.6424 Y37.0112 
G01 X40.5117 Y37.2375 
G01 X40.3581 Y37.4490 
G01 X40.1832 Y37.6432 
G01 X39.9890 Y37.8181 
G01 X39.7775 Y37.9717 
G01 X39.5512 Y38.1024 
G01 X39.3124 Y38.2087 
G01 X39.0638 Y38.2895 
G01 X38.8081 Y38.3439 
G01 X38.5482 Y38.3712 
G01 X38.4175 Y38.3746 
G01 X17.1450 Y38.3746 
G01 X16.8972 Y38.3702 
G01 X16.4029 Y38.3348 
G01 X15.9124 Y38.2643 
G01 X15.4282 Y38.1590 
G01 X14.9527 Y38.0193 
G01 X14.4884 Y37.8462 
G01 X14.0376 Y37.6403 
G01 X13.6027 Y37.4028 
G01 X13.1858 Y37.1349 
G01 X12.7890 Y36.8379 
G01 X12.4145 Y36.5134 
G01 X12.0641 Y36.1630 
G01 X11.7396 Y35.7884 
G01 X11.4426 Y35.3917 
G01 X11.1747 Y34.9748 
G01 X10.9372 Y34.5399 
G01 X10.7313 Y34.0891 
G01 X10.5582 Y33.6248 
G01 X10.4185 Y33.1493 
G01 X10.3132 Y32.6651 
G01 X10.2427 Y32.1746 
G01 X10.2073 Y31.6803 
G01 X10.2029 Y31.4325 
G01 X10.2029 Y29.1539 
G01 X10.1722 Y28.9207 
G01 X10.1113 Y28.6934 
G01 X10.0329 Y28.5041 
G01 X10.0329 Y27.6855 
G01 X10.0161 Y27.6450 
G01 X9.9850  Y27.6139 
G01 X9.9445  Y27.5971 
G01 X9.6626  Y27.5971 
G01 X9.6468  Y27.5382 
G01 X9.5145  Y27.1808 
G01 X9.3499  Y26.8370 
G01 X9.1542  Y26.5100 
G01 X8.9291  Y26.2024 
G01 X8.6767  Y25.9169 
G01 X8.3989  Y25.6559 
G01 X8.0983  Y25.4216 
G01 X7.7773  Y25.2161 
G01 X7.4388  Y25.0410 
G01 X7.0855  Y24.8980 
G01 X6.7205  Y24.7881 
G01 X6.6592  Y24.7757 
G01 X6.6151  Y24.6693 
G01 X6.5196  Y24.5264 
G01 X6.3981  Y24.4049 
G01 X6.2552  Y24.3094 
G01 X6.0965  Y24.2436 
G01 X5.9279  Y24.2101 
G01 X4.3685  Y24.2101 
G01 X4.3675  Y24.2018 
G01 X4.3697  Y24.0253 
G01 X4.3948  Y23.8506 
G01 X4.4426  Y23.6807 
G01 X4.5121  Y23.5185 
G01 X4.5736  Y23.4149 
G01 X5.9279  Y23.4149 
G01 X6.0965  Y23.3814 
G01 X6.2552  Y23.3156 
G01 X6.3981  Y23.2201 
G01 X6.5196  Y23.0986 
G01 X6.6151  Y22.9557 
G01 X6.6370  Y22.9029 
G01 X11.3871 Y22.9029 
G01 X11.3871 Y33.2758 
G01 X11.4231 Y33.5953 
G01 X11.4947 Y33.9088 
G01 X11.6009 Y34.2123 
G01 X11.7404 Y34.5020 
G01 X11.9115 Y34.7743 
G01 X12.1119 Y35.0257 
G01 X12.3393 Y35.2531 
G01 X12.5907 Y35.4535 
G01 X12.8630 Y35.6246 
G01 X13.1527 Y35.7641 
G01 X13.2246 Y35.7893 
G01 X13.2246 Y36.5345 
G01 X13.2414 Y36.5750 
G01 X13.2725 Y36.6061 
G01 X13.3130 Y36.6229 
G01 X15.2620 Y36.6229 
G01 X15.3025 Y36.6061 
G01 X15.3336 Y36.5750 
G01 X15.3504 Y36.5345 
G01 X15.3504 Y34.5855 
G01 X15.3336 Y34.5450 
G01 X15.3025 Y34.5139 
G01 X15.2620 Y34.4971 
G01 X13.3130 Y34.4971 
G01 X13.2725 Y34.5139 
G01 X13.2414 Y34.5450 
G01 X13.2246 Y34.5855 
G01 X13.2246 Y34.9950 
G01 X13.2138 Y34.9898 
G01 X13.0104 Y34.8620 
G01 X12.8226 Y34.7122 
G01 X12.6528 Y34.5424 
G01 X12.5030 Y34.3546 
G01 X12.3752 Y34.1512 
G01 X12.2710 Y33.9347 
G01 X12.1916 Y33.7080 
G01 X12.1382 Y33.4738 
G01 X12.1113 Y33.2351 
G01 X12.1079 Y33.1150 
G01 X12.1079 Y22.9029 
G01 X13.3996 Y22.9029 
G01 X13.3996 Y23.1045 
G01 X13.4164 Y23.1450 
G01 X13.4475 Y23.1761 
G01 X13.4880 Y23.1929 
G01 X16.5320 Y23.1929 
G01 X16.5725 Y23.1761 
G01 X16.6036 Y23.1450 
G01 X16.6204 Y23.1045 
G01 X16.6204 Y21.4605 
G01 X16.6036 Y21.4200 
G01 X16.5725 Y21.3889 
G01 X16.5320 Y21.3721 
G01 X13.4880 Y21.3721 
G01 X13.4475 Y21.3889 
G01 X13.4164 Y21.4200 
G01 X13.3996 Y21.4605 
G01 X13.3996 Y22.1821 
G01 X6.6370  Y22.1821 
G01 X6.6151  Y22.1293 
G01 X6.5196  Y21.9864 
G01 X6.3981  Y21.8649 
G01 X6.2552  Y21.7694 
G01 X6.0965  Y21.7036 
G01 X5.9279  Y21.6701 
G01 X4.2321  Y21.6701 
G00 Z1.0000  
G00 X18.9396 Y17.4405 
G01 Z-0.1000 F50    
G01 X18.9396 Y26.8771 F100   
G01 X18.3930 Y26.8771 
G01 X18.3525 Y26.8939 
G01 X18.3214 Y26.9250 
G01 X18.3046 Y26.9655 
G01 X18.3046 Y35.8995 
G01 X18.3214 Y35.9400 
G01 X18.3396 Y35.9582 
G01 X18.3396 Y36.0595 
G01 X18.3564 Y36.1000 
G01 X18.3875 Y36.1311 
G01 X18.4280 Y36.1479 
G01 X24.6720 Y36.1479 
G01 X24.7125 Y36.1311 
G01 X24.7436 Y36.1000 
G01 X24.7604 Y36.0595 
G01 X24.7604 Y35.9879 
G01 X26.0570 Y35.9879 
G01 X26.0975 Y35.9711 
G01 X26.1286 Y35.9400 
G01 X26.1454 Y35.8995 
G01 X26.1454 Y29.5055 
G01 X26.1286 Y29.4650 
G01 X26.0975 Y29.4339 
G01 X26.0570 Y29.4171 
G01 X23.6054 Y29.4171 
G01 X23.6054 Y27.0879 
G01 X24.5276 Y27.0879 
G01 X24.5276 Y27.2004 
G01 X24.5611 Y27.3690 
G01 X24.6269 Y27.5277 
G01 X24.7224 Y27.6706 
G01 X24.8439 Y27.7921 
G01 X24.9868 Y27.8876 
G01 X25.1455 Y27.9534 
G01 X25.3141 Y27.9869 
G01 X25.4859 Y27.9869 
G01 X25.6545 Y27.9534 
G01 X25.8132 Y27.8876 
G01 X25.9561 Y27.7921 
G01 X26.0776 Y27.6706 
G01 X26.1731 Y27.5277 
G01 X26.2389 Y27.3690 
G01 X26.2724 Y27.2004 
G01 X26.2724 Y25.5046 
G01 X26.2389 Y25.3360 
G01 X26.1731 Y25.1773 
G01 X26.0776 Y25.0344 
G01 X25.9561 Y24.9129 
G01 X25.8132 Y24.8174 
G01 X25.6545 Y24.7516 
G01 X25.4859 Y24.7181 
G01 X25.3141 Y24.7181 
G01 X25.1455 Y24.7516 
G01 X24.9868 Y24.8174 
G01 X24.8439 Y24.9129 
G01 X24.7224 Y25.0344 
G01 X24.6269 Y25.1773 
G01 X24.5611 Y25.3360 
G01 X24.5276 Y25.5046 
G01 X24.5276 Y25.6171 
G01 X23.6054 Y25.6171 
G01 X23.6054 Y23.9229 
G01 X26.0570 Y23.9229 
G01 X26.0975 Y23.9061 
G01 X26.1286 Y23.8750 
G01 X26.1454 Y23.8345 
G01 X26.1454 Y17.4405 
G01 X26.1286 Y17.4000 
G01 X26.0975 Y17.3689 
G01 X26.0570 Y17.3521 
G01 X19.0280 Y17.3521 
G01 X18.9875 Y17.3689 
G01 X18.9564 Y17.4000 
G01 X18.9396 Y17.4405 
G00 Z1.0000  
G00 X26.5596 Y17.4405 
G01 Z-0.1000 F50    
G01 X26.5596 Y23.8345 F100   
G01 X26.5764 Y23.8750 
G01 X26.6075 Y23.9061 
G01 X26.6480 Y23.9229 
G01 X29.7346 Y23.9229 
G01 X29.7346 Y25.6171 
G01 X28.8124 Y25.6171 
G01 X28.8124 Y25.5046 
G01 X28.7789 Y25.3360 
G01 X28.7131 Y25.1773 
G01 X28.6176 Y25.0344 
G01 X28.4961 Y24.9129 
G01 X28.3532 Y24.8174 
G01 X28.1945 Y24.7516 
G01 X28.0259 Y24.7181 
G01 X27.8541 Y24.7181 
G01 X27.6855 Y24.7516 
G01 X27.5268 Y24.8174 
G01 X27.3839 Y24.9129 
G01 X27.2624 Y25.0344 
G01 X27.1669 Y25.1773 
G01 X27.1011 Y25.3360 
G01 X27.0676 Y25.5046 
G01 X27.0676 Y27.2004 
G01 X27.1011 Y27.3690 
G01 X27.1669 Y27.5277 
G01 X27.2624 Y27.6706 
G01 X27.3839 Y27.7921 
G01 X27.5268 Y27.8876 
G01 X27.6855 Y27.9534 
G01 X27.8541 Y27.9869 
G01 X28.0259 Y27.9869 
G01 X28.1945 Y27.9534 
G01 X28.3532 Y27.8876 
G01 X28.4961 Y27.7921 
G01 X28.6176 Y27.6706 
G01 X28.7131 Y27.5277 
G01 X28.7789 Y27.3690 
G01 X28.8124 Y27.2004 
G01 X28.8124 Y27.0879 
G01 X29.7346 Y27.0879 
G01 X29.7346 Y29.4171 
G01 X27.2830 Y29.4171 
G01 X27.2425 Y29.4339 
G01 X27.2114 Y29.4650 
G01 X27.1946 Y29.5055 
G01 X27.1946 Y35.8995 
G01 X27.2114 Y35.9400 
G01 X27.2425 Y35.9711 
G01 X27.2830 Y35.9879 
G01 X28.5796 Y35.9879 
G01 X28.5796 Y36.0595 
G01 X28.5964 Y36.1000 
G01 X28.6275 Y36.1311 
G01 X28.6680 Y36.1479 
G01 X34.9120 Y36.1479 
G01 X34.9525 Y36.1311 
G01 X34.9836 Y36.1000 
G01 X35.0004 Y36.0595 
G01 X35.0004 Y35.9582 
G01 X35.0186 Y35.9400 
G01 X35.0354 Y35.8995 
G01 X35.0354 Y26.9655 
G01 X35.0186 Y26.9250 
G01 X34.9875 Y26.8939 
G01 X34.9470 Y26.8771 
G01 X34.4004 Y26.8771 
G01 X34.4004 Y17.4405 
G01 X34.3836 Y17.4000 
G01 X34.3525 Y17.3689 
G01 X34.3120 Y17.3521 
G01 X26.6480 Y17.3521 
G01 X26.6075 Y17.3689 
G01 X26.5764 Y17.4000 
G01 X26.5596 Y17.4405 
G00 Z1.0000  
G00 X2.5736  Y5.1443  
G01 Z-0.1000 F50    
G01 X2.5736  Y5.1443  F100   
G01 X2.2868  Y5.4311  
G01 X2.0260  Y5.7419  
G01 X1.7934  Y6.0742  
G01 X1.5906  Y6.4254  
G01 X1.4191  Y6.7931  
G01 X1.2804  Y7.1743  
G01 X1.1754  Y7.5661  
G01 X1.1050  Y7.9656  
G01 X1.0696  Y8.3697  
G01 X1.0696  Y17.9517 
G01 X1.1081  Y18.2930 
G01 X1.1845  Y18.6279 
G01 X1.2979  Y18.9520 
G01 X1.4469  Y19.2615 
G01 X1.6297  Y19.5523 
G01 X1.8438  Y19.8208 
G01 X2.0867  Y20.0637 
G01 X2.3552  Y20.2778 
G01 X2.6460  Y20.4606 
G01 X2.9554  Y20.6096 
G01 X3.0492  Y20.6424 
G01 X2.9094  Y20.8222 
G01 X2.7324  Y21.1116 
G01 X2.5890  Y21.4190 
G01 X2.4808  Y21.7405 
G01 X2.4094  Y22.0721 
G01 X2.3755  Y22.4096 
G01 X2.3796  Y22.7488 
G01 X2.3971  Y22.8887 
G01 X2.3971  Y28.3813 
G01 X2.4323  Y28.6263 
G01 X2.5021  Y28.8638 
G01 X2.6049  Y29.0889 
G01 X2.7387  Y29.2971 
G01 X2.9008  Y29.4842 
G01 X3.0879  Y29.6463 
G01 X3.2961  Y29.7801 
G01 X3.5212  Y29.8829 
G01 X3.7587  Y29.9527 
G01 X4.0037  Y29.9879 
G01 X5.5006  Y29.9879 
G01 X5.7044  Y29.9556 
G01 X5.9005  Y29.8919 
G01 X6.0843  Y29.7983 
G01 X6.2512  Y29.6770 
G01 X6.3970  Y29.5312 
G01 X6.5183  Y29.3643 
G01 X6.6119  Y29.1805 
G01 X6.6647  Y29.0179 
G01 X6.7893  Y29.0179 
G01 X6.8667  Y28.9859 
G01 X6.9259  Y28.9267 
G01 X6.9579  Y28.8494 
G01 X6.9579  Y28.7179 
G01 X7.0121  Y28.7179 
G01 X7.0121  Y28.8494 
G01 X7.0441  Y28.9267 
G01 X7.1033  Y28.9859 
G01 X7.1806  Y29.0179 
G01 X8.2644  Y29.0179 
G01 X8.3417  Y28.9859 
G01 X8.4009  Y28.9267 
G01 X8.4329  Y28.8494 
G01 X8.4329  Y27.6656 
G01 X8.4009  Y27.5883 
G01 X8.3417  Y27.5291 
G01 X8.2644  Y27.4971 
G01 X7.1806  Y27.4971 
G01 X7.1033  Y27.5291 
G01 X7.0441  Y27.5883 
G01 X7.0121  Y27.6656 
G01 X7.0121  Y27.7971 
G01 X6.9579  Y27.7971 
G01 X6.9579  Y27.6656 
G01 X6.9259  Y27.5883 
G01 X6.8667  Y27.5291 
G01 X6.7893  Y27.4971 
G01 X5.7056  Y27.4971 
G01 X5.6283  Y27.5291 
G01 X5.5691  Y27.5883 
G01 X5.5371  Y27.6656 
G01 X5.5371  Y28.8494 
G01 X5.5691  Y28.9267 
G01 X5.6283  Y28.9859 
G01 X5.6318  Y28.9873 
G01 X5.6011  Y29.0097 
G01 X5.5466  Y29.0374 
G01 X5.4885  Y29.0563 
G01 X5.4281  Y29.0659 
G01 X5.3975  Y29.0671 
G01 X4.1275  Y29.0671 
G01 X4.0697  Y29.0650 
G01 X3.9554  Y29.0486 
G01 X3.8446  Y29.0161 
G01 X3.7395  Y28.9681 
G01 X3.6423  Y28.9056 
G01 X3.5550  Y28.8300 
G01 X3.4794  Y28.7427 
G01 X3.4169  Y28.6455 
G01 X3.3689  Y28.5404 
G01 X3.3364  Y28.4296 
G01 X3.3200  Y28.3153 
G01 X3.3179  Y28.2575 
G01 X3.3179  Y22.8917 
G01 X3.3219  Y22.8630 
G01 X3.3179  Y22.8313 
G01 X3.3179  Y22.7994 
G01 X3.3118  Y22.7767 
G01 X3.3030  Y22.6857 
G01 X3.3002  Y22.4503 
G01 X3.3237  Y22.2160 
G01 X3.3733  Y21.9859 
G01 X3.4483  Y21.7627 
G01 X3.5479  Y21.5494 
G01 X3.6707  Y21.3486 
G01 X3.8152  Y21.1627 
G01 X3.9797  Y20.9942 
G01 X4.0462  Y20.9399 
G01 X4.2222  Y20.9749 
G01 X5.9378  Y20.9749 
G01 X6.1256  Y20.9375 
G01 X6.3026  Y20.8642 
G01 X6.4619  Y20.7578 
G01 X6.5973  Y20.6224 
G01 X6.7037  Y20.4631 
G01 X6.7770  Y20.2861 
G01 X6.8144  Y20.0983 
G01 X6.8144  Y19.9067 
G01 X6.7770  Y19.7189 
G01 X6.7037  Y19.5419 
G01 X6.5973  Y19.3826 
G01 X6.4619  Y19.2472 
G01 X6.3026  Y19.1408 
G01 X6.1256  Y19.0675 
G01 X5.9378  Y19.0301 
G01 X4.2222  Y19.0301 
G01 X4.0344  Y19.0675 
G01 X3.8603  Y19.1396 
G01 X3.7435  Y19.1129 
G01 X3.5967  Y19.0615 
G01 X3.4565  Y18.9940 
G01 X3.3248  Y18.9113 
G01 X3.2032  Y18.8143 
G01 X3.0932  Y18.7043 
G01 X2.9962  Y18.5827 
G01 X2.9135  Y18.4510 
G01 X2.8460  Y18.3108 
G01 X2.7946  Y18.1640 
G01 X2.7600  Y18.0123 
G01 X2.7426  Y17.8578 
G01 X2.7404  Y17.7800 
G01 X2.7404  Y8.5724  
G01 X2.7432  Y8.4428  
G01 X2.7658  Y8.1842  
G01 X2.8109  Y7.9287  
G01 X2.8781  Y7.6780  
G01 X2.9668  Y7.4342  
G01 X3.0765  Y7.1990  
G01 X3.2062  Y6.9742  
G01 X3.3551  Y6.7617  
G01 X3.5219  Y6.5629  
G01 X3.7054  Y6.3794  
G01 X3.9042  Y6.2126  
G01 X4.1167  Y6.0637  
G01 X4.3415  Y5.9340  
G01 X4.5767  Y5.8243  
G01 X4.6548  Y5.7959  
G01 X5.1018  Y6.2429  
G01 X6.3282  Y6.2429  
G01 X6.9196  Y5.6515  
G01 X7.0898  Y5.6896  
G01 X7.3641  Y5.7753  
G01 X7.6304  Y5.8833  
G01 X7.8869  Y6.0130  
G01 X8.1318  Y6.1634  
G01 X8.3635  Y6.3335  
G01 X8.5803  Y6.5221  
G01 X8.7807  Y6.7281  
G01 X8.9635  Y6.9498  
G01 X9.1274  Y7.1859  
G01 X9.2712  Y7.4348  
G01 X9.3940  Y7.6946  
G01 X9.4949  Y7.9637  
G01 X9.5732  Y8.2402  
G01 X9.6284  Y8.5223  
G01 X9.6421  Y8.6261  
G01 X9.6421  Y11.3800 
G01 X9.6229  Y11.5400 
G01 X9.6093  Y11.9617 
G01 X9.6326  Y12.3831 
G01 X9.6925  Y12.8008 
G01 X9.7885  Y13.2117 
G01 X9.9200  Y13.6127 
G01 X10.0860 Y14.0007 
G01 X10.2851 Y14.3727 
G01 X10.5159 Y14.7260 
G01 X10.7766 Y15.0579 
G01 X11.0653 Y15.3657 
G01 X11.3796 Y15.6472 
G01 X11.7174 Y15.9002 
G01 X12.0758 Y16.1229 
G01 X12.4524 Y16.3134 
G01 X12.8441 Y16.4704 
G01 X13.2480 Y16.5927 
G01 X13.6610 Y16.6793 
G01 X13.8385 Y16.7006 
G01 X13.8877 Y16.7104 
G01 X13.9201 Y16.7104 
G01 X13.9343 Y16.7121 
G01 X13.4681 Y16.7121 
G01 X13.3908 Y16.7441 
G01 X13.3316 Y16.8033 
G01 X13.2996 Y16.8806 
G01 X13.2996 Y18.5644 
G01 X13.3316 Y18.6417 
G01 X13.3908 Y18.7009 
G01 X13.4681 Y18.7329 
G01 X16.5519 Y18.7329 
G01 X16.6292 Y18.7009 
G01 X16.6884 Y18.6417 
G01 X16.7204 Y18.5644 
G01 X16.7204 Y16.8806 
G01 X16.6884 Y16.8033 
G01 X16.6292 Y16.7441 
G01 X16.5519 Y16.7121 
G01 X15.8454 Y16.7121 
G01 X34.2900 Y16.7104 
G01 X34.3184 Y16.7113 
G01 X34.3748 Y16.7187 
G01 X34.4297 Y16.7335 
G01 X34.4822 Y16.7552 
G01 X34.5314 Y16.7836 
G01 X34.5765 Y16.8182 
G01 X34.6168 Y16.8584 
G01 X34.6514 Y16.9035 
G01 X34.6798 Y16.9528 
G01 X34.7015 Y17.0053 
G01 X34.7163 Y17.0602 
G01 X34.7237 Y17.1166 
G01 X34.7246 Y17.1450 
G01 X34.7246 Y19.7015 
G01 X34.7641 Y20.0773 
G01 X34.8427 Y20.4469 
G01 X34.9594 Y20.8063 
G01 X35.1132 Y21.1516 
G01 X35.3021 Y21.4788 
G01 X35.5242 Y21.7846 
G01 X35.7771 Y22.0654 
G01 X36.0579 Y22.3183 
G01 X36.3637 Y22.5404 
G01 X36.6196 Y22.6882 
G01 X36.6196 Y23.1243 
G01 X36.6516 Y23.2017 
G01 X36.7108 Y23.2609 
G01 X36.7881 Y23.2929 
G01 X39.8719 Y23.2929 
G01 X39.9492 Y23.2609 
G01 X40.0084 Y23.2017 
G01 X40.0404 Y23.1243 
G01 X40.0404 Y21.4406 
G01 X40.0084 Y21.3633 
G01 X39.9492 Y21.3041 
G01 X39.8719 Y21.2721 
G01 X37.5322 Y21.2721 
G01 X37.4517 Y21.2362 
G01 X37.2763 Y21.1350 
G01 X37.1125 Y21.0160 
G01 X36.9620 Y20.8805 
G01 X36.8265 Y20.7300 
G01 X36.7075 Y20.5662 
G01 X36.6063 Y20.3908 
G01 X36.5239 Y20.2058 
G01 X36.4613 Y20.0132 
G01 X36.4192 Y19.8151 
G01 X36.3980 Y19.6137 
G01 X36.3954 Y19.5125 
G01 X36.3954 Y17.0070 
G01 X36.3594 Y16.7334 
G01 X36.2879 Y16.4668 
G01 X36.1823 Y16.2118 
G01 X36.0443 Y15.9728 
G01 X35.8763 Y15.7538 
G01 X35.6812 Y15.5587 
G01 X35.4622 Y15.3907 
G01 X35.2232 Y15.2527 
G01 X34.9682 Y15.1471 
G01 X34.7016 Y15.0756 
G01 X34.4280 Y15.0396 
G01 X14.0277 Y15.0396 
G01 X13.9330 Y15.0261 
G01 X13.6630 Y14.9695 
G01 X13.3990 Y14.8896 
G01 X13.1430 Y14.7870 
G01 X12.8969 Y14.6624 
G01 X12.6625 Y14.5169 
G01 X12.4418 Y14.3515 
G01 X12.2363 Y14.1675 
G01 X12.0476 Y13.9663 
G01 X11.8772 Y13.7494 
G01 X11.7263 Y13.5185 
G01 X11.5962 Y13.2753 
G01 X11.4877 Y13.0217 
G01 X11.4017 Y12.7596 
G01 X11.3390 Y12.4910 
G01 X11.2998 Y12.2179 
G01 X11.2846 Y11.9425 
G01 X11.2935 Y11.6668 
G01 X11.3045 Y11.5545 
G01 X11.3129 Y11.5123 
G01 X11.3129 Y11.4800 
G01 X11.3168 Y11.4478 
G01 X11.3129 Y11.3978 
G01 X11.3129 Y8.6083  
G01 X11.3169 Y8.5620  
G01 X11.3129 Y8.5262  
G01 X11.3129 Y8.4902  
G01 X11.3038 Y8.4446  
G01 X11.2843 Y8.2686  
G01 X11.2025 Y7.8507  
G01 X11.0864 Y7.4410  
G01 X10.9369 Y7.0422  
G01 X10.7550 Y6.6572  
G01 X10.5419 Y6.2885  
G01 X10.2991 Y5.9386  
G01 X10.0283 Y5.6100  
G01 X9.7312  Y5.3049  
G01 X9.4099  Y5.0254  
G01 X9.0667  Y4.7733  
G01 X8.7038  Y4.5505  
G01 X8.3238  Y4.3583  
G01 X7.9292  Y4.1983  
G01 X7.5227  Y4.0713  
G01 X7.1071  Y3.9784  
G01 X7.0112  Y3.9651  
G01 X6.3282  Y3.2821  
G01 X5.1018  Y3.2821  
G01 X4.2346  Y4.1493  
G01 X4.2346  Y4.1678  
G01 X3.9356  Y4.2766  
G01 X3.5680  Y4.4481  
G01 X3.2167  Y4.6509  
G01 X2.8844  Y4.8835  
G01 X2.5736  Y5.1443  
G00 Z1.0000  
G00 X4.5858  Y8.8781  
G01 Z-0.1000 F50    
G01 X4.4488  Y9.0666  F100   
G01 X4.3431  Y9.2742  
G01 X4.2711  Y9.4958  
G01 X4.2346  Y9.7260  
G01 X4.2346  Y9.9590  
G01 X4.2711  Y10.1892 
G01 X4.3431  Y10.4108 
G01 X4.4488  Y10.6184 
G01 X4.5858  Y10.8069 
G01 X4.7506  Y10.9717 
G01 X4.8796  Y11.0654 
G01 X4.8796  Y16.4901 
G01 X4.2222  Y16.4901 
G01 X4.0344  Y16.5275 
G01 X3.8574  Y16.6008 
G01 X3.6981  Y16.7072 
G01 X3.5627  Y16.8426 
G01 X3.4563  Y17.0019 
G01 X3.3830  Y17.1789 
G01 X3.3456  Y17.3667 
G01 X3.3456  Y17.5583 
G01 X3.3830  Y17.7461 
G01 X3.4563  Y17.9231 
G01 X3.5627  Y18.0824 
G01 X3.6981  Y18.2178 
G01 X3.8574  Y18.3242 
G01 X4.0344  Y18.3975 
G01 X4.2222  Y18.4349 
G01 X5.9378  Y18.4349 
G01 X6.1256  Y18.3975 
G01 X6.3026  Y18.3242 
G01 X6.3420  Y18.2979 
G01 X9.5249  Y18.2979 
G01 X12.1267 Y20.6106 
G01 X12.1675 Y20.6514 
G01 X12.1880 Y20.6651 
G01 X12.2065 Y20.6815 
G01 X12.2563 Y20.7108 
G01 X12.3043 Y20.7428 
G01 X12.3271 Y20.7523 
G01 X12.3484 Y20.7648 
G01 X12.4030 Y20.7837 
G01 X12.4563 Y20.8058 
G01 X12.4806 Y20.8106 
G01 X12.5039 Y20.8187 
G01 X12.5611 Y20.8266 
G01 X12.6177 Y20.8379 
G01 X12.6424 Y20.8379 
G01 X12.6669 Y20.8413 
G01 X12.7246 Y20.8379 
G01 X16.5100 Y20.8379 
G01 X16.5384 Y20.8388 
G01 X16.5948 Y20.8462 
G01 X16.6497 Y20.8610 
G01 X16.7022 Y20.8827 
G01 X16.7514 Y20.9111 
G01 X16.7965 Y20.9457 
G01 X16.8367 Y20.9859 
G01 X16.8714 Y21.0310 
G01 X16.8998 Y21.0803 
G01 X16.9215 Y21.1328 
G01 X16.9363 Y21.1877 
G01 X16.9437 Y21.2441 
G01 X16.9446 Y21.2725 
G01 X16.9446 Y25.3715 
G01 X16.2950 Y26.0211 
G01 X16.1786 Y26.1375 
G01 X16.0872 Y26.2743 
G01 X16.0242 Y26.4263 
G01 X15.9921 Y26.5877 
G01 X15.9921 Y30.2221 
G01 X15.4504 Y30.2221 
G01 X15.4504 Y30.1206 
G01 X15.4184 Y30.0433 
G01 X15.3592 Y29.9841 
G01 X15.2819 Y29.9521 
G01 X13.2931 Y29.9521 
G01 X13.2158 Y29.9841 
G01 X13.1566 Y30.0433 
G01 X13.1246 Y30.1206 
G01 X13.1246 Y32.1093 
G01 X13.1566 Y32.1867 
G01 X13.2158 Y32.2459 
G01 X13.2931 Y32.2779 
G01 X15.2819 Y32.2779 
G01 X15.3592 Y32.2459 
G01 X15.4184 Y32.1867 
G01 X15.4504 Y32.1093 
G01 X15.4504 Y31.8929 
G01 X15.9921 Y31.8929 
G01 X15.9921 Y35.7139 
G01 X16.0266 Y36.0198 
G01 X16.0951 Y36.3198 
G01 X16.1967 Y36.6104 
G01 X16.3303 Y36.8877 
G01 X16.4940 Y37.1483 
G01 X16.6859 Y37.3889 
G01 X16.9036 Y37.6066 
G01 X17.1442 Y37.7985 
G01 X17.4048 Y37.9622 
G01 X17.6821 Y38.0958 
G01 X17.9727 Y38.1974 
G01 X18.2727 Y38.2659 
G01 X18.3497 Y38.2746 
G01 X17.1450 Y38.2746 
G01 X16.9008 Y38.2702 
G01 X16.4136 Y38.2354 
G01 X15.9302 Y38.1659 
G01 X15.4529 Y38.0621 
G01 X14.9843 Y37.9245 
G01 X14.5266 Y37.7538 
G01 X14.0824 Y37.5509 
G01 X13.6537 Y37.3168 
G01 X13.2428 Y37.0527 
G01 X12.8518 Y36.7600 
G01 X12.4827 Y36.4402 
G01 X12.1373 Y36.0948 
G01 X11.8175 Y35.7257 
G01 X11.5248 Y35.3347 
G01 X11.2607 Y34.9238 
G01 X11.0266 Y34.4951 
G01 X10.8237 Y34.0509 
G01 X10.6530 Y33.5932 
G01 X10.5154 Y33.1246 
G01 X10.4116 Y32.6473 
G01 X10.3421 Y32.1639 
G01 X10.3073 Y31.6767 
G01 X10.3029 Y31.4325 
G01 X10.3029 Y29.1473 
G01 X10.2705 Y28.9011 
G01 X10.2062 Y28.6612 
G01 X10.1329 Y28.4842 
G01 X10.1329 Y27.6656 
G01 X10.1009 Y27.5883 
G01 X10.0417 Y27.5291 
G01 X9.9643  Y27.4971 
G01 X9.7382  Y27.4971 
G01 X9.6067  Y27.1417 
G01 X9.4380  Y26.7897 
G01 X9.2376  Y26.4547 
G01 X9.0071  Y26.1396 
G01 X8.7485  Y25.8472 
G01 X8.4640  Y25.5798 
G01 X8.1561  Y25.3399 
G01 X7.8274  Y25.1293 
G01 X7.4806  Y24.9501 
G01 X7.1188  Y24.8035 
G01 X6.7449  Y24.6910 
G01 X6.7312  Y24.6882 
G01 X6.7037  Y24.6219 
G01 X6.5973  Y24.4626 
G01 X6.4619  Y24.3272 
G01 X6.3026  Y24.2208 
G01 X6.1256  Y24.1475 
G01 X5.9378  Y24.1101 
G01 X4.4684  Y24.1101 
G01 X4.4694  Y24.0331 
G01 X4.4927  Y23.8713 
G01 X4.5369  Y23.7140 
G01 X4.6013  Y23.5638 
G01 X4.6303  Y23.5149 
G01 X5.9378  Y23.5149 
G01 X6.1256  Y23.4775 
G01 X6.3026  Y23.4042 
G01 X6.4619  Y23.2978 
G01 X6.5973  Y23.1624 
G01 X6.7037  Y23.0031 
G01 X11.2871 Y23.0029 
G01 X11.2871 Y33.2814 
G01 X11.3244 Y33.6121 
G01 X11.3984 Y33.9365 
G01 X11.5083 Y34.2506 
G01 X11.6527 Y34.5505 
G01 X11.8298 Y34.8322 
G01 X12.0373 Y35.0924 
G01 X12.2726 Y35.3277 
G01 X12.5328 Y35.5352 
G01 X12.8145 Y35.7123 
G01 X13.1144 Y35.8567 
G01 X13.1246 Y35.8603 
G01 X13.1246 Y36.5543 
G01 X13.1566 Y36.6317 
G01 X13.2158 Y36.6909 
G01 X13.2931 Y36.7229 
G01 X15.2819 Y36.7229 
G01 X15.3592 Y36.6909 
G01 X15.4184 Y36.6317 
G01 X15.4504 Y36.5543 
G01 X15.4504 Y34.5656 
G01 X15.4184 Y34.4883 
G01 X15.3592 Y34.4291 
G01 X15.2819 Y34.3971 
G01 X13.2931 Y34.3971 
G01 X13.2158 Y34.4291 
G01 X13.1566 Y34.4883 
G01 X13.1246 Y34.5656 
G01 X13.1246 Y34.8158 
G01 X13.0683 Y34.7805 
G01 X12.8893 Y34.6377 
G01 X12.7273 Y34.4757 
G01 X12.5845 Y34.2967 
G01 X12.4627 Y34.1028 
G01 X12.3633 Y33.8965 
G01 X12.2877 Y33.6803 
G01 X12.2368 Y33.4571 
G01 X12.2111 Y33.2295 
G01 X12.2079 Y33.1150 
G01 X12.2079 Y23.0029 
G01 X13.2996 Y23.0029 
G01 X13.2996 Y23.1243 
G01 X13.3316 Y23.2017 
G01 X13.3908 Y23.2609 
G01 X13.4681 Y23.2929 
G01 X16.5519 Y23.2929 
G01 X16.6292 Y23.2609 
G01 X16.6884 Y23.2017 
G01 X16.7204 Y23.1243 
G01 X16.7204 Y21.4406 
G01 X16.6884 Y21.3633 
G01 X16.6292 Y21.3041 
G01 X16.5519 Y21.2721 
G01 X13.4681 Y21.2721 
G01 X13.3908 Y21.3041 
G01 X13.3316 Y21.3633 
G01 X13.2996 Y21.4406 
G01 X13.2996 Y22.0821 
G01 X6.7038  Y22.0821 
G01 X6.5973  Y21.9226 
G01 X6.4619  Y21.7872 
G01 X6.3026  Y21.6808 
G01 X6.1256  Y21.6075 
G01 X5.9378  Y21.5701 
G01 X4.2222  Y21.5701 
G01 X4.0344  Y21.6075 
G01 X3.8574  Y21.6808 
G01 X3.6981  Y21.7872 
G01 X3.5627  Y21.9226 
G01 X3.4563  Y22.0819 
G01 X3.3830  Y22.2589 
G01 X3.3456  Y22.4467 
G01 X3.3456  Y22.6383 
G01 X3.3830  Y22.8261 
G01 X3.4563  Y23.0031 
G01 X3.5627  Y23.1624 
G01 X3.6981  Y23.2978 
G01 X3.7078  Y23.3043 
G01 X3.6643  Y23.4059 
G01 X3.5873  Y23.6797 
G01 X3.5467  Y23.9613 
G01 X3.5432  Y24.2458 
G01 X3.5684  Y24.4569 
G01 X3.5627  Y24.4626 
G01 X3.4563  Y24.6219 
G01 X3.3830  Y24.7989 
G01 X3.3456  Y24.9867 
G01 X3.3456  Y25.1783 
G01 X3.3830  Y25.3661 
G01 X3.4563  Y25.5431 
G01 X3.5627  Y25.7024 
G01 X3.6671  Y25.8068 
G01 X3.6671  Y27.9242 
G01 X3.7009  Y28.0943 
G01 X3.7673  Y28.2545 
G01 X3.8371  Y28.3590 
G01 X3.8371  Y28.8494 
G01 X3.8691  Y28.9267 
G01 X3.9283  Y28.9859 
G01 X4.0056  Y29.0179 
G01 X5.0893  Y29.0179 
G01 X5.1667  Y28.9859 
G01 X5.2259  Y28.9267 
G01 X5.2579  Y28.8494 
G01 X5.2579  Y27.6656 
G01 X5.2259  Y27.5883 
G01 X5.1667  Y27.5291 
G01 X5.0893  Y27.4971 
G01 X4.5879  Y27.4971 
G01 X4.5879  Y26.0549 
G01 X5.9378  Y26.0549 
G01 X6.1256  Y26.0175 
G01 X6.3026  Y25.9442 
G01 X6.4619  Y25.8378 
G01 X6.5973  Y25.7024 
G01 X6.6477  Y25.6270 
G01 X6.8114  Y25.6763 
G01 X7.0940  Y25.7908 
G01 X7.3649  Y25.9308 
G01 X7.6217  Y26.0952 
G01 X7.8622  Y26.2826 
G01 X8.0844  Y26.4915 
G01 X8.2863  Y26.7199 
G01 X8.4664  Y26.9660 
G01 X8.6229  Y27.2276 
G01 X8.7547  Y27.5026 
G01 X8.7750  Y27.5574 
G01 X8.7441  Y27.5883 
G01 X8.7121  Y27.6656 
G01 X8.7121  Y28.8494 
G01 X8.7441  Y28.9267 
G01 X8.8033  Y28.9859 
G01 X8.8806  Y29.0179 
G01 X9.3463  Y29.0179 
G01 X9.3634  Y29.0815 
G01 X9.3800  Y29.2078 
G01 X9.3821  Y29.2715 
G01 X9.3821  Y31.7098 
G01 X9.4217  Y32.2628 
G01 X9.5006  Y32.8117 
G01 X9.6184  Y33.3535 
G01 X9.7747  Y33.8856 
G01 X9.9684  Y34.4051 
G01 X10.1988 Y34.9095 
G01 X10.4645 Y35.3962 
G01 X10.7643 Y35.8627 
G01 X11.0966 Y36.3066 
G01 X11.4598 Y36.7256 
G01 X11.8518 Y37.1177 
G01 X12.2709 Y37.4809 
G01 X12.7148 Y37.8132 
G01 X13.1813 Y38.1130 
G01 X13.6680 Y38.3787 
G01 X14.1724 Y38.6091 
G01 X14.6919 Y38.8028 
G01 X15.2240 Y38.9591 
G01 X15.7658 Y39.0769 
G01 X16.3147 Y39.1558 
G01 X16.8677 Y39.1954 
G01 X38.5914 Y39.1954 
G01 X38.9372 Y39.1590 
G01 X39.2774 Y39.0867 
G01 X39.6082 Y38.9793 
G01 X39.9259 Y38.8378 
G01 X40.2270 Y38.6639 
G01 X40.5084 Y38.4595 
G01 X40.7668 Y38.2268 
G01 X40.9995 Y37.9684 
G01 X41.2039 Y37.6870 
G01 X41.3778 Y37.3859 
G01 X41.5193 Y37.0682 
G01 X41.6267 Y36.7374 
G01 X41.6990 Y36.3972 
G01 X41.7354 Y36.0514 
G01 X41.7354 Y20.4890 
G01 X41.6981 Y20.1340 
G01 X41.6239 Y19.7849 
G01 X41.5136 Y19.4454 
G01 X41.3684 Y19.1194 
G01 X41.1899 Y18.8102 
G01 X40.9801 Y18.5215 
G01 X40.7413 Y18.2562 
G01 X40.4760 Y18.0174 
G01 X40.1873 Y17.8076 
G01 X40.0404 Y17.7228 
G01 X40.0404 Y16.8806 
G01 X40.0084 Y16.8033 
G01 X39.9492 Y16.7441 
G01 X39.8719 Y16.7121 
G01 X36.7881 Y16.7121 
G01 X36.7108 Y16.7441 
G01 X36.6516 Y16.8033 
G01 X36.6196 Y16.8806 
G01 X36.6196 Y18.5644 
G01 X36.6516 Y18.6417 
G01 X36.7108 Y18.7009 
G01 X36.7881 Y18.7329 
G01 X39.8719 Y18.7329 
G01 X39.8825 Y18.7285 
G01 X39.8936 Y18.7366 
G01 X40.0869 Y18.9106 
G01 X40.2609 Y19.1039 
G01 X40.4138 Y19.3143 
G01 X40.5438 Y19.5395 
G01 X40.6496 Y19.7771 
G01 X40.7299 Y20.0244 
G01 X40.7840 Y20.2788 
G01 X40.8112 Y20.5375 
G01 X40.8146 Y20.6675 
G01 X40.8146 Y30.5971 
G01 X40.2154 Y30.5971 
G01 X40.2154 Y30.1206 
G01 X40.1834 Y30.0433 
G01 X40.1242 Y29.9841 
G01 X40.0468 Y29.9521 
G01 X38.0581 Y29.9521 
G01 X37.9808 Y29.9841 
G01 X37.9216 Y30.0433 
G01 X37.8896 Y30.1206 
G01 X37.8896 Y32.1093 
G01 X37.9216 Y32.1867 
G01 X37.9808 Y32.2459 
G01 X38.0581 Y32.2779 
G01 X40.0468 Y32.2779 
G01 X40.1242 Y32.2459 
G01 X40.1834 Y32.1867 
G01 X40.2154 Y32.1093 
G01 X40.2154 Y31.5179 
G01 X40.8146 Y31.5179 
G01 X40.8146 Y35.8775 
G01 X40.8113 Y36.0029 
G01 X40.7851 Y36.2525 
G01 X40.7329 Y36.4979 
G01 X40.6554 Y36.7365 
G01 X40.5533 Y36.9658 
G01 X40.4279 Y37.1831 
G01 X40.2804 Y37.3860 
G01 X40.1125 Y37.5725 
G01 X39.9260 Y37.7404 
G01 X39.7231 Y37.8879 
G01 X39.5058 Y38.0133 
G01 X39.2765 Y38.1154 
G01 X39.0379 Y38.1929 
G01 X38.7925 Y38.2451 
G01 X38.5430 Y38.2713 
G01 X38.4175 Y38.2746 
G01 X37.6221 Y38.2746 
G01 X37.6926 Y38.2667 
G01 X37.9864 Y38.1996 
G01 X38.2708 Y38.1001 
G01 X38.5423 Y37.9693 
G01 X38.7975 Y37.8090 
G01 X39.0331 Y37.6211 
G01 X39.2461 Y37.4081 
G01 X39.4340 Y37.1725 
G01 X39.5943 Y36.9173 
G01 X39.6880 Y36.7229 
G01 X40.0468 Y36.7229 
G01 X40.1242 Y36.6909 
G01 X40.1834 Y36.6317 
G01 X40.2154 Y36.5543 
G01 X40.2154 Y34.5656 
G01 X40.1834 Y34.4883 
G01 X40.1242 Y34.4291 
G01 X40.0468 Y34.3971 
G01 X38.0581 Y34.3971 
G01 X37.9808 Y34.4291 
G01 X37.9216 Y34.4883 
G01 X37.8896 Y34.5656 
G01 X37.8896 Y36.3939 
G01 X37.8282 Y36.4429 
G01 X37.7321 Y36.5033 
G01 X37.6298 Y36.5526 
G01 X37.5227 Y36.5900 
G01 X37.4120 Y36.6153 
G01 X37.2993 Y36.6280 
G01 X37.2425 Y36.6296 
G01 X18.7325 Y36.6296 
G01 X18.6725 Y36.6279 
G01 X18.5533 Y36.6145 
G01 X18.4364 Y36.5878 
G01 X18.3232 Y36.5482 
G01 X18.2151 Y36.4961 
G01 X18.1136 Y36.4323 
G01 X18.0198 Y36.3575 
G01 X17.9350 Y36.2727 
G01 X17.8602 Y36.1790 
G01 X17.7964 Y36.0774 
G01 X17.7443 Y35.9693 
G01 X17.7047 Y35.8561 
G01 X17.6780 Y35.7392 
G01 X17.6646 Y35.6200 
G01 X17.6629 Y35.5600 
G01 X17.6629 Y27.0160 
G01 X18.3125 Y26.3664 
G01 X18.4289 Y26.2500 
G01 X18.5203 Y26.1132 
G01 X18.5833 Y25.9612 
G01 X18.6154 Y25.7998 
G01 X18.6154 Y21.1345 
G01 X18.5794 Y20.8609 
G01 X18.5079 Y20.5943 
G01 X18.4023 Y20.3393 
G01 X18.2643 Y20.1003 
G01 X18.0963 Y19.8813 
G01 X17.9012 Y19.6862 
G01 X17.6822 Y19.5182 
G01 X17.4432 Y19.3802 
G01 X17.1882 Y19.2746 
G01 X16.9216 Y19.2031 
G01 X16.6480 Y19.1671 
G01 X13.0176 Y19.1671 
G01 X10.4158 Y16.8544 
G01 X10.3750 Y16.8136 
G01 X10.3545 Y16.7999 
G01 X10.3360 Y16.7834 
G01 X10.2862 Y16.7542 
G01 X10.2382 Y16.7222 
G01 X10.2154 Y16.7127 
G01 X10.1941 Y16.7002 
G01 X10.1395 Y16.6813 
G01 X10.0862 Y16.6592 
G01 X10.0619 Y16.6544 
G01 X10.0386 Y16.6463 
G01 X9.9814  Y16.6384 
G01 X9.9248  Y16.6271 
G01 X9.9001  Y16.6271 
G01 X9.8756  Y16.6237 
G01 X9.8179  Y16.6271 
G01 X6.5504  Y16.6271 
G01 X6.5504  Y11.0654 
G01 X6.6794  Y10.9717 
G01 X6.8442  Y10.8069 
G01 X6.9812  Y10.6184 
G01 X7.0869  Y10.4108 
G01 X7.1589  Y10.1892 
G01 X7.1954  Y9.9590  
G01 X7.1954  Y9.7260  
G01 X7.1589  Y9.4958  
G01 X7.0869  Y9.2742  
G01 X6.9812  Y9.0666  
G01 X6.8442  Y8.8781  
G01 X6.6794  Y8.7133  
G01 X6.4909  Y8.5763  
G01 X6.2833  Y8.4706  
G01 X6.0617  Y8.3986  
G01 X5.8315  Y8.3621  
G01 X5.5985  Y8.3621  
G01 X5.3683  Y8.3986  
G01 X5.1467  Y8.4706  
G01 X4.9391  Y8.5763  
G01 X4.7506  Y8.7133  
G01 X4.5858  Y8.8781  
G00 Z1.0000  
G00 X13.9800 Y16.7121 
G01 Z-0.1000 F50    
G01 X14.0021 Y16.7104 F100   
G01 X14.1746 Y16.7104 
G01 X13.9800 Y16.7121 
G00 Z1.0000  
G00 X18.8716 Y17.3433 
G01 Z-0.1000 F50    
G01 X18.8396 Y17.4206 F100   
G01 X18.8396 Y26.7771 
G01 X18.3731 Y26.7771 
G01 X18.2958 Y26.8091 
G01 X18.2366 Y26.8683 
G01 X18.2046 Y26.9456 
G01 X18.2046 Y35.9194 
G01 X18.2366 Y35.9967 
G01 X18.2396 Y35.9996 
G01 X18.2396 Y36.0793 
G01 X18.2716 Y36.1567 
G01 X18.3308 Y36.2159 
G01 X18.4081 Y36.2479 
G01 X24.6918 Y36.2479 
G01 X24.7692 Y36.2159 
G01 X24.8284 Y36.1567 
G01 X24.8569 Y36.0879 
G01 X26.0769 Y36.0879 
G01 X26.1542 Y36.0559 
G01 X26.2134 Y35.9967 
G01 X26.2454 Y35.9194 
G01 X26.2454 Y29.4856 
G01 X26.2134 Y29.4083 
G01 X26.1542 Y29.3491 
G01 X26.0769 Y29.3171 
G01 X23.7054 Y29.3171 
G01 X23.7054 Y27.1879 
G01 X24.4276 Y27.1879 
G01 X24.4276 Y27.2103 
G01 X24.4650 Y27.3981 
G01 X24.5383 Y27.5751 
G01 X24.6447 Y27.7344 
G01 X24.7801 Y27.8698 
G01 X24.9394 Y27.9762 
G01 X25.1164 Y28.0495 
G01 X25.3042 Y28.0869 
G01 X25.4958 Y28.0869 
G01 X25.6836 Y28.0495 
G01 X25.8606 Y27.9762 
G01 X26.0199 Y27.8698 
G01 X26.1553 Y27.7344 
G01 X26.2617 Y27.5751 
G01 X26.3350 Y27.3981 
G01 X26.3724 Y27.2103 
G01 X26.3724 Y25.4947 
G01 X26.3350 Y25.3069 
G01 X26.2617 Y25.1299 
G01 X26.1553 Y24.9706 
G01 X26.0199 Y24.8352 
G01 X25.8606 Y24.7288 
G01 X25.6836 Y24.6555 
G01 X25.4958 Y24.6181 
G01 X25.3042 Y24.6181 
G01 X25.1164 Y24.6555 
G01 X24.9394 Y24.7288 
G01 X24.7801 Y24.8352 
G01 X24.6447 Y24.9706 
G01 X24.5383 Y25.1299 
G01 X24.4650 Y25.3069 
G01 X24.4276 Y25.4947 
G01 X24.4276 Y25.5171 
G01 X23.7054 Y25.5171 
G01 X23.7054 Y24.0229 
G01 X26.0769 Y24.0229 
G01 X26.1542 Y23.9909 
G01 X26.2134 Y23.9317 
G01 X26.2454 Y23.8544 
G01 X26.2454 Y17.4206 
G01 X26.2134 Y17.3433 
G01 X26.1542 Y17.2841 
G01 X26.0769 Y17.2521 
G01 X19.0081 Y17.2521 
G01 X18.9308 Y17.2841 
G01 X18.8716 Y17.3433 
G00 Z1.0000  
G00 X26.4916 Y17.3433 
G01 Z-0.1000 F50    
G01 X26.4596 Y17.4206 F100   
G01 X26.4596 Y23.8544 
G01 X26.4916 Y23.9317 
G01 X26.5508 Y23.9909 
G01 X26.6281 Y24.0229 
G01 X29.6346 Y24.0229 
G01 X29.6346 Y25.5171 
G01 X28.9124 Y25.5171 
G01 X28.9124 Y25.4947 
G01 X28.8750 Y25.3069 
G01 X28.8017 Y25.1299 
G01 X28.6953 Y24.9706 
G01 X28.5599 Y24.8352 
G01 X28.4006 Y24.7288 
G01 X28.2236 Y24.6555 
G01 X28.0358 Y24.6181 
G01 X27.8442 Y24.6181 
G01 X27.6564 Y24.6555 
G01 X27.4794 Y24.7288 
G01 X27.3201 Y24.8352 
G01 X27.1847 Y24.9706 
G01 X27.0783 Y25.1299 
G01 X27.0050 Y25.3069 
G01 X26.9676 Y25.4947 
G01 X26.9676 Y27.2103 
G01 X27.0050 Y27.3981 
G01 X27.0783 Y27.5751 
G01 X27.1847 Y27.7344 
G01 X27.3201 Y27.8698 
G01 X27.4794 Y27.9762 
G01 X27.6564 Y28.0495 
G01 X27.8442 Y28.0869 
G01 X28.0358 Y28.0869 
G01 X28.2236 Y28.0495 
G01 X28.4006 Y27.9762 
G01 X28.5599 Y27.8698 
G01 X28.6953 Y27.7344 
G01 X28.8017 Y27.5751 
G01 X28.8750 Y27.3981 
G01 X28.9124 Y27.2103 
G01 X28.9124 Y27.1879 
G01 X29.6346 Y27.1879 
G01 X29.6346 Y29.3171 
G01 X27.2631 Y29.3171 
G01 X27.1858 Y29.3491 
G01 X27.1266 Y29.4083 
G01 X27.0946 Y29.4856 
G01 X27.0946 Y35.9194 
G01 X27.1266 Y35.9967 
G01 X27.1858 Y36.0559 
G01 X27.2631 Y36.0879 
G01 X28.4831 Y36.0879 
G01 X28.5116 Y36.1567 
G01 X28.5708 Y36.2159 
G01 X28.6481 Y36.2479 
G01 X34.9318 Y36.2479 
G01 X35.0092 Y36.2159 
G01 X35.0684 Y36.1567 
G01 X35.1004 Y36.0793 
G01 X35.1004 Y35.9996 
G01 X35.1034 Y35.9967 
G01 X35.1354 Y35.9194 
G01 X35.1354 Y26.9456 
G01 X35.1034 Y26.8683 
G01 X35.0442 Y26.8091 
G01 X34.9669 Y26.7771 
G01 X34.5004 Y26.7771 
G01 X34.5004 Y17.4206 
G01 X34.4684 Y17.3433 
G01 X34.4092 Y17.2841 
G01 X34.3319 Y17.2521 
G01 X26.6281 Y17.2521 
G01 X26.5508 Y17.2841 
G01 X26.4916 Y17.3433 
G00 Z1.0000  
G00 X2.2130  Y5.3635  
G01 Z-0.1000 F50    
G01 X2.2130  Y5.3635  F100   
G01 X1.9466  Y5.6809  
G01 X1.7090  Y6.0204  
G01 X1.5018  Y6.3792  
G01 X1.3266  Y6.7548  
G01 X1.1849  Y7.1442  
G01 X1.0777  Y7.5444  
G01 X1.0057  Y7.9525  
G01 X0.9696  Y8.3653  
G01 X0.9696  Y17.9455 
G01 X1.0042  Y18.2747 
G01 X1.0730  Y18.5984 
G01 X1.1753  Y18.9132 
G01 X1.3099  Y19.2156 
G01 X1.4754  Y19.5023 
G01 X1.6700  Y19.7701 
G01 X1.8915  Y20.0160 
G01 X2.1374  Y20.2375 
G01 X2.4052  Y20.4321 
G01 X2.6919  Y20.5976 
G01 X2.8891  Y20.6854 
G01 X2.8270  Y20.7652 
G01 X2.6442  Y21.0642 
G01 X2.4960  Y21.3818 
G01 X2.3843  Y21.7139 
G01 X2.3104  Y22.0565 
G01 X2.2754  Y22.4052 
G01 X2.2797  Y22.7556 
G01 X2.2971  Y22.8949 
G01 X2.2971  Y28.3884 
G01 X2.3344  Y28.6476 
G01 X2.4081  Y28.8988 
G01 X2.5169  Y29.1370 
G01 X2.6584  Y29.3572 
G01 X2.8299  Y29.5551 
G01 X3.0278  Y29.7265 
G01 X3.2480  Y29.8681 
G01 X3.4862  Y29.9769 
G01 X3.7374  Y30.0506 
G01 X3.9966  Y30.0879 
G01 X5.5085  Y30.0879 
G01 X5.7278  Y30.0532 
G01 X5.9389  Y29.9846 
G01 X6.1367  Y29.8838 
G01 X6.3163  Y29.7533 
G01 X6.4733  Y29.5963 
G01 X6.6038  Y29.4167 
G01 X6.7046  Y29.2189 
G01 X6.7374  Y29.1179 
G01 X6.7884  Y29.1179 
G01 X6.8673  Y29.0967 
G01 X6.9381  Y29.0559 
G01 X6.9850  Y29.0090 
G01 X7.0319  Y29.0559 
G01 X7.1027  Y29.0967 
G01 X7.1816  Y29.1179 
G01 X8.2634  Y29.1179 
G01 X8.3423  Y29.0967 
G01 X8.4131  Y29.0559 
G01 X8.4709  Y28.9981 
G01 X8.5117  Y28.9273 
G01 X8.5329  Y28.8484 
G01 X8.5329  Y27.6666 
G01 X8.5117  Y27.5877 
G01 X8.4709  Y27.5169 
G01 X8.4131  Y27.4591 
G01 X8.3423  Y27.4183 
G01 X8.2634  Y27.3971 
G01 X7.1816  Y27.3971 
G01 X7.1027  Y27.4183 
G01 X7.0319  Y27.4591 
G01 X6.9850  Y27.5060 
G01 X6.9381  Y27.4591 
G01 X6.8673  Y27.4183 
G01 X6.7884  Y27.3971 
G01 X5.7066  Y27.3971 
G01 X5.6277  Y27.4183 
G01 X5.5569  Y27.4591 
G01 X5.4991  Y27.5169 
G01 X5.4583  Y27.5877 
G01 X5.4371  Y27.6666 
G01 X5.4371  Y28.8484 
G01 X5.4583  Y28.9273 
G01 X5.4748  Y28.9560 
G01 X5.4651  Y28.9591 
G01 X5.4202  Y28.9662 
G01 X5.3975  Y28.9671 
G01 X5.3138  Y28.9671 
G01 X5.3367  Y28.9273 
G01 X5.3579  Y28.8484 
G01 X5.3579  Y27.6666 
G01 X5.3367  Y27.5877 
G01 X5.2959  Y27.5169 
G01 X5.2381  Y27.4591 
G01 X5.1673  Y27.4183 
G01 X5.0884  Y27.3971 
G01 X4.6879  Y27.3971 
G01 X4.6879  Y26.1549 
G01 X5.9264  Y26.1549 
G01 X6.0931  Y26.1285 
G01 X6.2537  Y26.0763 
G01 X6.4041  Y25.9997 
G01 X6.5406  Y25.9005 
G01 X6.6600  Y25.7811 
G01 X6.6874  Y25.7433 
G01 X6.7782  Y25.7706 
G01 X7.0523  Y25.8816 
G01 X7.3149  Y26.0174 
G01 X7.5639  Y26.1769 
G01 X7.7971  Y26.3586 
G01 X8.0126  Y26.5611 
G01 X8.2084  Y26.7826 
G01 X8.3830  Y27.0212 
G01 X8.5349  Y27.2749 
G01 X8.6614  Y27.5390 
G01 X8.6333  Y27.5877 
G01 X8.6121  Y27.6666 
G01 X8.6121  Y28.8484 
G01 X8.6333  Y28.9273 
G01 X8.6741  Y28.9981 
G01 X8.7319  Y29.0559 
G01 X8.8027  Y29.0967 
G01 X8.8816  Y29.1179 
G01 X9.2675  Y29.1179 
G01 X9.2802  Y29.2143 
G01 X9.2821  Y29.2715 
G01 X9.2821  Y31.7011 
G01 X9.3188  Y32.2371 
G01 X9.3919  Y32.7693 
G01 X9.5012  Y33.2952 
G01 X9.6461  Y33.8125 
G01 X9.8260  Y34.3187 
G01 X10.0401 Y34.8115 
G01 X10.2872 Y35.2884 
G01 X10.5663 Y35.7474 
G01 X10.8761 Y36.1863 
G01 X11.2152 Y36.6030 
G01 X11.5818 Y36.9956 
G01 X11.9745 Y37.3623 
G01 X12.3912 Y37.7013 
G01 X12.8301 Y38.0112 
G01 X13.2891 Y38.2903 
G01 X13.7660 Y38.5374 
G01 X14.2588 Y38.7514 
G01 X14.7650 Y38.9314 
G01 X15.2823 Y39.0763 
G01 X15.8082 Y39.1856 
G01 X16.3404 Y39.2587 
G01 X16.8764 Y39.2954 
G01 X38.5966 Y39.2954 
G01 X38.9529 Y39.2580 
G01 X39.3033 Y39.1835 
G01 X39.6440 Y39.0728 
G01 X39.9713 Y38.9270 
G01 X40.2816 Y38.7479 
G01 X40.5714 Y38.5374 
G01 X40.8376 Y38.2976 
G01 X41.0774 Y38.0314 
G01 X41.2879 Y37.7416 
G01 X41.4670 Y37.4313 
G01 X41.6128 Y37.1040 
G01 X41.7235 Y36.7633 
G01 X41.7980 Y36.4129 
G01 X41.8354 Y36.0566 
G01 X41.8354 Y20.4838 
G01 X41.7970 Y20.1184 
G01 X41.7206 Y19.7590 
G01 X41.6071 Y19.4095 
G01 X41.4576 Y19.0739 
G01 X41.2739 Y18.7557 
G01 X41.0579 Y18.4585 
G01 X40.8121 Y18.1854 
G01 X40.5390 Y17.9396 
G01 X40.2418 Y17.7236 
G01 X40.1404 Y17.6650 
G01 X40.1404 Y16.8816 
G01 X40.1192 Y16.8027 
G01 X40.0784 Y16.7319 
G01 X40.0206 Y16.6741 
G01 X39.9498 Y16.6333 
G01 X39.8709 Y16.6121 
G01 X36.7891 Y16.6121 
G01 X36.7102 Y16.6333 
G01 X36.6394 Y16.6741 
G01 X36.5816 Y16.7319 
G01 X36.5408 Y16.8027 
G01 X36.5196 Y16.8816 
G01 X36.5196 Y18.5634 
G01 X36.5408 Y18.6423 
G01 X36.5816 Y18.7131 
G01 X36.6394 Y18.7709 
G01 X36.7102 Y18.8117 
G01 X36.7891 Y18.8329 
G01 X39.8513 Y18.8329 
G01 X40.0162 Y18.9813 
G01 X40.1832 Y19.1668 
G01 X40.3299 Y19.3688 
G01 X40.4547 Y19.5849 
G01 X40.5562 Y19.8129 
G01 X40.6333 Y20.0503 
G01 X40.6852 Y20.2945 
G01 X40.7113 Y20.5427 
G01 X40.7146 Y20.6675 
G01 X40.7146 Y30.4971 
G01 X40.3154 Y30.4971 
G01 X40.3154 Y30.1216 
G01 X40.2942 Y30.0427 
G01 X40.2534 Y29.9719 
G01 X40.1956 Y29.9141 
G01 X40.1248 Y29.8733 
G01 X40.0459 Y29.8521 
G01 X38.0591 Y29.8521 
G01 X37.9802 Y29.8733 
G01 X37.9094 Y29.9141 
G01 X37.8516 Y29.9719 
G01 X37.8108 Y30.0427 
G01 X37.7896 Y30.1216 
G01 X37.7896 Y32.1084 
G01 X37.8108 Y32.1873 
G01 X37.8516 Y32.2581 
G01 X37.9094 Y32.3159 
G01 X37.9802 Y32.3567 
G01 X38.0591 Y32.3779 
G01 X40.0459 Y32.3779 
G01 X40.1248 Y32.3567 
G01 X40.1956 Y32.3159 
G01 X40.2534 Y32.2581 
G01 X40.2942 Y32.1873 
G01 X40.3154 Y32.1084 
G01 X40.3154 Y31.6179 
G01 X40.7146 Y31.6179 
G01 X40.7146 Y35.8775 
G01 X40.7115 Y35.9977 
G01 X40.6863 Y36.2368 
G01 X40.6363 Y36.4720 
G01 X40.5620 Y36.7007 
G01 X40.4642 Y36.9204 
G01 X40.3440 Y37.1286 
G01 X40.2027 Y37.3231 
G01 X40.0418 Y37.5018 
G01 X39.8631 Y37.6627 
G01 X39.6686 Y37.8040 
G01 X39.4604 Y37.9242 
G01 X39.2407 Y38.0220 
G01 X39.0120 Y38.0963 
G01 X38.7768 Y38.1463 
G01 X38.5377 Y38.1715 
G01 X38.4175 Y38.1746 
G01 X38.3465 Y38.1746 
G01 X38.5908 Y38.0570 
G01 X38.8554 Y37.8907 
G01 X39.0998 Y37.6958 
G01 X39.3208 Y37.4748 
G01 X39.5157 Y37.2304 
G01 X39.6820 Y36.9658 
G01 X39.7508 Y36.8229 
G01 X40.0459 Y36.8229 
G01 X40.1248 Y36.8017 
G01 X40.1956 Y36.7609 
G01 X40.2534 Y36.7031 
G01 X40.2942 Y36.6323 
G01 X40.3154 Y36.5534 
G01 X40.3154 Y34.5666 
G01 X40.2942 Y34.4877 
G01 X40.2534 Y34.4169 
G01 X40.1956 Y34.3591 
G01 X40.1248 Y34.3183 
G01 X40.0459 Y34.2971 
G01 X38.0591 Y34.2971 
G01 X37.9802 Y34.3183 
G01 X37.9094 Y34.3591 
G01 X37.8516 Y34.4169 
G01 X37.8108 Y34.4877 
G01 X37.7896 Y34.5666 
G01 X37.7896 Y36.3460 
G01 X37.7703 Y36.3614 
G01 X37.6837 Y36.4158 
G01 X37.5915 Y36.4602 
G01 X37.4950 Y36.4940 
G01 X37.3953 Y36.5167 
G01 X37.2936 Y36.5282 
G01 X37.2425 Y36.5296 
G01 X18.7325 Y36.5296 
G01 X18.6781 Y36.5281 
G01 X18.5701 Y36.5159 
G01 X18.4641 Y36.4917 
G01 X18.3615 Y36.4558 
G01 X18.2635 Y36.4086 
G01 X18.1714 Y36.3508 
G01 X18.0864 Y36.2830 
G01 X18.0095 Y36.2061 
G01 X17.9417 Y36.1211 
G01 X17.8839 Y36.0290 
G01 X17.8367 Y35.9310 
G01 X17.8008 Y35.8284 
G01 X17.7766 Y35.7224 
G01 X17.7644 Y35.6144 
G01 X17.7629 Y35.5600 
G01 X17.7629 Y27.0574 
G01 X18.3763 Y26.4441 
G01 X18.5066 Y26.3138 
G01 X18.6089 Y26.1606 
G01 X18.6794 Y25.9903 
G01 X18.7154 Y25.8096 
G01 X18.7154 Y21.1279 
G01 X18.6777 Y20.8413 
G01 X18.6028 Y20.5621 
G01 X18.4922 Y20.2950 
G01 X18.3477 Y20.0446 
G01 X18.1717 Y19.8153 
G01 X17.9672 Y19.6108 
G01 X17.7379 Y19.4348 
G01 X17.4875 Y19.2903 
G01 X17.2204 Y19.1797 
G01 X16.9412 Y19.1048 
G01 X16.6546 Y19.0671 
G01 X13.0556 Y19.0671 
G01 X10.4845 Y16.7816 
G01 X10.4388 Y16.7359 
G01 X10.4158 Y16.7206 
G01 X10.3951 Y16.7022 
G01 X10.3393 Y16.6695 
G01 X10.2856 Y16.6336 
G01 X10.2600 Y16.6230 
G01 X10.2361 Y16.6090 
G01 X10.1751 Y16.5878 
G01 X10.1153 Y16.5630 
G01 X10.0882 Y16.5576 
G01 X10.0621 Y16.5486 
G01 X9.9980  Y16.5397 
G01 X9.9346  Y16.5271 
G01 X9.9070  Y16.5271 
G01 X9.8795  Y16.5233 
G01 X9.8150  Y16.5271 
G01 X6.6504  Y16.5271 
G01 X6.6504  Y11.1164 
G01 X6.7446  Y11.0480 
G01 X6.9205  Y10.8721 
G01 X7.0667  Y10.6708 
G01 X7.1796  Y10.4492 
G01 X7.2565  Y10.2126 
G01 X7.2954  Y9.9669  
G01 X7.2954  Y9.7181  
G01 X7.2565  Y9.4724  
G01 X7.1796  Y9.2358  
G01 X7.0667  Y9.0142  
G01 X6.9205  Y8.8129  
G01 X6.7446  Y8.6370  
G01 X6.5433  Y8.4908  
G01 X6.3217  Y8.3779  
G01 X6.0851  Y8.3010  
G01 X5.8394  Y8.2621  
G01 X5.5906  Y8.2621  
G01 X5.3449  Y8.3010  
G01 X5.1083  Y8.3779  
G01 X4.8867  Y8.4908  
G01 X4.6854  Y8.6370  
G01 X4.5095  Y8.8129  
G01 X4.3633  Y9.0142  
G01 X4.2504  Y9.2358  
G01 X4.1735  Y9.4724  
G01 X4.1346  Y9.7181  
G01 X4.1346  Y9.9669  
G01 X4.1735  Y10.2126 
G01 X4.2504  Y10.4492 
G01 X4.3633  Y10.6708 
G01 X4.5095  Y10.8721 
G01 X4.6854  Y11.0480 
G01 X4.7796  Y11.1164 
G01 X4.7796  Y16.3901 
G01 X4.2336  Y16.3901 
G01 X4.0669  Y16.4165 
G01 X3.9063  Y16.4687 
G01 X3.7559  Y16.5453 
G01 X3.6194  Y16.6445 
G01 X3.5000  Y16.7639 
G01 X3.4008  Y16.9004 
G01 X3.3242  Y17.0508 
G01 X3.2720  Y17.2114 
G01 X3.2456  Y17.3781 
G01 X3.2456  Y17.5469 
G01 X3.2720  Y17.7136 
G01 X3.3242  Y17.8742 
G01 X3.4008  Y18.0246 
G01 X3.5000  Y18.1611 
G01 X3.6194  Y18.2805 
G01 X3.7559  Y18.3797 
G01 X3.9063  Y18.4563 
G01 X4.0669  Y18.5085 
G01 X4.2336  Y18.5349 
G01 X5.9264  Y18.5349 
G01 X6.0931  Y18.5085 
G01 X6.2537  Y18.4563 
G01 X6.3683  Y18.3979 
G01 X9.4869  Y18.3979 
G01 X12.0580 Y20.6834 
G01 X12.1037 Y20.7291 
G01 X12.1267 Y20.7444 
G01 X12.1474 Y20.7628 
G01 X12.2032 Y20.7955 
G01 X12.2569 Y20.8314 
G01 X12.2825 Y20.8420 
G01 X12.3064 Y20.8560 
G01 X12.3674 Y20.8772 
G01 X12.4272 Y20.9019 
G01 X12.4543 Y20.9074 
G01 X12.4804 Y20.9164 
G01 X12.5445 Y20.9253 
G01 X12.6079 Y20.9379 
G01 X12.6355 Y20.9379 
G01 X12.6630 Y20.9417 
G01 X12.7275 Y20.9379 
G01 X16.5100 Y20.9379 
G01 X16.5319 Y20.9386 
G01 X16.5753 Y20.9443 
G01 X16.6176 Y20.9557 
G01 X16.6580 Y20.9724 
G01 X16.6959 Y20.9943 
G01 X16.7306 Y21.0209 
G01 X16.7616 Y21.0519 
G01 X16.7882 Y21.0866 
G01 X16.8101 Y21.1245 
G01 X16.8268 Y21.1649 
G01 X16.8382 Y21.2072 
G01 X16.8439 Y21.2506 
G01 X16.8446 Y21.2725 
G01 X16.8446 Y25.3300 
G01 X16.2312 Y25.9434 
G01 X16.1009 Y26.0737 
G01 X15.9986 Y26.2269 
G01 X15.9280 Y26.3972 
G01 X15.8921 Y26.5779 
G01 X15.8921 Y30.1221 
G01 X15.5504 Y30.1221 
G01 X15.5292 Y30.0427 
G01 X15.4884 Y29.9719 
G01 X15.4306 Y29.9141 
G01 X15.3598 Y29.8733 
G01 X15.2809 Y29.8521 
G01 X13.2941 Y29.8521 
G01 X13.2152 Y29.8733 
G01 X13.1444 Y29.9141 
G01 X13.0866 Y29.9719 
G01 X13.0458 Y30.0427 
G01 X13.0246 Y30.1216 
G01 X13.0246 Y32.1084 
G01 X13.0458 Y32.1873 
G01 X13.0866 Y32.2581 
G01 X13.1444 Y32.3159 
G01 X13.2152 Y32.3567 
G01 X13.2941 Y32.3779 
G01 X15.2809 Y32.3779 
G01 X15.3598 Y32.3567 
G01 X15.4306 Y32.3159 
G01 X15.4884 Y32.2581 
G01 X15.5292 Y32.1873 
G01 X15.5504 Y32.1084 
G01 X15.5504 Y31.9929 
G01 X15.8921 Y31.9929 
G01 X15.8921 Y35.7195 
G01 X15.9278 Y36.0365 
G01 X15.9988 Y36.3476 
G01 X16.1042 Y36.6487 
G01 X16.2426 Y36.9361 
G01 X16.4123 Y37.2062 
G01 X16.6112 Y37.4557 
G01 X16.8368 Y37.6813 
G01 X17.0863 Y37.8802 
G01 X17.3564 Y38.0499 
G01 X17.6153 Y38.1746 
G01 X17.1450 Y38.1746 
G01 X16.9148 Y38.1707 
G01 X16.4555 Y38.1393 
G01 X15.9994 Y38.0766 
G01 X15.5487 Y37.9829 
G01 X15.1054 Y37.8587 
G01 X14.6716 Y37.7045 
G01 X14.2494 Y37.5211 
G01 X13.8406 Y37.3093 
G01 X13.4473 Y37.0701 
G01 X13.0712 Y36.8046 
G01 X12.7141 Y36.5141 
G01 X12.3776 Y36.1999 
G01 X12.0634 Y35.8634 
G01 X11.7729 Y35.5063 
G01 X11.5074 Y35.1302 
G01 X11.2682 Y34.7369 
G01 X11.0564 Y34.3281 
G01 X10.8730 Y33.9059 
G01 X10.7188 Y33.4721 
G01 X10.5946 Y33.0288 
G01 X10.5009 Y32.5781 
G01 X10.4382 Y32.1220 
G01 X10.4068 Y31.6627 
G01 X10.4029 Y31.4325 
G01 X10.4029 Y29.1407 
G01 X10.3688 Y28.8816 
G01 X10.3011 Y28.6290 
G01 X10.2329 Y28.4643 
G01 X10.2329 Y27.6666 
G01 X10.2117 Y27.5877 
G01 X10.1709 Y27.5169 
G01 X10.1131 Y27.4591 
G01 X10.0423 Y27.4183 
G01 X9.9634  Y27.3971 
G01 X9.8079  Y27.3971 
G01 X9.6989  Y27.1027 
G01 X9.5262  Y26.7423 
G01 X9.3210  Y26.3994 
G01 X9.0851  Y26.0768 
G01 X8.8204  Y25.7775 
G01 X8.5291  Y25.5038 
G01 X8.2139  Y25.2582 
G01 X7.8774  Y25.0426 
G01 X7.5224  Y24.8591 
G01 X7.1520  Y24.7091 
G01 X6.8016  Y24.6036 
G01 X6.7592  Y24.5204 
G01 X6.6600  Y24.3839 
G01 X6.5406  Y24.2645 
G01 X6.4041  Y24.1653 
G01 X6.2537  Y24.0887 
G01 X6.0931  Y24.0365 
G01 X5.9264  Y24.0101 
G01 X4.5740  Y24.0101 
G01 X4.5809  Y23.9432 
G01 X4.6117  Y23.8079 
G01 X4.6585  Y23.6772 
G01 X4.6898  Y23.6149 
G01 X5.9264  Y23.6149 
G01 X6.0931  Y23.5885 
G01 X6.2537  Y23.5363 
G01 X6.4041  Y23.4597 
G01 X6.5406  Y23.3605 
G01 X6.6600  Y23.2411 
G01 X6.7592  Y23.1046 
G01 X11.1871 Y23.1029 
G01 X11.1871 Y33.2755 
G01 X11.2207 Y33.5948 
G01 X11.2874 Y33.9088 
G01 X11.3866 Y34.2141 
G01 X11.5172 Y34.5074 
G01 X11.6777 Y34.7855 
G01 X11.8664 Y35.0452 
G01 X12.0812 Y35.2838 
G01 X12.3198 Y35.4986 
G01 X12.5795 Y35.6873 
G01 X12.8576 Y35.8478 
G01 X13.0246 Y35.9222 
G01 X13.0246 Y36.5534 
G01 X13.0458 Y36.6323 
G01 X13.0866 Y36.7031 
G01 X13.1444 Y36.7609 
G01 X13.2152 Y36.8017 
G01 X13.2941 Y36.8229 
G01 X15.2809 Y36.8229 
G01 X15.3598 Y36.8017 
G01 X15.4306 Y36.7609 
G01 X15.4884 Y36.7031 
G01 X15.5292 Y36.6323 
G01 X15.5504 Y36.5534 
G01 X15.5504 Y34.5666 
G01 X15.5292 Y34.4877 
G01 X15.4884 Y34.4169 
G01 X15.4306 Y34.3591 
G01 X15.3598 Y34.3183 
G01 X15.2809 Y34.2971 
G01 X13.2941 Y34.2971 
G01 X13.2152 Y34.3183 
G01 X13.1444 Y34.3591 
G01 X13.0866 Y34.4169 
G01 X13.0458 Y34.4877 
G01 X13.0246 Y34.5666 
G01 X13.0246 Y34.6214 
G01 X12.8767 Y34.4883 
G01 X12.7407 Y34.3372 
G01 X12.6212 Y34.1727 
G01 X12.5196 Y33.9967 
G01 X12.4369 Y33.8110 
G01 X12.3741 Y33.6177 
G01 X12.3318 Y33.4188 
G01 X12.3106 Y33.2166 
G01 X12.3079 Y33.1150 
G01 X12.3079 Y23.1029 
G01 X13.1996 Y23.1029 
G01 X13.1996 Y23.1234 
G01 X13.2208 Y23.2023 
G01 X13.2616 Y23.2731 
G01 X13.3194 Y23.3309 
G01 X13.3902 Y23.3717 
G01 X13.4691 Y23.3929 
G01 X16.5509 Y23.3929 
G01 X16.6298 Y23.3717 
G01 X16.7006 Y23.3309 
G01 X16.7584 Y23.2731 
G01 X16.7992 Y23.2023 
G01 X16.8204 Y23.1234 
G01 X16.8204 Y21.4416 
G01 X16.7992 Y21.3627 
G01 X16.7584 Y21.2919 
G01 X16.7006 Y21.2341 
G01 X16.6298 Y21.1933 
G01 X16.5509 Y21.1721 
G01 X13.4691 Y21.1721 
G01 X13.3902 Y21.1933 
G01 X13.3194 Y21.2341 
G01 X13.2616 Y21.2919 
G01 X13.2208 Y21.3627 
G01 X13.1996 Y21.4416 
G01 X13.1996 Y21.9821 
G01 X6.7600  Y21.9821 
G01 X6.6600  Y21.8439 
G01 X6.5406  Y21.7245 
G01 X6.4041  Y21.6253 
G01 X6.2537  Y21.5487 
G01 X6.0931  Y21.4965 
G01 X5.9264  Y21.4701 
G01 X4.2336  Y21.4701 
G01 X4.0669  Y21.4965 
G01 X3.9063  Y21.5487 
G01 X3.7559  Y21.6253 
G01 X3.6194  Y21.7245 
G01 X3.5397  Y21.8042 
G01 X3.5412  Y21.7999 
G01 X3.6360  Y21.5967 
G01 X3.7529  Y21.4054 
G01 X3.8906  Y21.2284 
G01 X4.0472  Y21.0680 
G01 X4.0704  Y21.0490 
G01 X4.2336  Y21.0749 
G01 X5.9264  Y21.0749 
G01 X6.0931  Y21.0485 
G01 X6.2537  Y20.9963 
G01 X6.4041  Y20.9197 
G01 X6.5406  Y20.8205 
G01 X6.6600  Y20.7011 
G01 X6.7592  Y20.5646 
G01 X6.8358  Y20.4142 
G01 X6.8880  Y20.2536 
G01 X6.9144  Y20.0869 
G01 X6.9144  Y19.9181 
G01 X6.8880  Y19.7514 
G01 X6.8358  Y19.5908 
G01 X6.7592  Y19.4404 
G01 X6.6600  Y19.3039 
G01 X6.5406  Y19.1845 
G01 X6.4041  Y19.0853 
G01 X6.2537  Y19.0087 
G01 X6.0931  Y18.9565 
G01 X5.9264  Y18.9301 
G01 X4.2336  Y18.9301 
G01 X4.0669  Y18.9565 
G01 X3.9063  Y19.0087 
G01 X3.8532  Y19.0357 
G01 X3.7944  Y19.0232 
G01 X3.6662  Y18.9816 
G01 X3.5432  Y18.9268 
G01 X3.4265  Y18.8595 
G01 X3.3175  Y18.7803 
G01 X3.2174  Y18.6901 
G01 X3.1272  Y18.5900 
G01 X3.0480  Y18.4810 
G01 X2.9807  Y18.3643 
G01 X2.9259  Y18.2413 
G01 X2.8843  Y18.1131 
G01 X2.8562  Y17.9813 
G01 X2.8422  Y17.8474 
G01 X2.8404  Y17.7800 
G01 X2.8404  Y8.5725  
G01 X2.8431  Y8.4471  
G01 X2.8650  Y8.1973  
G01 X2.9085  Y7.9503  
G01 X2.9734  Y7.7081  
G01 X3.0592  Y7.4724  
G01 X3.1652  Y7.2452  
G01 X3.2906  Y7.0280  
G01 X3.4344  Y6.8226  
G01 X3.5956  Y6.6304  
G01 X3.7729  Y6.4531  
G01 X3.9651  Y6.2919  
G01 X4.1705  Y6.1481  
G01 X4.3877  Y6.0227  
G01 X4.6149  Y5.9167  
G01 X4.6291  Y5.9116  
G01 X5.0604  Y6.3429  
G01 X6.3696  Y6.3429  
G01 X6.9515  Y5.7611  
G01 X7.0640  Y5.7862  
G01 X7.3304  Y5.8694  
G01 X7.5890  Y5.9744  
G01 X7.8381  Y6.1003  
G01 X8.0760  Y6.2464  
G01 X8.3010  Y6.4116  
G01 X8.5116  Y6.5948  
G01 X8.7063  Y6.7948  
G01 X8.8838  Y7.0102  
G01 X9.0430  Y7.2395  
G01 X9.1826  Y7.4812  
G01 X9.3019  Y7.7335  
G01 X9.3998  Y7.9949  
G01 X9.4759  Y8.2635  
G01 X9.5295  Y8.5374  
G01 X9.5421  Y8.6325  
G01 X9.5421  Y11.3741 
G01 X9.5231  Y11.5324 
G01 X9.5093  Y11.9629 
G01 X9.5330  Y12.3930 
G01 X9.5941  Y12.8193 
G01 X9.6921  Y13.2387 
G01 X9.8264  Y13.6480 
G01 X9.9957  Y14.0440 
G01 X10.1990 Y14.4238 
G01 X10.4346 Y14.7844 
G01 X10.7007 Y15.1231 
G01 X10.9953 Y15.4373 
G01 X11.3162 Y15.7246 
G01 X11.6609 Y15.9829 
G01 X12.0268 Y16.2101 
G01 X12.4111 Y16.4046 
G01 X12.8109 Y16.5649 
G01 X13.2232 Y16.6897 
G01 X13.2899 Y16.7037 
G01 X13.2616 Y16.7319 
G01 X13.2208 Y16.8027 
G01 X13.1996 Y16.8816 
G01 X13.1996 Y18.5634 
G01 X13.2208 Y18.6423 
G01 X13.2616 Y18.7131 
G01 X13.3194 Y18.7709 
G01 X13.3902 Y18.8117 
G01 X13.4691 Y18.8329 
G01 X16.5509 Y18.8329 
G01 X16.6298 Y18.8117 
G01 X16.7006 Y18.7709 
G01 X16.7584 Y18.7131 
G01 X16.7992 Y18.6423 
G01 X16.8204 Y18.5634 
G01 X16.8204 Y16.8816 
G01 X16.8013 Y16.8104 
G01 X34.2900 Y16.8104 
G01 X34.3119 Y16.8111 
G01 X34.3553 Y16.8168 
G01 X34.3976 Y16.8282 
G01 X34.4380 Y16.8449 
G01 X34.4759 Y16.8668 
G01 X34.5106 Y16.8934 
G01 X34.5416 Y16.9244 
G01 X34.5682 Y16.9591 
G01 X34.5901 Y16.9970 
G01 X34.6068 Y17.0374 
G01 X34.6182 Y17.0797 
G01 X34.6239 Y17.1231 
G01 X34.6246 Y17.1450 
G01 X34.6246 Y19.6945 
G01 X34.6603 Y20.0568 
G01 X34.7313 Y20.4139 
G01 X34.8370 Y20.7623 
G01 X34.9763 Y21.0987 
G01 X35.1479 Y21.4198 
G01 X35.3502 Y21.7225 
G01 X35.5812 Y22.0039 
G01 X35.8386 Y22.2613 
G01 X36.1200 Y22.4923 
G01 X36.4227 Y22.6946 
G01 X36.5196 Y22.7463 
G01 X36.5196 Y23.1234 
G01 X36.5408 Y23.2023 
G01 X36.5816 Y23.2731 
G01 X36.6394 Y23.3309 
G01 X36.7102 Y23.3717 
G01 X36.7891 Y23.3929 
G01 X39.8709 Y23.3929 
G01 X39.9498 Y23.3717 
G01 X40.0206 Y23.3309 
G01 X40.0784 Y23.2731 
G01 X40.1192 Y23.2023 
G01 X40.1404 Y23.1234 
G01 X40.1404 Y21.4416 
G01 X40.1192 Y21.3627 
G01 X40.0784 Y21.2919 
G01 X40.0206 Y21.2341 
G01 X39.9498 Y21.1933 
G01 X39.8709 Y21.1721 
G01 X37.5484 Y21.1721 
G01 X37.5456 Y21.1710 
G01 X37.3868 Y21.0861 
G01 X37.2371 Y20.9861 
G01 X37.0980 Y20.8718 
G01 X36.9706 Y20.7445 
G01 X36.8564 Y20.6054 
G01 X36.7564 Y20.4557 
G01 X36.6715 Y20.2969 
G01 X36.6026 Y20.1306 
G01 X36.5504 Y19.9583 
G01 X36.5153 Y19.7817 
G01 X36.4976 Y19.6025 
G01 X36.4954 Y19.5125 
G01 X36.4954 Y17.0004 
G01 X36.4577 Y16.7138 
G01 X36.3828 Y16.4346 
G01 X36.2722 Y16.1675 
G01 X36.1277 Y15.9171 
G01 X35.9517 Y15.6878 
G01 X35.7472 Y15.4833 
G01 X35.5179 Y15.3073 
G01 X35.2675 Y15.1628 
G01 X35.0004 Y15.0522 
G01 X34.7212 Y14.9773 
G01 X34.4346 Y14.9396 
G01 X14.0346 Y14.9396 
G01 X13.9492 Y14.9275 
G01 X13.6878 Y14.8726 
G01 X13.4321 Y14.7952 
G01 X13.1842 Y14.6959 
G01 X12.9459 Y14.5753 
G01 X12.7189 Y14.4343 
G01 X12.5052 Y14.2742 
G01 X12.3062 Y14.0960 
G01 X12.1235 Y13.9011 
G01 X11.9585 Y13.6911 
G01 X11.8124 Y13.4675 
G01 X11.6863 Y13.2320 
G01 X11.5813 Y12.9864 
G01 X11.4980 Y12.7326 
G01 X11.4372 Y12.4725 
G01 X11.3993 Y12.2081 
G01 X11.3846 Y11.9414 
G01 X11.3932 Y11.6744 
G01 X11.4035 Y11.5694 
G01 X11.4129 Y11.5221 
G01 X11.4129 Y11.4859 
G01 X11.4172 Y11.4500 
G01 X11.4129 Y11.3940 
G01 X11.4129 Y8.6126  
G01 X11.4174 Y8.5608  
G01 X11.4129 Y8.5207  
G01 X11.4129 Y8.4804  
G01 X11.4027 Y8.4293  
G01 X11.3832 Y8.2535  
G01 X11.2998 Y7.8274  
G01 X11.1815 Y7.4097  
G01 X11.0291 Y7.0033  
G01 X10.8437 Y6.6107  
G01 X10.6264 Y6.2349  
G01 X10.3789 Y5.8782  
G01 X10.1028 Y5.5432  
G01 X9.8000  Y5.2322  
G01 X9.4725  Y4.9472  
G01 X9.1226  Y4.6903  
G01 X8.7526  Y4.4631  
G01 X8.3652  Y4.2672  
G01 X7.9629  Y4.1040  
G01 X7.5485  Y3.9746  
G01 X7.1249  Y3.8799  
G01 X7.0582  Y3.8707  
G01 X6.3696  Y3.1821  
G01 X5.0604  Y3.1821  
G01 X4.1505  Y4.0920  
G01 X3.8973  Y4.1841  
G01 X3.5217  Y4.3593  
G01 X3.1629  Y4.5665  
G01 X2.8234  Y4.8041  
G01 X2.5060  Y5.0705  
G01 X2.2130  Y5.3635  
G00 Z1.0000  
G00 X3.4179  Y23.1281 
G01 Z-0.1000 F50    
G01 X3.5000  Y23.2411 F100   
G01 X3.5898  Y23.3309 
G01 X3.5318  Y23.4926 
G01 X3.4709  Y23.7604 
G01 X3.4427  Y24.0336 
G01 X3.4477  Y24.3082 
G01 X3.4650  Y24.4321 
G01 X3.4179  Y24.4969 
G01 X3.4179  Y23.1281 
G00 Z1.0000  
G00 X3.4179  Y25.6681 
G01 Z-0.1000 F50    
G01 X3.5000  Y25.7811 F100   
G01 X3.5671  Y25.8482 
G01 X3.5671  Y27.9233 
G01 X3.5969  Y28.0922 
G01 X3.6556  Y28.2534 
G01 X3.7371  Y28.3946 
G01 X3.7371  Y28.8480 
G01 X3.7022  Y28.8256 
G01 X3.6257  Y28.7593 
G01 X3.5594  Y28.6827 
G01 X3.5047  Y28.5976 
G01 X3.4626  Y28.5055 
G01 X3.4341  Y28.4083 
G01 X3.4197  Y28.3081 
G01 X3.4179  Y28.2575 
G01 X3.4179  Y25.6681 
G00 Z1.0000  
G00 X18.1666 Y26.7969 
G01 Z-0.1000 F50    
G01 X18.1258 Y26.8677 F100   
G01 X18.1046 Y26.9466 
G01 X18.1046 Y35.9184 
G01 X18.1258 Y35.9973 
G01 X18.1396 Y36.0213 
G01 X18.1396 Y36.0784 
G01 X18.1608 Y36.1573 
G01 X18.2016 Y36.2281 
G01 X18.2594 Y36.2859 
G01 X18.3302 Y36.3267 
G01 X18.4091 Y36.3479 
G01 X24.6909 Y36.3479 
G01 X24.7698 Y36.3267 
G01 X24.8406 Y36.2859 
G01 X24.8984 Y36.2281 
G01 X24.9216 Y36.1879 
G01 X26.0759 Y36.1879 
G01 X26.1548 Y36.1667 
G01 X26.2256 Y36.1259 
G01 X26.2834 Y36.0681 
G01 X26.3242 Y35.9973 
G01 X26.3454 Y35.9184 
G01 X26.3454 Y29.4866 
G01 X26.3242 Y29.4077 
G01 X26.2834 Y29.3369 
G01 X26.2256 Y29.2791 
G01 X26.1548 Y29.2383 
G01 X26.0759 Y29.2171 
G01 X23.8054 Y29.2171 
G01 X23.8054 Y27.2879 
G01 X24.3417 Y27.2879 
G01 X24.3540 Y27.3656 
G01 X24.4062 Y27.5262 
G01 X24.4828 Y27.6766 
G01 X24.5820 Y27.8131 
G01 X24.7014 Y27.9325 
G01 X24.8379 Y28.0317 
G01 X24.9883 Y28.1083 
G01 X25.1489 Y28.1605 
G01 X25.3156 Y28.1869 
G01 X25.4844 Y28.1869 
G01 X25.6511 Y28.1605 
G01 X25.8117 Y28.1083 
G01 X25.9621 Y28.0317 
G01 X26.0986 Y27.9325 
G01 X26.2180 Y27.8131 
G01 X26.3172 Y27.6766 
G01 X26.3938 Y27.5262 
G01 X26.4460 Y27.3656 
G01 X26.4724 Y27.1989 
G01 X26.4724 Y25.5061 
G01 X26.4460 Y25.3394 
G01 X26.3938 Y25.1788 
G01 X26.3172 Y25.0284 
G01 X26.2180 Y24.8919 
G01 X26.0986 Y24.7725 
G01 X25.9621 Y24.6733 
G01 X25.8117 Y24.5967 
G01 X25.6511 Y24.5445 
G01 X25.4844 Y24.5181 
G01 X25.3156 Y24.5181 
G01 X25.1489 Y24.5445 
G01 X24.9883 Y24.5967 
G01 X24.8379 Y24.6733 
G01 X24.7014 Y24.7725 
G01 X24.5820 Y24.8919 
G01 X24.4828 Y25.0284 
G01 X24.4062 Y25.1788 
G01 X24.3540 Y25.3394 
G01 X24.3417 Y25.4171 
G01 X23.8054 Y25.4171 
G01 X23.8054 Y24.1229 
G01 X26.0759 Y24.1229 
G01 X26.1548 Y24.1017 
G01 X26.2256 Y24.0609 
G01 X26.2834 Y24.0031 
G01 X26.3242 Y23.9323 
G01 X26.3454 Y23.8534 
G01 X26.3454 Y17.4216 
G01 X26.3242 Y17.3427 
G01 X26.2834 Y17.2719 
G01 X26.2256 Y17.2141 
G01 X26.1548 Y17.1733 
G01 X26.0759 Y17.1521 
G01 X19.0091 Y17.1521 
G01 X18.9302 Y17.1733 
G01 X18.8594 Y17.2141 
G01 X18.8016 Y17.2719 
G01 X18.7608 Y17.3427 
G01 X18.7396 Y17.4216 
G01 X18.7396 Y26.6771 
G01 X18.3741 Y26.6771 
G01 X18.2952 Y26.6983 
G01 X18.2244 Y26.7391 
G01 X18.1666 Y26.7969 
G00 Z1.0000  
G00 X26.8676 Y27.1989 
G01 Z-0.1000 F50    
G01 X26.8940 Y27.3656 F100   
G01 X26.9462 Y27.5262 
G01 X27.0228 Y27.6766 
G01 X27.1220 Y27.8131 
G01 X27.2414 Y27.9325 
G01 X27.3779 Y28.0317 
G01 X27.5283 Y28.1083 
G01 X27.6889 Y28.1605 
G01 X27.8556 Y28.1869 
G01 X28.0244 Y28.1869 
G01 X28.1911 Y28.1605 
G01 X28.3517 Y28.1083 
G01 X28.5021 Y28.0317 
G01 X28.6386 Y27.9325 
G01 X28.7580 Y27.8131 
G01 X28.8572 Y27.6766 
G01 X28.9338 Y27.5262 
G01 X28.9860 Y27.3656 
G01 X28.9983 Y27.2879 
G01 X29.5346 Y27.2879 
G01 X29.5346 Y29.2171 
G01 X27.2641 Y29.2171 
G01 X27.1852 Y29.2383 
G01 X27.1144 Y29.2791 
G01 X27.0566 Y29.3369 
G01 X27.0158 Y29.4077 
G01 X26.9946 Y29.4866 
G01 X26.9946 Y35.9184 
G01 X27.0158 Y35.9973 
G01 X27.0566 Y36.0681 
G01 X27.1144 Y36.1259 
G01 X27.1852 Y36.1667 
G01 X27.2641 Y36.1879 
G01 X28.4184 Y36.1879 
G01 X28.4416 Y36.2281 
G01 X28.4994 Y36.2859 
G01 X28.5702 Y36.3267 
G01 X28.6491 Y36.3479 
G01 X34.9309 Y36.3479 
G01 X35.0098 Y36.3267 
G01 X35.0806 Y36.2859 
G01 X35.1384 Y36.2281 
G01 X35.1792 Y36.1573 
G01 X35.2004 Y36.0784 
G01 X35.2004 Y36.0213 
G01 X35.2142 Y35.9973 
G01 X35.2354 Y35.9184 
G01 X35.2354 Y26.9466 
G01 X35.2142 Y26.8677 
G01 X35.1734 Y26.7969 
G01 X35.1156 Y26.7391 
G01 X35.0448 Y26.6983 
G01 X34.9659 Y26.6771 
G01 X34.6004 Y26.6771 
G01 X34.6004 Y17.4216 
G01 X34.5792 Y17.3427 
G01 X34.5384 Y17.2719 
G01 X34.4806 Y17.2141 
G01 X34.4098 Y17.1733 
G01 X34.3309 Y17.1521 
G01 X26.6291 Y17.1521 
G01 X26.5502 Y17.1733 
G01 X26.4794 Y17.2141 
G01 X26.4216 Y17.2719 
G01 X26.3808 Y17.3427 
G01 X26.3596 Y17.4216 
G01 X26.3596 Y23.8534 
G01 X26.3808 Y23.9323 
G01 X26.4216 Y24.0031 
G01 X26.4794 Y24.0609 
G01 X26.5502 Y24.1017 
G01 X26.6291 Y24.1229 
G01 X29.5346 Y24.1229 
G01 X29.5346 Y25.4171 
G01 X28.9983 Y25.4171 
G01 X28.9860 Y25.3394 
G01 X28.9338 Y25.1788 
G01 X28.8572 Y25.0284 
G01 X28.7580 Y24.8919 
G01 X28.6386 Y24.7725 
G01 X28.5021 Y24.6733 
G01 X28.3517 Y24.5967 
G01 X28.1911 Y24.5445 
G01 X28.0244 Y24.5181 
G01 X27.8556 Y24.5181 
G01 X27.6889 Y24.5445 
G01 X27.5283 Y24.5967 
G01 X27.3779 Y24.6733 
G01 X27.2414 Y24.7725 
G01 X27.1220 Y24.8919 
G01 X27.0228 Y25.0284 
G01 X26.9462 Y25.1788 
G01 X26.8940 Y25.3394 
G01 X26.8676 Y25.5061 
G01 X26.8676 Y27.1989 
G00 Z1.0000  
G00 X2.1392  Y5.2959  
G01 Z-0.1000 F50    
G01 X2.1392  Y5.2959  F100   
G01 X1.8672  Y5.6200  
G01 X1.6245  Y5.9666  
G01 X1.4130  Y6.3330  
G01 X1.2342  Y6.7165  
G01 X1.0895  Y7.1141  
G01 X0.9799  Y7.5228  
G01 X0.9065  Y7.9394  
G01 X0.8696  Y8.3609  
G01 X0.8696  Y17.9507 
G01 X0.9053  Y18.2903 
G01 X0.9763  Y18.6244 
G01 X1.0818  Y18.9491 
G01 X1.2207  Y19.2611 
G01 X1.3914  Y19.5568 
G01 X1.5922  Y19.8331 
G01 X1.8207  Y20.0868 
G01 X2.0744  Y20.3153 
G01 X2.3507  Y20.5161 
G01 X2.6464  Y20.6868 
G01 X2.7375  Y20.7273 
G01 X2.6592  Y20.8397 
G01 X2.4962  Y21.1353 
G01 X2.3650  Y21.4462 
G01 X2.2670  Y21.7692 
G01 X2.2033  Y22.1007 
G01 X2.1746  Y22.4370 
G01 X2.1813  Y22.7745 
G01 X2.1971  Y22.9011 
G01 X2.1971  Y28.3956 
G01 X2.2364  Y28.6689 
G01 X2.3142  Y28.9338 
G01 X2.4289  Y29.1850 
G01 X2.5782  Y29.4173 
G01 X2.7590  Y29.6260 
G01 X2.9677  Y29.8068 
G01 X3.2000  Y29.9561 
G01 X3.4512  Y30.0708 
G01 X3.7161  Y30.1486 
G01 X3.9894  Y30.1879 
G01 X5.5164  Y30.1879 
G01 X5.7512  Y30.1507 
G01 X5.9773  Y30.0772 
G01 X6.1891  Y29.9693 
G01 X6.3815  Y29.8296 
G01 X6.5496  Y29.6615 
G01 X6.6893  Y29.4691 
G01 X6.7972  Y29.2573 
G01 X6.8109  Y29.2154 
G01 X6.9059  Y29.1899 
G01 X6.9850  Y29.1443 
G01 X7.0641  Y29.1899 
G01 X7.1685  Y29.2179 
G01 X8.2765  Y29.2179 
G01 X8.3809  Y29.1899 
G01 X8.4745  Y29.1359 
G01 X8.5509  Y29.0595 
G01 X8.5725  Y29.0221 
G01 X8.5941  Y29.0595 
G01 X8.6705  Y29.1359 
G01 X8.7641  Y29.1899 
G01 X8.8685  Y29.2179 
G01 X9.1801  Y29.2179 
G01 X9.1804  Y29.2209 
G01 X9.1821  Y29.2715 
G01 X9.1821  Y31.7045 
G01 X9.2192  Y32.2473 
G01 X9.2933  Y32.7863 
G01 X9.4040  Y33.3189 
G01 X9.5508  Y33.8428 
G01 X9.7330  Y34.3554 
G01 X9.9497  Y34.8544 
G01 X10.2000 Y35.3375 
G01 X10.4827 Y35.8023 
G01 X10.7964 Y36.2468 
G01 X11.1398 Y36.6688 
G01 X11.5111 Y37.0664 
G01 X11.9087 Y37.4377 
G01 X12.3307 Y37.7811 
G01 X12.7752 Y38.0948 
G01 X13.2400 Y38.3775 
G01 X13.7231 Y38.6278 
G01 X14.2221 Y38.8445 
G01 X14.7347 Y39.0267 
G01 X15.2586 Y39.1735 
G01 X15.7912 Y39.2842 
G01 X16.3302 Y39.3583 
G01 X16.8730 Y39.3954 
G01 X38.6019 Y39.3954 
G01 X38.9686 Y39.3569 
G01 X39.3292 Y39.2802 
G01 X39.6799 Y39.1662 
G01 X40.0168 Y39.0163 
G01 X40.3361 Y38.8319 
G01 X40.6344 Y38.6152 
G01 X40.9084 Y38.3684 
G01 X41.1552 Y38.0944 
G01 X41.3719 Y37.7961 
G01 X41.5563 Y37.4768 
G01 X41.7062 Y37.1399 
G01 X41.8202 Y36.7892 
G01 X41.8969 Y36.4286 
G01 X41.9354 Y36.0619 
G01 X41.9354 Y20.4785 
G01 X41.8959 Y20.1027 
G01 X41.8173 Y19.7331 
G01 X41.7005 Y19.3737 
G01 X41.5468 Y19.0284 
G01 X41.3579 Y18.7012 
G01 X41.1358 Y18.3954 
G01 X40.8829 Y18.1146 
G01 X40.6021 Y17.8617 
G01 X40.2963 Y17.6396 
G01 X40.2404 Y17.6073 
G01 X40.2404 Y16.8685 
G01 X40.2124 Y16.7641 
G01 X40.1584 Y16.6705 
G01 X40.0820 Y16.5941 
G01 X39.9884 Y16.5401 
G01 X39.8840 Y16.5121 
G01 X36.7760 Y16.5121 
G01 X36.6716 Y16.5401 
G01 X36.5780 Y16.5941 
G01 X36.5384 Y16.6337 
G01 X36.4950 Y16.4579 
G01 X36.3961 Y16.1971 
G01 X36.2665 Y15.9501 
G01 X36.1081 Y15.7206 
G01 X35.9231 Y15.5119 
G01 X35.7144 Y15.3269 
G01 X35.4849 Y15.1685 
G01 X35.2379 Y15.0389 
G01 X34.9771 Y14.9400 
G01 X34.7063 Y14.8732 
G01 X34.4295 Y14.8396 
G01 X14.0415 Y14.8396 
G01 X13.9654 Y14.8288 
G01 X13.7125 Y14.7758 
G01 X13.4652 Y14.7009 
G01 X13.2254 Y14.6048 
G01 X12.9949 Y14.4881 
G01 X12.7754 Y14.3518 
G01 X12.5686 Y14.1968 
G01 X12.3761 Y14.0245 
G01 X12.1993 Y13.8360 
G01 X12.0397 Y13.6328 
G01 X11.8984 Y13.4165 
G01 X11.7765 Y13.1887 
G01 X11.6748 Y12.9511 
G01 X11.5943 Y12.7056 
G01 X11.5355 Y12.4540 
G01 X11.4988 Y12.1982 
G01 X11.4846 Y11.9402 
G01 X11.4929 Y11.6820 
G01 X11.5043 Y11.5657 
G01 X11.5129 Y11.5115 
G01 X11.5129 Y11.4919 
G01 X11.5152 Y11.4725 
G01 X11.5129 Y11.4105 
G01 X11.5129 Y8.5965  
G01 X11.5156 Y8.5391  
G01 X11.5129 Y8.5152  
G01 X11.5129 Y8.4910  
G01 X11.5039 Y8.4343  
G01 X11.4821 Y8.2383  
G01 X11.3971 Y7.8042  
G01 X11.2766 Y7.3785  
G01 X11.1213 Y6.9643  
G01 X10.9323 Y6.5643  
G01 X10.7110 Y6.1812  
G01 X10.4587 Y5.8178  
G01 X10.1773 Y5.4764  
G01 X9.8687  Y5.1595  
G01 X9.5350  Y4.8691  
G01 X9.1784  Y4.6072  
G01 X8.8014  Y4.3757  
G01 X8.4066  Y4.1761  
G01 X7.9967  Y4.0098  
G01 X7.5744  Y3.8779  
G01 X7.1427  Y3.7814  
G01 X7.1051  Y3.7762  
G01 X6.4110  Y3.0821  
G01 X5.0190  Y3.0821  
G01 X4.0955  Y4.0056  
G01 X3.8590  Y4.0917  
G01 X3.4755  Y4.2705  
G01 X3.1091  Y4.4820  
G01 X2.7625  Y4.7247  
G01 X2.4384  Y4.9967  
G01 X2.1392  Y5.2959  
G00 Z1.0000  
G00 X3.8405  Y6.5268  
G01 Z-0.1000 F50    
G01 X4.0259  Y6.3713  F100   
G01 X4.2242  Y6.2324  
G01 X4.4338  Y6.1114  
G01 X4.6068  Y6.0307  
G01 X5.0190  Y6.4429  
G01 X6.4110  Y6.4429  
G01 X6.9834  Y5.8706  
G01 X7.0381  Y5.8828  
G01 X7.2967  Y5.9636  
G01 X7.5477  Y6.0654  
G01 X7.7894  Y6.1876  
G01 X8.0202  Y6.3293  
G01 X8.2385  Y6.4897  
G01 X8.4429  Y6.6675  
G01 X8.6318  Y6.8615  
G01 X8.8041  Y7.0705  
G01 X8.9585  Y7.2931  
G01 X9.0941  Y7.5276  
G01 X9.2098  Y7.7725  
G01 X9.3048  Y8.0261  
G01 X9.3787  Y8.2867  
G01 X9.4307  Y8.5525  
G01 X9.4421  Y8.6389  
G01 X9.4421  Y11.3681 
G01 X9.4233  Y11.5248 
G01 X9.4092  Y11.9640 
G01 X9.4334  Y12.4028 
G01 X9.4957  Y12.8378 
G01 X9.5958  Y13.2658 
G01 X9.7327  Y13.6833 
G01 X9.9055  Y14.0874 
G01 X10.1129 Y14.4748 
G01 X10.3533 Y14.8427 
G01 X10.6248 Y15.1883 
G01 X10.9253 Y15.5089 
G01 X11.2527 Y15.8020 
G01 X11.6044 Y16.0655 
G01 X11.9777 Y16.2974 
G01 X12.3699 Y16.4958 
G01 X12.7778 Y16.6593 
G01 X13.1273 Y16.7651 
G01 X13.0996 Y16.8685 
G01 X13.0996 Y18.5765 
G01 X13.1276 Y18.6809 
G01 X13.1816 Y18.7745 
G01 X13.2580 Y18.8509 
G01 X13.3516 Y18.9049 
G01 X13.4560 Y18.9329 
G01 X16.5640 Y18.9329 
G01 X16.6684 Y18.9049 
G01 X16.7620 Y18.8509 
G01 X16.8384 Y18.7745 
G01 X16.8924 Y18.6809 
G01 X16.9204 Y18.5765 
G01 X16.9204 Y16.9104 
G01 X34.2900 Y16.9104 
G01 X34.3042 Y16.9108 
G01 X34.3323 Y16.9142 
G01 X34.3598 Y16.9210 
G01 X34.3863 Y16.9311 
G01 X34.4114 Y16.9442 
G01 X34.4347 Y16.9603 
G01 X34.4559 Y16.9791 
G01 X34.4747 Y17.0003 
G01 X34.4908 Y17.0236 
G01 X34.5039 Y17.0487 
G01 X34.5140 Y17.0752 
G01 X34.5208 Y17.1027 
G01 X34.5233 Y17.1233 
G01 X34.4484 Y17.0801 
G01 X34.3440 Y17.0521 
G01 X26.6160 Y17.0521 
G01 X26.5116 Y17.0801 
G01 X26.4180 Y17.1341 
G01 X26.3525 Y17.1996 
G01 X26.2870 Y17.1341 
G01 X26.1934 Y17.0801 
G01 X26.0890 Y17.0521 
G01 X18.9960 Y17.0521 
G01 X18.8916 Y17.0801 
G01 X18.7980 Y17.1341 
G01 X18.7216 Y17.2105 
G01 X18.6676 Y17.3041 
G01 X18.6396 Y17.4085 
G01 X18.6396 Y20.3865 
G01 X18.6161 Y20.3246 
G01 X18.4865 Y20.0776 
G01 X18.3281 Y19.8481 
G01 X18.1431 Y19.6394 
G01 X17.9344 Y19.4544 
G01 X17.7049 Y19.2960 
G01 X17.4579 Y19.1664 
G01 X17.1971 Y19.0675 
G01 X16.9263 Y19.0007 
G01 X16.6495 Y18.9671 
G01 X13.0937 Y18.9671 
G01 X10.5531 Y16.7088 
G01 X10.5170 Y16.6727 
G01 X10.4923 Y16.6548 
G01 X10.4695 Y16.6345 
G01 X10.4265 Y16.6070 
G01 X10.3852 Y16.5769 
G01 X10.3580 Y16.5631 
G01 X10.3322 Y16.5466 
G01 X10.2854 Y16.5261 
G01 X10.2400 Y16.5030 
G01 X10.2109 Y16.4935 
G01 X10.1829 Y16.4813 
G01 X10.1335 Y16.4684 
G01 X10.0850 Y16.4526 
G01 X10.0548 Y16.4478 
G01 X10.0252 Y16.4401 
G01 X9.9744  Y16.4351 
G01 X9.9240  Y16.4271 
G01 X9.8934  Y16.4271 
G01 X9.8630  Y16.4241 
G01 X9.8121  Y16.4271 
G01 X6.7504  Y16.4271 
G01 X6.7504  Y11.1661 
G01 X6.8253  Y11.1086 
G01 X6.9811  Y10.9528 
G01 X7.1152  Y10.7781 
G01 X7.2253  Y10.5873 
G01 X7.3096  Y10.3838 
G01 X7.3666  Y10.1710 
G01 X7.3954  Y9.9526  
G01 X7.3954  Y9.7324  
G01 X7.3666  Y9.5140  
G01 X7.3096  Y9.3012  
G01 X7.2253  Y9.0977  
G01 X7.1152  Y8.9069  
G01 X6.9811  Y8.7322  
G01 X6.8253  Y8.5764  
G01 X6.6506  Y8.4423  
G01 X6.4598  Y8.3322  
G01 X6.2563  Y8.2479  
G01 X6.0435  Y8.1909  
G01 X5.8251  Y8.1621  
G01 X5.6049  Y8.1621  
G01 X5.3865  Y8.1909  
G01 X5.1737  Y8.2479  
G01 X4.9702  Y8.3322  
G01 X4.7794  Y8.4423  
G01 X4.6047  Y8.5764  
G01 X4.4489  Y8.7322  
G01 X4.3148  Y8.9069  
G01 X4.2047  Y9.0977  
G01 X4.1204  Y9.3012  
G01 X4.0634  Y9.5140  
G01 X4.0346  Y9.7324  
G01 X4.0346  Y9.9526  
G01 X4.0634  Y10.1710 
G01 X4.1204  Y10.3838 
G01 X4.2047  Y10.5873 
G01 X4.3148  Y10.7781 
G01 X4.4489  Y10.9528 
G01 X4.6047  Y11.1086 
G01 X4.6796  Y11.1661 
G01 X4.6796  Y16.2901 
G01 X4.2257  Y16.2901 
G01 X4.0435  Y16.3190 
G01 X3.8680  Y16.3760 
G01 X3.7035  Y16.4598 
G01 X3.5542  Y16.5682 
G01 X3.4237  Y16.6987 
G01 X3.3153  Y16.8480 
G01 X3.2315  Y17.0125 
G01 X3.1745  Y17.1880 
G01 X3.1456  Y17.3702 
G01 X3.1456  Y17.5548 
G01 X3.1745  Y17.7370 
G01 X3.2315  Y17.9125 
G01 X3.3153  Y18.0770 
G01 X3.4237  Y18.2263 
G01 X3.5542  Y18.3568 
G01 X3.7035  Y18.4652 
G01 X3.8680  Y18.5490 
G01 X4.0435  Y18.6060 
G01 X4.2257  Y18.6349 
G01 X5.9343  Y18.6349 
G01 X6.1165  Y18.6060 
G01 X6.2920  Y18.5490 
G01 X6.3923  Y18.4979 
G01 X9.4488  Y18.4979 
G01 X11.9894 Y20.7562 
G01 X12.0255 Y20.7923 
G01 X12.0502 Y20.8102 
G01 X12.0730 Y20.8305 
G01 X12.1160 Y20.8580 
G01 X12.1573 Y20.8880 
G01 X12.1845 Y20.9019 
G01 X12.2103 Y20.9184 
G01 X12.2571 Y20.9389 
G01 X12.3025 Y20.9620 
G01 X12.3316 Y20.9715 
G01 X12.3596 Y20.9837 
G01 X12.4090 Y20.9966 
G01 X12.4575 Y21.0124 
G01 X12.4877 Y21.0172 
G01 X12.5173 Y21.0249 
G01 X12.5681 Y21.0299 
G01 X12.6185 Y21.0379 
G01 X12.6491 Y21.0379 
G01 X12.6794 Y21.0409 
G01 X12.7304 Y21.0379 
G01 X16.5100 Y21.0379 
G01 X16.5242 Y21.0383 
G01 X16.5523 Y21.0417 
G01 X16.5798 Y21.0485 
G01 X16.6063 Y21.0586 
G01 X16.6314 Y21.0717 
G01 X16.6547 Y21.0878 
G01 X16.6687 Y21.1002 
G01 X16.5640 Y21.0721 
G01 X13.4560 Y21.0721 
G01 X13.3516 Y21.1001 
G01 X13.2580 Y21.1541 
G01 X13.1816 Y21.2305 
G01 X13.1276 Y21.3241 
G01 X13.0996 Y21.4285 
G01 X13.0996 Y21.8821 
G01 X6.8114  Y21.8821 
G01 X6.7363  Y21.7787 
G01 X6.6058  Y21.6482 
G01 X6.4565  Y21.5398 
G01 X6.2920  Y21.4560 
G01 X6.1165  Y21.3990 
G01 X5.9343  Y21.3701 
G01 X4.2257  Y21.3701 
G01 X4.0435  Y21.3990 
G01 X3.8680  Y21.4560 
G01 X3.8289  Y21.4759 
G01 X3.8982  Y21.3764 
G01 X4.0283  Y21.2261 
G01 X4.1036  Y21.1556 
G01 X4.2257  Y21.1749 
G01 X5.9343  Y21.1749 
G01 X6.1165  Y21.1460 
G01 X6.2920  Y21.0890 
G01 X6.4565  Y21.0052 
G01 X6.6058  Y20.8968 
G01 X6.7363  Y20.7663 
G01 X6.8447  Y20.6170 
G01 X6.9285  Y20.4525 
G01 X6.9855  Y20.2770 
G01 X7.0144  Y20.0948 
G01 X7.0144  Y19.9102 
G01 X6.9855  Y19.7280 
G01 X6.9285  Y19.5525 
G01 X6.8447  Y19.3880 
G01 X6.7363  Y19.2387 
G01 X6.6058  Y19.1082 
G01 X6.4565  Y18.9998 
G01 X6.2920  Y18.9160 
G01 X6.1165  Y18.8590 
G01 X5.9343  Y18.8301 
G01 X4.2257  Y18.8301 
G01 X4.0435  Y18.8590 
G01 X3.8680  Y18.9160 
G01 X3.8392  Y18.9307 
G01 X3.8203  Y18.9266 
G01 X3.7021  Y18.8883 
G01 X3.5886  Y18.8377 
G01 X3.4810  Y18.7756 
G01 X3.3804  Y18.7025 
G01 X3.2881  Y18.6194 
G01 X3.2049  Y18.5271 
G01 X3.1319  Y18.4265 
G01 X3.0698  Y18.3189 
G01 X3.0192  Y18.2054 
G01 X2.9808  Y18.0872 
G01 X2.9550  Y17.9657 
G01 X2.9420  Y17.8421 
G01 X2.9404  Y17.7800 
G01 X2.9404  Y8.5725  
G01 X2.9430  Y8.4515  
G01 X2.9641  Y8.2103  
G01 X3.0062  Y7.9720  
G01 X3.0688  Y7.7382  
G01 X3.1516  Y7.5107  
G01 X3.2539  Y7.2913  
G01 X3.3749  Y7.0817  
G01 X3.5138  Y6.8834  
G01 X3.6693  Y6.6980  
G01 X3.8405  Y6.5268  
G00 Z1.0000  
G00 X4.7513  Y23.7149 
G01 Z-0.1000 F50    
G01 X5.9343  Y23.7149 F100   
G01 X6.1165  Y23.6860 
G01 X6.2920  Y23.6290 
G01 X6.4565  Y23.5452 
G01 X6.6058  Y23.4368 
G01 X6.7363  Y23.3063 
G01 X6.8114  Y23.2029 
G01 X11.0871 Y23.2029 
G01 X11.0871 Y33.2808 
G01 X11.1218 Y33.6105 
G01 X11.1907 Y33.9347 
G01 X11.2931 Y34.2500 
G01 X11.4280 Y34.5529 
G01 X11.5937 Y34.8400 
G01 X11.7886 Y35.1082 
G01 X12.0104 Y35.3546 
G01 X12.2568 Y35.5764 
G01 X12.5250 Y35.7713 
G01 X12.8121 Y35.9370 
G01 X12.9246 Y35.9871 
G01 X12.9246 Y36.5566 
G01 X12.7798 Y36.4387 
G01 X12.4483 Y36.1292 
G01 X12.1388 Y35.7977 
G01 X11.8525 Y35.4459 
G01 X11.5910 Y35.0754 
G01 X11.3553 Y34.6879 
G01 X11.1467 Y34.2852 
G01 X10.9660 Y33.8692 
G01 X10.8141 Y33.4418 
G01 X10.6918 Y33.0051 
G01 X10.5995 Y32.5611 
G01 X10.5377 Y32.1118 
G01 X10.5068 Y31.6593 
G01 X10.5029 Y31.4325 
G01 X10.5029 Y29.1342 
G01 X10.4671 Y28.8620 
G01 X10.3960 Y28.5968 
G01 X10.3329 Y28.4445 
G01 X10.3329 Y27.6535 
G01 X10.3049 Y27.5491 
G01 X10.2509 Y27.4555 
G01 X10.1745 Y27.3791 
G01 X10.0809 Y27.3251 
G01 X9.9765  Y27.2971 
G01 X9.8775  Y27.2971 
G01 X9.7911  Y27.0636 
G01 X9.6144  Y26.6949 
G01 X9.4045  Y26.3440 
G01 X9.1630  Y26.0141 
G01 X8.8922  Y25.7078 
G01 X8.5943  Y25.4277 
G01 X8.2717  Y25.1764 
G01 X7.9274  Y24.9559 
G01 X7.5642  Y24.7682 
G01 X7.1852  Y24.6147 
G01 X6.8713  Y24.5202 
G01 X6.8447  Y24.4680 
G01 X6.7363  Y24.3187 
G01 X6.6058  Y24.1882 
G01 X6.4565  Y24.0798 
G01 X6.2920  Y23.9960 
G01 X6.1165  Y23.9390 
G01 X5.9343  Y23.9101 
G01 X4.6908  Y23.9101 
G01 X4.7077  Y23.8359 
G01 X4.7505  Y23.7166 
G00 Z1.0000  
G00 X4.7879  Y26.2549 
G01 Z-0.1000 F50    
G01 X5.9343  Y26.2549 F100   
G01 X6.1165  Y26.2260 
G01 X6.2920  Y26.1690 
G01 X6.4565  Y26.0852 
G01 X6.6058  Y25.9768 
G01 X6.7239  Y25.8586 
G01 X6.7450  Y25.8650 
G01 X7.0105  Y25.9725 
G01 X7.2649  Y26.1040 
G01 X7.5061  Y26.2585 
G01 X7.7321  Y26.4346 
G01 X7.9408  Y26.6307 
G01 X8.1305  Y26.8453 
G01 X8.2997  Y27.0765 
G01 X8.4468  Y27.3223 
G01 X8.4738  Y27.3787 
G01 X8.3809  Y27.3251 
G01 X8.2765  Y27.2971 
G01 X7.1685  Y27.2971 
G01 X7.0641  Y27.3251 
G01 X6.9850  Y27.3707 
G01 X6.9059  Y27.3251 
G01 X6.8015  Y27.2971 
G01 X5.6935  Y27.2971 
G01 X5.5891  Y27.3251 
G01 X5.4955  Y27.3791 
G01 X5.4191  Y27.4555 
G01 X5.3975  Y27.4929 
G01 X5.3759  Y27.4555 
G01 X5.2995  Y27.3791 
G01 X5.2059  Y27.3251 
G01 X5.1015  Y27.2971 
G01 X4.7879  Y27.2971 
G01 X4.7879  Y26.2549 
G00 Z1.0000  
G00 X3.5179  Y28.1676 
G01 Z-0.1000 F50    
G01 X3.5646  Y28.2958 F100   
G01 X3.6371  Y28.4214 
G01 X3.6371  Y28.6191 
G01 X3.5925  Y28.5496 
G01 X3.5563  Y28.4705 
G01 X3.5318  Y28.3871 
G01 X3.5194  Y28.3010 
G01 X3.5179  Y28.2575 
G01 X3.5179  Y28.1925 
G01 X3.5179  Y28.1676 
G00 Z1.0000  
G00 X13.0066 Y29.9105 
G01 Z-0.1000 F50    
G01 X12.9526 Y30.0041 F100   
G01 X12.9246 Y30.1085 
G01 X12.9246 Y32.1215 
G01 X12.9526 Y32.2259 
G01 X13.0066 Y32.3195 
G01 X13.0830 Y32.3959 
G01 X13.1766 Y32.4499 
G01 X13.2810 Y32.4779 
G01 X15.2940 Y32.4779 
G01 X15.3984 Y32.4499 
G01 X15.4920 Y32.3959 
G01 X15.5684 Y32.3195 
G01 X15.6224 Y32.2259 
G01 X15.6504 Y32.1215 
G01 X15.6504 Y32.0929 
G01 X15.7921 Y32.0929 
G01 X15.7921 Y35.7251 
G01 X15.8291 Y36.0533 
G01 X15.9026 Y36.3753 
G01 X16.0116 Y36.6870 
G01 X16.1549 Y36.9846 
G01 X16.3306 Y37.2642 
G01 X16.5366 Y37.5224 
G01 X16.7701 Y37.7559 
G01 X17.0283 Y37.9618 
G01 X17.2077 Y38.0746 
G01 X17.1450 Y38.0746 
G01 X16.9182 Y38.0707 
G01 X16.4657 Y38.0398 
G01 X16.0164 Y37.9780 
G01 X15.5724 Y37.8857 
G01 X15.1357 Y37.7634 
G01 X14.7083 Y37.6115 
G01 X14.2923 Y37.4308 
G01 X13.8896 Y37.2222 
G01 X13.5021 Y36.9865 
G01 X13.4120 Y36.9229 
G01 X15.2940 Y36.9229 
G01 X15.3984 Y36.8949 
G01 X15.4920 Y36.8409 
G01 X15.5684 Y36.7645 
G01 X15.6224 Y36.6709 
G01 X15.6504 Y36.5665 
G01 X15.6504 Y34.5535 
G01 X15.6224 Y34.4491 
G01 X15.5684 Y34.3555 
G01 X15.4920 Y34.2791 
G01 X15.3984 Y34.2251 
G01 X15.2940 Y34.1971 
G01 X13.2810 Y34.1971 
G01 X13.1766 Y34.2251 
G01 X13.0830 Y34.2791 
G01 X13.0066 Y34.3555 
G01 X12.9628 Y34.4314 
G01 X12.9474 Y34.4176 
G01 X12.8184 Y34.2743 
G01 X12.7051 Y34.1183 
G01 X12.6087 Y33.9513 
G01 X12.5303 Y33.7751 
G01 X12.4707 Y33.5918 
G01 X12.4306 Y33.4032 
G01 X12.4104 Y33.2114 
G01 X12.4079 Y33.1150 
G01 X12.4079 Y23.2029 
G01 X13.1174 Y23.2029 
G01 X13.1276 Y23.2409 
G01 X13.1816 Y23.3345 
G01 X13.2580 Y23.4109 
G01 X13.3516 Y23.4649 
G01 X13.4560 Y23.4929 
G01 X16.5640 Y23.4929 
G01 X16.6684 Y23.4649 
G01 X16.7446 Y23.4209 
G01 X16.7446 Y25.2886 
G01 X16.1530 Y25.8802 
G01 X16.0377 Y25.9955 
G01 X15.9419 Y26.1273 
G01 X15.8680 Y26.2725 
G01 X15.8176 Y26.4275 
G01 X15.7921 Y26.5885 
G01 X15.7921 Y30.0221 
G01 X15.6273 Y30.0221 
G01 X15.6224 Y30.0041 
G01 X15.5684 Y29.9105 
G01 X15.4920 Y29.8341 
G01 X15.3984 Y29.7801 
G01 X15.2940 Y29.7521 
G01 X13.2810 Y29.7521 
G01 X13.1766 Y29.7801 
G01 X13.0830 Y29.8341 
G01 X13.0066 Y29.9105 
G00 Z1.0000  
G00 X17.8629 Y27.0989 
G01 Z-0.1000 F50    
G01 X18.0046 Y26.9572 F100   
G01 X18.0046 Y35.9315 
G01 X18.0326 Y36.0359 
G01 X18.0396 Y36.0481 
G01 X18.0396 Y36.0837 
G01 X18.0233 Y36.0632 
G01 X17.9714 Y35.9806 
G01 X17.9291 Y35.8928 
G01 X17.8969 Y35.8007 
G01 X17.8752 Y35.7057 
G01 X17.8643 Y35.6088 
G01 X17.8629 Y35.5600 
G01 X17.8629 Y27.0989 
G00 Z1.0000  
G00 X18.3847 Y26.5771 
G01 Z-0.1000 F50    
G01 X18.4545 Y26.5073 F100   
G01 X18.5698 Y26.3920 
G01 X18.6396 Y26.2959 
G01 X18.6396 Y26.5771 
G01 X18.3847 Y26.5771 
G00 Z1.0000  
G00 X23.9054 Y27.3879 
G01 Z-0.1000 F50    
G01 X24.2563 Y27.3879 F100   
G01 X24.3135 Y27.5645 
G01 X24.3973 Y27.7290 
G01 X24.5057 Y27.8783 
G01 X24.6362 Y28.0088 
G01 X24.7855 Y28.1172 
G01 X24.9500 Y28.2010 
G01 X25.1255 Y28.2580 
G01 X25.3077 Y28.2869 
G01 X25.4923 Y28.2869 
G01 X25.6745 Y28.2580 
G01 X25.8500 Y28.2010 
G01 X26.0145 Y28.1172 
G01 X26.1638 Y28.0088 
G01 X26.2943 Y27.8783 
G01 X26.4027 Y27.7290 
G01 X26.4865 Y27.5645 
G01 X26.5435 Y27.3890 
G01 X26.5724 Y27.2068 
G01 X26.5724 Y25.4982 
G01 X26.5435 Y25.3160 
G01 X26.4865 Y25.1405 
G01 X26.4027 Y24.9760 
G01 X26.2943 Y24.8267 
G01 X26.1638 Y24.6962 
G01 X26.0145 Y24.5878 
G01 X25.8500 Y24.5040 
G01 X25.6745 Y24.4470 
G01 X25.4923 Y24.4181 
G01 X25.3077 Y24.4181 
G01 X25.1255 Y24.4470 
G01 X24.9500 Y24.5040 
G01 X24.7855 Y24.5878 
G01 X24.6362 Y24.6962 
G01 X24.5057 Y24.8267 
G01 X24.3973 Y24.9760 
G01 X24.3135 Y25.1405 
G01 X24.2565 Y25.3160 
G01 X23.9054 Y25.3171 
G01 X23.9054 Y24.2229 
G01 X26.0890 Y24.2229 
G01 X26.1934 Y24.1949 
G01 X26.2870 Y24.1409 
G01 X26.3525 Y24.0754 
G01 X26.4180 Y24.1409 
G01 X26.5116 Y24.1949 
G01 X26.6160 Y24.2229 
G01 X29.4346 Y24.2229 
G01 X29.4346 Y25.3171 
G01 X29.0837 Y25.3171 
G01 X29.0265 Y25.1405 
G01 X28.9427 Y24.9760 
G01 X28.8343 Y24.8267 
G01 X28.7038 Y24.6962 
G01 X28.5545 Y24.5878 
G01 X28.3900 Y24.5040 
G01 X28.2145 Y24.4470 
G01 X28.0323 Y24.4181 
G01 X27.8477 Y24.4181 
G01 X27.6655 Y24.4470 
G01 X27.4900 Y24.5040 
G01 X27.3255 Y24.5878 
G01 X27.1762 Y24.6962 
G01 X27.0457 Y24.8267 
G01 X26.9373 Y24.9760 
G01 X26.8535 Y25.1405 
G01 X26.7965 Y25.3160 
G01 X26.7676 Y25.4982 
G01 X26.7676 Y27.2068 
G01 X26.7965 Y27.3890 
G01 X26.8535 Y27.5645 
G01 X26.9373 Y27.7290 
G01 X27.0457 Y27.8783 
G01 X27.1762 Y28.0088 
G01 X27.3255 Y28.1172 
G01 X27.4900 Y28.2010 
G01 X27.6655 Y28.2580 
G01 X27.8477 Y28.2869 
G01 X28.0323 Y28.2869 
G01 X28.2145 Y28.2580 
G01 X28.3900 Y28.2010 
G01 X28.5545 Y28.1172 
G01 X28.7038 Y28.0088 
G01 X28.8343 Y27.8783 
G01 X28.9427 Y27.7290 
G01 X29.0265 Y27.5645 
G01 X29.0835 Y27.3890 
G01 X29.4346 Y27.3879 
G01 X29.4346 Y29.1171 
G01 X27.2510 Y29.1171 
G01 X27.1466 Y29.1451 
G01 X27.0530 Y29.1991 
G01 X26.9766 Y29.2755 
G01 X26.9226 Y29.3691 
G01 X26.8946 Y29.4735 
G01 X26.8946 Y35.9315 
G01 X26.9226 Y36.0359 
G01 X26.9766 Y36.1295 
G01 X27.0530 Y36.2059 
G01 X27.1466 Y36.2599 
G01 X27.2510 Y36.2879 
G01 X28.3607 Y36.2879 
G01 X28.4380 Y36.3659 
G01 X28.5316 Y36.4199 
G01 X28.5677 Y36.4296 
G01 X24.7723 Y36.4296 
G01 X24.8084 Y36.4199 
G01 X24.9020 Y36.3659 
G01 X24.9784 Y36.2895 
G01 X26.0890 Y36.2879 
G01 X26.1934 Y36.2599 
G01 X26.2870 Y36.2059 
G01 X26.3634 Y36.1295 
G01 X26.4174 Y36.0359 
G01 X26.4454 Y35.9315 
G01 X26.4454 Y29.4735 
G01 X26.4174 Y29.3691 
G01 X26.3634 Y29.2755 
G01 X26.2870 Y29.1991 
G01 X26.1934 Y29.1451 
G01 X26.0890 Y29.1171 
G01 X23.9054 Y29.1171 
G01 X23.9054 Y27.3879 
G00 Z1.0000  
G00 X34.7004 Y26.5771 
G01 Z-0.1000 F50    
G01 X34.7004 Y20.6565 F100   
G01 X34.7427 Y20.7960 
G01 X34.8858 Y21.1415 
G01 X35.0621 Y21.4712 
G01 X35.2698 Y21.7821 
G01 X35.5070 Y22.0711 
G01 X35.7714 Y22.3355 
G01 X36.0604 Y22.5727 
G01 X36.3713 Y22.7804 
G01 X36.4196 Y22.8063 
G01 X36.4196 Y23.1365 
G01 X36.4476 Y23.2409 
G01 X36.5016 Y23.3345 
G01 X36.5780 Y23.4109 
G01 X36.6716 Y23.4649 
G01 X36.7760 Y23.4929 
G01 X39.8840 Y23.4929 
G01 X39.9884 Y23.4649 
G01 X40.0820 Y23.4109 
G01 X40.1584 Y23.3345 
G01 X40.2124 Y23.2409 
G01 X40.2404 Y23.1365 
G01 X40.2404 Y21.4285 
G01 X40.2124 Y21.3241 
G01 X40.1584 Y21.2305 
G01 X40.0820 Y21.1541 
G01 X39.9884 Y21.1001 
G01 X39.8840 Y21.0721 
G01 X37.5725 Y21.0721 
G01 X37.4382 Y21.0003 
G01 X37.2967 Y20.9057 
G01 X37.1651 Y20.7978 
G01 X37.0447 Y20.6774 
G01 X36.9368 Y20.5458 
G01 X36.8422 Y20.4043 
G01 X36.7619 Y20.2541 
G01 X36.6968 Y20.0969 
G01 X36.6474 Y19.9340 
G01 X36.6142 Y19.7670 
G01 X36.5975 Y19.5976 
G01 X36.5954 Y19.5125 
G01 X36.5954 Y18.8609 
G01 X36.6716 Y18.9049 
G01 X36.7760 Y18.9329 
G01 X39.8131 Y18.9329 
G01 X39.9455 Y19.0520 
G01 X40.1055 Y19.2297 
G01 X40.2460 Y19.4232 
G01 X40.3656 Y19.6303 
G01 X40.4629 Y19.8488 
G01 X40.5368 Y20.0762 
G01 X40.5865 Y20.3101 
G01 X40.6115 Y20.5479 
G01 X40.6146 Y20.6675 
G01 X40.6146 Y30.3971 
G01 X40.4154 Y30.3971 
G01 X40.4154 Y30.1085 
G01 X40.3874 Y30.0041 
G01 X40.3334 Y29.9105 
G01 X40.2570 Y29.8341 
G01 X40.1634 Y29.7801 
G01 X40.0590 Y29.7521 
G01 X38.0460 Y29.7521 
G01 X37.9416 Y29.7801 
G01 X37.8480 Y29.8341 
G01 X37.7716 Y29.9105 
G01 X37.7176 Y30.0041 
G01 X37.6896 Y30.1085 
G01 X37.6896 Y32.1215 
G01 X37.7176 Y32.2259 
G01 X37.7716 Y32.3195 
G01 X37.8480 Y32.3959 
G01 X37.9416 Y32.4499 
G01 X38.0460 Y32.4779 
G01 X40.0590 Y32.4779 
G01 X40.1634 Y32.4499 
G01 X40.2570 Y32.3959 
G01 X40.3334 Y32.3195 
G01 X40.3874 Y32.2259 
G01 X40.4154 Y32.1215 
G01 X40.4154 Y31.7179 
G01 X40.6146 Y31.7179 
G01 X40.6146 Y35.8775 
G01 X40.6116 Y35.9925 
G01 X40.5876 Y36.2212 
G01 X40.5397 Y36.4462 
G01 X40.4687 Y36.6649 
G01 X40.3751 Y36.8750 
G01 X40.2601 Y37.0741 
G01 X40.1250 Y37.2602 
G01 X39.9711 Y37.4311 
G01 X39.8002 Y37.5850 
G01 X39.6141 Y37.7201 
G01 X39.4150 Y37.8351 
G01 X39.2049 Y37.9287 
G01 X38.9862 Y37.9997 
G01 X38.8104 Y38.0371 
G01 X38.9134 Y37.9724 
G01 X39.1665 Y37.7705 
G01 X39.3955 Y37.5415 
G01 X39.5974 Y37.2884 
G01 X39.7697 Y37.0142 
G01 X39.8136 Y36.9229 
G01 X40.0590 Y36.9229 
G01 X40.1634 Y36.8949 
G01 X40.2570 Y36.8409 
G01 X40.3334 Y36.7645 
G01 X40.3874 Y36.6709 
G01 X40.4154 Y36.5665 
G01 X40.4154 Y34.5535 
G01 X40.3874 Y34.4491 
G01 X40.3334 Y34.3555 
G01 X40.2570 Y34.2791 
G01 X40.1634 Y34.2251 
G01 X40.0590 Y34.1971 
G01 X38.0460 Y34.1971 
G01 X37.9416 Y34.2251 
G01 X37.8480 Y34.2791 
G01 X37.7716 Y34.3555 
G01 X37.7176 Y34.4491 
G01 X37.6896 Y34.5535 
G01 X37.6896 Y36.2942 
G01 X37.6353 Y36.3283 
G01 X37.5533 Y36.3678 
G01 X37.4673 Y36.3979 
G01 X37.3785 Y36.4181 
G01 X37.2880 Y36.4283 
G01 X37.2425 Y36.4296 
G01 X35.0123 Y36.4296 
G01 X35.0484 Y36.4199 
G01 X35.1420 Y36.3659 
G01 X35.2184 Y36.2895 
G01 X35.2724 Y36.1959 
G01 X35.3004 Y36.0915 
G01 X35.3004 Y36.0481 
G01 X35.3074 Y36.0359 
G01 X35.3354 Y35.9315 
G01 X35.3354 Y26.9335 
G01 X35.3074 Y26.8291 
G01 X35.2534 Y26.7355 
G01 X35.1770 Y26.6591 
G01 X35.0834 Y26.6051 
G01 X34.9790 Y26.5771 
G01 X34.7004 Y26.5771 
G00 Z1.0000  
G00 Z12.0000 
M05
M02
