(.../EAGLE-7.7.0/pcbgcode/pcb-gcode.ulp)
(Copyright 2005 - 2012 by John Johnson)
(See readme.txt for licensing terms.)
(This file generated from the board:)
(.../electronics/Columba2/pmc3.brd)
(Current profile is .../EAGLE 8.0/pcbgcode/profiles/mach.pp  )
(This file generated 18.1.2019 20:00)
(Settings from pcb-machine.h)
(spindle on time = 1.0000)
(spindle speed = 15000.0000)
(milling depth = -1.6000)
(tool change at 0.0000  0.0000  25.4000 )
(feed rate xy = F254   )
(feed rate z  = F127   )
(Z Axis Settings)
(  High     Up        Down     Drill)
(12.0000 	1.0000  	-0.1000 	-1.8000 )
(Settings from pcb-defaults.h)
(isolate min = 0.0254)
(isolate max = 0.3000)
(isolate step = 0.1000)
(Generated top outlines, top drill, )
(Unit of measure: mm)
(Metric Mode)
G21
(Absolute Coordinates)
G90
S15000
G00 Z12.0000 
G00 X0.0000  Y0.0000  
M03
G04 P1.000000
G00 Z1.0000  
G00 X0.6000  Y-0.6000 
G01 Z-1.6000 F127   
G01 X-58.0000 Y-0.6000 F254   
G01 X-58.0000 Y40.2000 
G01 X0.6000  Y40.2000 
G01 X0.6000  Y-0.6000 
G00 Z12.0000 
M05
M02
