(.../EAGLE-7.7.0/pcbgcode/pcb-gcode.ulp)
(Copyright 2005 - 2012 by John Johnson)
(See readme.txt for licensing terms.)
(This file generated from the board:)
(.../electronics/Columba2/pmc3.brd)
(Current profile is .../EAGLE 8.0/pcbgcode/profiles/mach.pp  )
(This file generated 18.1.2019 19:59)
(Settings from pcb-machine.h)
(spindle on time = 1.0000)
(  Tool Size)
(0.1700  )
(spindle speed = 30000.0000)
(tool change at 0.0000  0.0000  25.4000 )
(feed rate xy = F100   )
(feed rate z  = F50    )
(Z Axis Settings)
(  High     Up        Down     Drill)
(12.0000 	1.0000  	-0.1000 	-1.8000 )
(Settings from pcb-defaults.h)
(isolate min = 0.0254)
(isolate max = 0.3000)
(isolate step = 0.1000)
(Generated top outlines, top drill, )
(Unit of measure: mm)
(Metric Mode)
G21
(Absolute Coordinates)
G90
S30000
G00 Z12.0000 
G00 X0.0000  Y0.0000  
M03
G04 P1.000000
G00 Z1.0000  
G00 X0.1116  Y0.1787  
G01 Z-0.1000 F50    
G01 X0.0642  Y0.2609  F100   
G01 X0.0396  Y0.3525  
G01 X0.0396  Y24.3368 
G01 X0.0365  Y24.3605 
G01 X0.0396  Y24.3841 
G01 X0.0396  Y24.4079 
G01 X0.0458  Y24.4309 
G01 X0.0489  Y24.4546 
G01 X0.0580  Y24.4765 
G01 X0.0642  Y24.4995 
G01 X0.0761  Y24.5202 
G01 X0.0852  Y24.5422 
G01 X0.0997  Y24.5611 
G01 X0.1116  Y24.5817 
G01 X0.1285  Y24.5986 
G01 X0.1430  Y24.6175 
G01 X0.1619  Y24.6320 
G01 X0.1787  Y24.6488 
G01 X0.1994  Y24.6608 
G01 X0.2183  Y24.6753 
G01 X0.2403  Y24.6844 
G01 X0.2609  Y24.6963 
G01 X0.2839  Y24.7024 
G01 X0.3059  Y24.7116 
G01 X0.3295  Y24.7147 
G01 X0.3525  Y24.7208 
G01 X0.3764  Y24.7208 
G01 X0.4000  Y24.7239 
G01 X0.4236  Y24.7208 
G01 X0.4474  Y24.7208 
G01 X0.4705  Y24.7147 
G01 X0.4941  Y24.7115 
G01 X0.5005  Y24.7089 
G01 X2.2555  Y24.7089 
G01 X2.3987  Y24.7682 
G01 X2.4396  Y24.8091 
G01 X2.4396  Y27.1909 
G01 X2.3987  Y27.2318 
G01 X2.2555  Y27.2911 
G01 X1.9525  Y27.2911 
G01 X1.8609  Y27.3157 
G01 X1.7787  Y27.3631 
G01 X1.7116  Y27.4302 
G01 X1.6642  Y27.5124 
G01 X1.6396  Y27.6040 
G01 X1.6396  Y30.6332 
G01 X1.6406  Y30.6371 
G01 X1.6642  Y30.7249 
G01 X1.7106  Y30.8053 
G01 X2.2588  Y31.3543 
G01 X2.2700  Y31.3697 
G01 X2.2922  Y31.3877 
G01 X2.3124  Y31.4079 
G01 X2.3290  Y31.4174 
G01 X2.3395  Y31.4260 
G01 X2.3518  Y31.4473 
G01 X2.3820  Y31.4775 
G01 X2.4189  Y31.5144 
G01 X2.4269  Y31.5224 
G01 X2.4587  Y31.5407 
G01 X2.5091  Y31.5698 
G01 X2.5503  Y31.5809 
G01 X2.6008  Y31.5944 
G01 X2.6481  Y31.5944 
G01 X3.0047  Y31.5944 
G01 X3.0249  Y31.6432 
G01 X3.1204  Y31.7861 
G01 X3.2419  Y31.9076 
G01 X3.3848  Y32.0031 
G01 X3.5435  Y32.0689 
G01 X3.7121  Y32.1024 
G01 X5.4079  Y32.1024 
G01 X5.5765  Y32.0689 
G01 X5.7352  Y32.0031 
G01 X5.8781  Y31.9076 
G01 X5.9996  Y31.7861 
G01 X6.0951  Y31.6432 
G01 X6.1153  Y31.5944 
G01 X6.1527  Y31.5944 
G01 X6.0965  Y31.7046 
G01 X6.0127  Y31.8200 
G01 X5.9120  Y31.9208 
G01 X5.7966  Y32.0045 
G01 X5.7311  Y32.0379 
G01 X5.7004  Y32.0506 
G01 X5.6890  Y32.0594 
G01 X5.6763  Y32.0659 
G01 X5.6515  Y32.0882 
G01 X5.6251  Y32.1084 
G01 X5.6164  Y32.1198 
G01 X5.6057  Y32.1294 
G01 X5.5876  Y32.1573 
G01 X5.5673  Y32.1837 
G01 X5.5619  Y32.1969 
G01 X5.5541  Y32.2090 
G01 X5.5438  Y32.2406 
G01 X5.5310  Y32.2714 
G01 X5.5292  Y32.2856 
G01 X5.5247  Y32.2992 
G01 X5.5230  Y32.3325 
G01 X5.5186  Y32.3655 
G01 X5.5205  Y32.3797 
G01 X5.5198  Y32.3940 
G01 X5.5267  Y32.4265 
G01 X5.5310  Y32.4595 
G01 X5.5365  Y32.4728 
G01 X5.5395  Y32.4868 
G01 X5.5546  Y32.5165 
G01 X5.5674  Y32.5472 
G01 X5.5761  Y32.5586 
G01 X5.5826  Y32.5713 
G01 X5.6049  Y32.5961 
G01 X5.6251  Y32.6225 
G01 X5.6365  Y32.6312 
G01 X5.6461  Y32.6419 
G01 X5.6740  Y32.6600 
G01 X5.7004  Y32.6803 
G01 X5.7136  Y32.6857 
G01 X5.7257  Y32.6935 
G01 X5.7573  Y32.7038 
G01 X5.9743  Y32.7937 
G01 X6.1496  Y32.9690 
G01 X6.2167  Y33.0361 
G01 X6.2989  Y33.0836 
G01 X6.3527  Y33.0980 
G01 X6.3906  Y33.1081 
G01 X6.4855  Y33.1081 
G01 X6.5250  Y33.0975 
G01 X6.5771  Y33.0836 
G01 X6.6593  Y33.0361 
G01 X6.6634  Y33.0320 
G01 X6.7264  Y32.9690 
G01 X6.8548  Y32.8406 
G01 X7.0735  Y32.6219 
G01 X7.1406  Y32.5548 
G01 X7.3377  Y32.3578 
G01 X7.5728  Y32.2604 
G01 X8.1584  Y32.2604 
G01 X8.2501  Y32.2358 
G01 X8.3323  Y32.1884 
G01 X8.3994  Y32.1213 
G01 X8.4468  Y32.0391 
G01 X8.4714  Y31.9474 
G01 X8.4714  Y31.8211 
G01 X8.5046  Y31.8543 
G01 X8.5046  Y32.3170 
G01 X8.5214  Y32.3575 
G01 X8.5525  Y32.3886 
G01 X8.5930  Y32.4054 
G01 X9.6270  Y32.4054 
G01 X9.6675  Y32.3886 
G01 X9.6986  Y32.3575 
G01 X9.7154  Y32.3170 
G01 X9.7154  Y31.5830 
G01 X9.6986  Y31.5425 
G01 X9.6675  Y31.5114 
G01 X9.6270  Y31.4946 
G01 X9.1643  Y31.4946 
G01 X8.9551  Y31.2854 
G01 X8.9571  Y31.2828 
G01 X8.9662  Y31.2607 
G01 X8.9781  Y31.2401 
G01 X8.9843  Y31.2171 
G01 X8.9934  Y31.1951 
G01 X8.9965  Y31.1715 
G01 X9.0027  Y31.1484 
G01 X9.0027  Y31.1246 
G01 X9.0058  Y31.1010 
G01 X9.0027  Y31.0774 
G01 X9.0027  Y31.0536 
G01 X8.9965  Y31.0305 
G01 X8.9934  Y31.0069 
G01 X8.9843  Y30.9849 
G01 X8.9781  Y30.9619 
G01 X8.9662  Y30.9412 
G01 X8.9604  Y30.9272 
G01 X8.9604  Y30.7580 
G01 X8.9358  Y30.6664 
G01 X8.8884  Y30.5842 
G01 X8.8213  Y30.5171 
G01 X8.7391  Y30.4697 
G01 X8.6884  Y30.4561 
G01 X8.6884  Y30.4119 
G01 X9.0000  Y30.4119 
G01 X9.0405  Y30.3951 
G01 X9.0716  Y30.3640 
G01 X9.0884  Y30.3235 
G01 X9.0884  Y28.4765 
G01 X9.0716  Y28.4360 
G01 X9.0405  Y28.4049 
G01 X9.0000  Y28.3881 
G01 X7.3560  Y28.3881 
G01 X7.3155  Y28.4049 
G01 X7.2844  Y28.4360 
G01 X7.2676  Y28.4765 
G01 X7.2676  Y28.8896 
G01 X7.2344  Y28.8896 
G01 X7.2344  Y28.8474 
G01 X7.2344  Y28.7525 
G01 X7.2098  Y28.6609 
G01 X7.1624  Y28.5787 
G01 X7.0953  Y28.5116 
G01 X7.0131  Y28.4642 
G01 X6.9400  Y28.4446 
G01 X6.9215  Y28.4396 
G01 X6.7865  Y28.4396 
G01 X6.6949  Y28.4642 
G01 X6.6127  Y28.5116 
G01 X6.5456  Y28.5787 
G01 X6.4982  Y28.6609 
G01 X6.4736  Y28.7525 
G01 X6.4736  Y28.9191 
G01 X6.2983  Y29.3423 
G01 X5.9743  Y29.6663 
G01 X5.7573  Y29.7562 
G01 X5.7257  Y29.7665 
G01 X5.7137  Y29.7743 
G01 X5.7004  Y29.7797 
G01 X5.6740  Y29.8000 
G01 X5.6461  Y29.8181 
G01 X5.6365  Y29.8288 
G01 X5.6251  Y29.8375 
G01 X5.6048  Y29.8639 
G01 X5.5826  Y29.8887 
G01 X5.5761  Y29.9014 
G01 X5.5673  Y29.9128 
G01 X5.5546  Y29.9436 
G01 X5.5395  Y29.9732 
G01 X5.5365  Y29.9872 
G01 X5.5310  Y30.0005 
G01 X5.5267  Y30.0335 
G01 X5.5198  Y30.0660 
G01 X5.5205  Y30.0803 
G01 X5.5186  Y30.0946 
G01 X5.5230  Y30.1276 
G01 X5.5247  Y30.1608 
G01 X5.5292  Y30.1744 
G01 X5.5310  Y30.1886 
G01 X5.5438  Y30.2194 
G01 X5.5541  Y30.2510 
G01 X5.5619  Y30.2631 
G01 X5.5673  Y30.2763 
G01 X5.5876  Y30.3027 
G01 X5.6057  Y30.3306 
G01 X5.6164  Y30.3402 
G01 X5.6251  Y30.3516 
G01 X5.6515  Y30.3719 
G01 X5.6763  Y30.3941 
G01 X5.6890  Y30.4006 
G01 X5.7004  Y30.4094 
G01 X5.7312  Y30.4221 
G01 X5.7966  Y30.4555 
G01 X5.9120  Y30.5392 
G01 X6.0127  Y30.6400 
G01 X6.0965  Y30.7554 
G01 X6.1527  Y30.8656 
G01 X6.1153  Y30.8656 
G01 X6.0951  Y30.8168 
G01 X5.9996  Y30.6739 
G01 X5.8781  Y30.5524 
G01 X5.7352  Y30.4569 
G01 X5.5765  Y30.3911 
G01 X5.4079  Y30.3576 
G01 X3.7121  Y30.3576 
G01 X3.5435  Y30.3911 
G01 X3.5133  Y30.4036 
G01 X3.4759  Y30.3662 
G01 X3.4949  Y30.3516 
G01 X3.5036  Y30.3402 
G01 X3.5143  Y30.3306 
G01 X3.5324  Y30.3027 
G01 X3.5526  Y30.2763 
G01 X3.5581  Y30.2631 
G01 X3.5659  Y30.2510 
G01 X3.5762  Y30.2194 
G01 X3.5890  Y30.1886 
G01 X3.5908  Y30.1744 
G01 X3.5953  Y30.1608 
G01 X3.5970  Y30.1275 
G01 X3.6013  Y30.0946 
G01 X3.5995  Y30.0803 
G01 X3.6002  Y30.0660 
G01 X3.5933  Y30.0335 
G01 X3.5890  Y30.0005 
G01 X3.5835  Y29.9872 
G01 X3.5805  Y29.9732 
G01 X3.5654  Y29.9435 
G01 X3.5526  Y29.9128 
G01 X3.5439  Y29.9014 
G01 X3.5374  Y29.8887 
G01 X3.5151  Y29.8639 
G01 X3.4949  Y29.8375 
G01 X3.4835  Y29.8288 
G01 X3.4739  Y29.8181 
G01 X3.4460  Y29.8000 
G01 X3.4196  Y29.7797 
G01 X3.4064  Y29.7743 
G01 X3.3943  Y29.7665 
G01 X3.3627  Y29.7562 
G01 X3.1457  Y29.6663 
G01 X2.8217  Y29.3423 
G01 X2.6464  Y28.9191 
G01 X2.6464  Y28.4609 
G01 X2.8217  Y28.0377 
G01 X3.1261  Y27.7333 
G01 X3.1932  Y27.6662 
G01 X3.2063  Y27.6435 
G01 X3.2406  Y27.5840 
G01 X3.2652  Y27.4924 
G01 X3.2652  Y27.3975 
G01 X3.2546  Y27.3579 
G01 X3.2406  Y27.3058 
G01 X3.2069  Y27.2475 
G01 X3.1932  Y27.2236 
G01 X3.1604  Y27.1909 
G01 X3.1604  Y24.8091 
G01 X3.2222  Y24.7473 
G01 X3.2696  Y24.6651 
G01 X3.2813  Y24.6215 
G01 X3.2942  Y24.5735 
G01 X3.2942  Y24.4786 
G01 X3.2808  Y24.4284 
G01 X3.2697  Y24.3869 
G01 X3.2222  Y24.3047 
G01 X3.1922  Y24.2747 
G01 X3.1551  Y24.2376 
G01 X3.0578  Y24.1403 
G01 X2.9604  Y23.9052 
G01 X2.9604  Y23.2475 
G01 X2.9358  Y23.1559 
G01 X2.8884  Y23.0737 
G01 X2.8213  Y23.0066 
G01 X2.7391  Y22.9592 
G01 X2.6474  Y22.9346 
G01 X1.6875  Y22.9346 
G01 X1.5443  Y22.8753 
G01 X1.4347  Y22.7657 
G01 X1.3754  Y22.6225 
G01 X1.3754  Y20.8275 
G01 X1.4347  Y20.6843 
G01 X1.4586  Y20.6604 
G01 X1.6546  Y20.6604 
G01 X1.6546  Y20.6670 
G01 X1.6714  Y20.7075 
G01 X1.7025  Y20.7386 
G01 X1.7430  Y20.7554 
G01 X2.7770  Y20.7554 
G01 X2.8175  Y20.7386 
G01 X2.8486  Y20.7075 
G01 X2.8654  Y20.6670 
G01 X2.8654  Y19.9330 
G01 X2.8486  Y19.8925 
G01 X2.8175  Y19.8614 
G01 X2.7770  Y19.8446 
G01 X2.6204  Y19.8446 
G01 X2.6204  Y19.8114 
G01 X2.7739  Y19.8114 
G01 X2.8104  Y19.8212 
G01 X2.8432  Y19.8401 
G01 X2.8699  Y19.8668 
G01 X2.8888  Y19.8996 
G01 X2.8986  Y19.9361 
G01 X2.8986  Y20.2474 
G01 X2.9232  Y20.3391 
G01 X2.9706  Y20.4213 
G01 X3.0377  Y20.4884 
G01 X3.1199  Y20.5358 
G01 X3.2115  Y20.5604 
G01 X3.6524  Y20.5604 
G01 X3.7441  Y20.5358 
G01 X3.8263  Y20.4884 
G01 X3.8934  Y20.4213 
G01 X3.9408  Y20.3391 
G01 X3.9654  Y20.2474 
G01 X3.9654  Y19.8775 
G01 X4.0247  Y19.7343 
G01 X4.1343  Y19.6247 
G01 X4.2775  Y19.5654 
G01 X4.5782  Y19.5654 
G01 X4.6699  Y19.5408 
G01 X4.7521  Y19.4934 
G01 X4.9878  Y19.3954 
G01 X6.0974  Y19.3954 
G01 X6.1891  Y19.3708 
G01 X6.2713  Y19.3234 
G01 X6.3384  Y19.2563 
G01 X6.3858  Y19.1741 
G01 X6.4104  Y19.0824 
G01 X6.4104  Y18.3875 
G01 X6.4697  Y18.2443 
G01 X6.5272  Y18.1868 
G01 X6.5693  Y18.1447 
G01 X6.5943  Y18.1197 
G01 X6.6191  Y18.0767 
G01 X6.6418  Y18.0375 
G01 X6.6557  Y17.9855 
G01 X6.6663  Y17.9459 
G01 X6.6663  Y17.8979 
G01 X6.6663  Y17.8554 
G01 X6.7055  Y17.8554 
G01 X6.7375  Y17.8886 
G01 X6.7780  Y17.9054 
G01 X8.0220  Y17.9054 
G01 X8.0625  Y17.8886 
G01 X8.0936  Y17.8575 
G01 X8.1551  Y17.8554 
G01 X8.1682  Y17.9041 
G01 X8.2156  Y17.9863 
G01 X8.2827  Y18.0534 
G01 X8.3649  Y18.1008 
G01 X8.4565  Y18.1254 
G01 X8.6922  Y18.1254 
G01 X8.9273  Y18.2228 
G01 X9.2781  Y18.5735 
G01 X9.5422  Y18.8377 
G01 X9.6396  Y19.0728 
G01 X9.6396  Y22.7368 
G01 X9.6530  Y22.7870 
G01 X9.6642  Y22.8285 
G01 X9.6721  Y22.8422 
G01 X9.7116  Y22.9106 
G01 X9.7787  Y22.9777 
G01 X9.8097  Y22.9956 
G01 X9.8609  Y23.0252 
G01 X9.8869  Y23.0321 
G01 X9.9525  Y23.0497 
G01 X10.0474 Y23.0497 
G01 X10.0976 Y23.0363 
G01 X10.1391 Y23.0252 
G01 X10.1529 Y23.0172 
G01 X10.2213 Y22.9777 
G01 X10.2767 Y22.9224 
G01 X10.2891 Y22.9190 
G01 X10.3097 Y22.9071 
G01 X10.3317 Y22.8980 
G01 X10.3507 Y22.8835 
G01 X10.3713 Y22.8716 
G01 X10.3881 Y22.8547 
G01 X10.4070 Y22.8402 
G01 X10.4215 Y22.8213 
G01 X10.4384 Y22.8045 
G01 X10.4503 Y22.7838 
G01 X10.4648 Y22.7649 
G01 X10.4739 Y22.7429 
G01 X10.4858 Y22.7223 
G01 X10.4920 Y22.6993 
G01 X10.5011 Y22.6773 
G01 X10.5042 Y22.6536 
G01 X10.5104 Y22.6306 
G01 X10.5104 Y22.6068 
G01 X10.5135 Y22.5832 
G01 X10.5104 Y22.5596 
G01 X10.5104 Y19.3228 
G01 X10.6078 Y19.0877 
G01 X11.2085 Y18.4869 
G01 X11.4727 Y18.2228 
G01 X11.7267 Y18.1176 
G01 X11.7891 Y18.1008 
G01 X11.8713 Y18.0534 
G01 X11.9384 Y17.9863 
G01 X11.9858 Y17.9041 
G01 X12.0104 Y17.8124 
G01 X12.0104 Y17.1175 
G01 X12.0697 Y16.9743 
G01 X12.1793 Y16.8647 
G01 X12.3225 Y16.8054 
G01 X15.4974 Y16.8054 
G01 X15.5891 Y16.7808 
G01 X15.6713 Y16.7334 
G01 X15.7384 Y16.6663 
G01 X15.7858 Y16.5841 
G01 X15.8104 Y16.4924 
G01 X15.8104 Y16.1073 
G01 X16.5072 Y15.4104 
G01 X17.4927 Y15.4104 
G01 X18.1896 Y16.1073 
G01 X18.1896 Y17.0927 
G01 X17.4707 Y17.8116 
G01 X17.4036 Y17.8787 
G01 X17.3562 Y17.9609 
G01 X17.3316 Y18.0525 
G01 X17.3316 Y18.1474 
G01 X17.3562 Y18.2391 
G01 X17.4036 Y18.3213 
G01 X17.9896 Y18.9073 
G01 X17.9896 Y19.8927 
G01 X17.2707 Y20.6116 
G01 X17.2367 Y20.6457 
G01 X17.2036 Y20.6787 
G01 X17.1562 Y20.7609 
G01 X17.1511 Y20.7799 
G01 X17.1316 Y20.8526 
G01 X17.1316 Y20.9475 
G01 X17.1405 Y20.9804 
G01 X17.1562 Y21.0391 
G01 X17.1896 Y21.0970 
G01 X17.1896 Y22.0927 
G01 X16.4927 Y22.7896 
G01 X15.5073 Y22.7896 
G01 X14.8104 Y22.0927 
G01 X14.8104 Y21.4875 
G01 X14.7858 Y21.3958 
G01 X14.7515 Y21.3363 
G01 X14.7384 Y21.3136 
G01 X14.6384 Y21.2136 
G01 X14.5713 Y21.1465 
G01 X14.4891 Y21.0991 
G01 X14.4354 Y21.0847 
G01 X14.3974 Y21.0745 
G01 X14.3025 Y21.0745 
G01 X14.2109 Y21.0991 
G01 X14.1501 Y21.1342 
G01 X14.1287 Y21.1465 
G01 X14.0616 Y21.2136 
G01 X14.0142 Y21.2958 
G01 X13.9998 Y21.3495 
G01 X13.9896 Y21.3875 
G01 X13.9896 Y21.6825 
G01 X13.9303 Y21.8257 
G01 X13.8207 Y21.9353 
G01 X13.7993 Y21.9508 
G01 X13.7787 Y21.9627 
G01 X13.7619 Y21.9796 
G01 X13.7430 Y21.9941 
G01 X13.7285 Y22.0130 
G01 X13.7116 Y22.0298 
G01 X13.6997 Y22.0505 
G01 X13.6852 Y22.0694 
G01 X13.6761 Y22.0914 
G01 X13.6642 Y22.1120 
G01 X13.6580 Y22.1350 
G01 X13.6489 Y22.1570 
G01 X13.6458 Y22.1806 
G01 X13.6396 Y22.2037 
G01 X13.6396 Y22.2275 
G01 X13.6365 Y22.2511 
G01 X13.6396 Y22.2747 
G01 X13.6396 Y22.5389 
G01 X13.6365 Y22.5625 
G01 X13.6396 Y22.5861 
G01 X13.6396 Y22.6099 
G01 X13.6458 Y22.6329 
G01 X13.6489 Y22.6565 
G01 X13.6580 Y22.6786 
G01 X13.6642 Y22.7016 
G01 X13.6761 Y22.7222 
G01 X13.6852 Y22.7442 
G01 X13.6997 Y22.7631 
G01 X13.7116 Y22.7838 
G01 X13.7285 Y22.8006 
G01 X13.7430 Y22.8195 
G01 X13.7619 Y22.8340 
G01 X13.7787 Y22.8509 
G01 X13.7993 Y22.8628 
G01 X13.8182 Y22.8773 
G01 X13.8402 Y22.8864 
G01 X13.8609 Y22.8983 
G01 X13.8839 Y22.9045 
G01 X13.9207 Y22.9197 
G01 X14.0303 Y23.0293 
G01 X14.0896 Y23.1725 
G01 X14.0896 Y24.8275 
G01 X14.0127 Y25.0131 
G01 X14.0012 Y25.0326 
G01 X13.9998 Y25.0359 
G01 X13.9935 Y25.0595 
G01 X13.9847 Y25.0808 
G01 X13.9819 Y25.1018 
G01 X13.9757 Y25.1240 
G01 X13.9753 Y25.1275 
G01 X13.9753 Y25.1524 
G01 X13.9723 Y25.1748 
G01 X13.9750 Y25.1956 
G01 X13.9748 Y25.2189 
G01 X13.9753 Y25.2224 
G01 X13.9818 Y25.2468 
G01 X13.9847 Y25.2689 
G01 X13.9926 Y25.2880 
G01 X13.9985 Y25.3108 
G01 X13.9998 Y25.3141 
G01 X14.0125 Y25.3361 
G01 X14.0210 Y25.3566 
G01 X14.0335 Y25.3729 
G01 X14.0451 Y25.3934 
G01 X14.0473 Y25.3963 
G01 X14.0653 Y25.4143 
G01 X14.0788 Y25.4319 
G01 X14.0950 Y25.4443 
G01 X14.1115 Y25.4612 
G01 X14.1303 Y25.4793 
G01 X14.1896 Y25.6225 
G01 X14.1896 Y27.1775 
G01 X14.1303 Y27.3207 
G01 X14.0207 Y27.4303 
G01 X13.8775 Y27.4896 
G01 X12.3225 Y27.4896 
G01 X12.1793 Y27.4303 
G01 X12.0697 Y27.3207 
G01 X12.0104 Y27.1775 
G01 X12.0104 Y25.6260 
G01 X12.0131 Y25.6161 
G01 X12.0222 Y25.5941 
G01 X12.0253 Y25.5705 
G01 X12.0314 Y25.5474 
G01 X12.0314 Y25.5236 
G01 X12.0346 Y25.5000 
G01 X12.0314 Y25.4764 
G01 X12.0314 Y25.4525 
G01 X12.0253 Y25.4295 
G01 X12.0222 Y25.4059 
G01 X12.0131 Y25.3839 
G01 X12.0069 Y25.3609 
G01 X11.9950 Y25.3402 
G01 X11.9859 Y25.3182 
G01 X11.9714 Y25.2994 
G01 X11.9594 Y25.2787 
G01 X11.9426 Y25.2619 
G01 X11.9281 Y25.2430 
G01 X11.9092 Y25.2285 
G01 X11.8923 Y25.2116 
G01 X11.8717 Y25.1997 
G01 X11.8528 Y25.1852 
G01 X11.8308 Y25.1761 
G01 X11.8102 Y25.1642 
G01 X11.7871 Y25.1580 
G01 X11.7651 Y25.1489 
G01 X11.7415 Y25.1458 
G01 X11.7185 Y25.1396 
G01 X11.6947 Y25.1396 
G01 X11.6711 Y25.1365 
G01 X11.6474 Y25.1396 
G01 X10.7526 Y25.1396 
G01 X10.7289 Y25.1365 
G01 X10.7053 Y25.1396 
G01 X10.6815 Y25.1396 
G01 X10.6585 Y25.1458 
G01 X10.6349 Y25.1489 
G01 X10.6129 Y25.1580 
G01 X10.5898 Y25.1642 
G01 X10.5692 Y25.1761 
G01 X10.5472 Y25.1852 
G01 X10.5283 Y25.1997 
G01 X10.5077 Y25.2116 
G01 X10.4908 Y25.2285 
G01 X10.4719 Y25.2430 
G01 X10.4574 Y25.2619 
G01 X10.4406 Y25.2787 
G01 X10.4286 Y25.2994 
G01 X10.4141 Y25.3182 
G01 X10.4050 Y25.3402 
G01 X10.3931 Y25.3609 
G01 X10.3869 Y25.3839 
G01 X10.3778 Y25.4059 
G01 X10.3747 Y25.4295 
G01 X10.3685 Y25.4525 
G01 X10.3685 Y25.4764 
G01 X10.3654 Y25.5000 
G01 X10.3685 Y25.5236 
G01 X10.3685 Y25.5474 
G01 X10.3747 Y25.5705 
G01 X10.3778 Y25.5941 
G01 X10.3869 Y25.6161 
G01 X10.3896 Y25.6260 
G01 X10.3896 Y27.1775 
G01 X10.3303 Y27.3207 
G01 X10.3116 Y27.3394 
G01 X10.2712 Y27.4093 
G01 X10.2642 Y27.4215 
G01 X10.2460 Y27.4895 
G01 X10.2396 Y27.5132 
G01 X10.2396 Y27.5612 
G01 X10.2396 Y27.6081 
G01 X10.2396 Y27.7959 
G01 X10.2642 Y27.8876 
G01 X10.3116 Y27.9698 
G01 X10.3787 Y28.0369 
G01 X10.4609 Y28.0843 
G01 X10.5525 Y28.1089 
G01 X11.8995 Y28.1089 
G01 X12.0427 Y28.1682 
G01 X12.1539 Y28.2794 
G01 X12.1663 Y28.2957 
G01 X12.1783 Y28.3163 
G01 X12.1951 Y28.3331 
G01 X12.2096 Y28.3520 
G01 X12.2285 Y28.3665 
G01 X12.2454 Y28.3834 
G01 X12.2660 Y28.3953 
G01 X12.2849 Y28.4098 
G01 X12.3069 Y28.4189 
G01 X12.3275 Y28.4308 
G01 X12.3506 Y28.4370 
G01 X12.3726 Y28.4461 
G01 X12.3962 Y28.4492 
G01 X12.4192 Y28.4554 
G01 X12.4430 Y28.4554 
G01 X12.4666 Y28.4585 
G01 X12.4903 Y28.4554 
G01 X13.1065 Y28.4554 
G01 X13.1301 Y28.4585 
G01 X13.1537 Y28.4554 
G01 X13.1776 Y28.4554 
G01 X13.2006 Y28.4492 
G01 X13.2242 Y28.4461 
G01 X13.2462 Y28.4370 
G01 X13.2692 Y28.4308 
G01 X13.2899 Y28.4189 
G01 X13.3225 Y28.4054 
G01 X14.6775 Y28.4054 
G01 X14.8207 Y28.4647 
G01 X14.9303 Y28.5743 
G01 X14.9896 Y28.7175 
G01 X14.9896 Y29.4474 
G01 X15.0142 Y29.5391 
G01 X15.0616 Y29.6213 
G01 X15.1287 Y29.6884 
G01 X15.2109 Y29.7358 
G01 X15.3025 Y29.7604 
G01 X15.5272 Y29.7604 
G01 X15.7623 Y29.8578 
G01 X15.9422 Y30.0377 
G01 X16.0535 Y30.3064 
G01 X16.0597 Y30.3294 
G01 X16.0716 Y30.3500 
G01 X16.0807 Y30.3720 
G01 X16.0952 Y30.3909 
G01 X16.1071 Y30.4116 
G01 X16.1240 Y30.4284 
G01 X16.1385 Y30.4473 
G01 X16.1574 Y30.4618 
G01 X16.1742 Y30.4787 
G01 X16.1948 Y30.4906 
G01 X16.2138 Y30.5051 
G01 X16.2358 Y30.5142 
G01 X16.2564 Y30.5261 
G01 X16.2794 Y30.5323 
G01 X16.3014 Y30.5414 
G01 X16.3250 Y30.5445 
G01 X16.3481 Y30.5507 
G01 X16.3719 Y30.5507 
G01 X16.3955 Y30.5538 
G01 X16.4191 Y30.5507 
G01 X16.4430 Y30.5507 
G01 X16.4660 Y30.5445 
G01 X16.4896 Y30.5414 
G01 X16.5116 Y30.5323 
G01 X16.5346 Y30.5261 
G01 X16.5552 Y30.5142 
G01 X16.5773 Y30.5051 
G01 X16.5962 Y30.4906 
G01 X16.6168 Y30.4787 
G01 X16.6336 Y30.4618 
G01 X16.6526 Y30.4473 
G01 X16.6671 Y30.4284 
G01 X17.0340 Y30.0614 
G01 X17.2377 Y29.8578 
G01 X17.4728 Y29.7604 
G01 X18.2974 Y29.7604 
G01 X18.3891 Y29.7358 
G01 X18.4713 Y29.6884 
G01 X18.5384 Y29.6213 
G01 X18.5858 Y29.5391 
G01 X18.6104 Y29.4474 
G01 X18.6104 Y28.7175 
G01 X18.6697 Y28.5743 
G01 X18.7793 Y28.4647 
G01 X18.9225 Y28.4054 
G01 X19.7175 Y28.4054 
G01 X19.8092 Y28.3808 
G01 X19.8914 Y28.3334 
G01 X26.2486 Y21.9761 
G01 X26.5269 Y21.6979 
G01 X26.7803 Y21.5929 
G01 X27.9781 Y21.5929 
G01 X28.0018 Y21.5960 
G01 X28.0254 Y21.5929 
G01 X28.0492 Y21.5929 
G01 X28.0722 Y21.5867 
G01 X28.0958 Y21.5836 
G01 X28.1178 Y21.5745 
G01 X28.1409 Y21.5683 
G01 X28.1615 Y21.5564 
G01 X28.1835 Y21.5473 
G01 X28.2024 Y21.5328 
G01 X28.2230 Y21.5209 
G01 X28.2399 Y21.5040 
G01 X28.2588 Y21.4895 
G01 X28.2733 Y21.4706 
G01 X28.2902 Y21.4538 
G01 X28.3021 Y21.4332 
G01 X28.3166 Y21.4143 
G01 X28.3257 Y21.3922 
G01 X28.3376 Y21.3716 
G01 X28.3438 Y21.3486 
G01 X28.3549 Y21.3218 
G01 X28.3627 Y21.3098 
G01 X28.3730 Y21.2781 
G01 X28.3857 Y21.2473 
G01 X28.3876 Y21.2331 
G01 X28.3920 Y21.2195 
G01 X28.3937 Y21.1863 
G01 X28.3981 Y21.1533 
G01 X28.3962 Y21.1391 
G01 X28.3970 Y21.1247 
G01 X28.3900 Y21.0922 
G01 X28.3857 Y21.0592 
G01 X28.3802 Y21.0459 
G01 X28.3772 Y21.0319 
G01 X28.3621 Y21.0023 
G01 X28.3494 Y20.9715 
G01 X28.3407 Y20.9601 
G01 X28.3342 Y20.9474 
G01 X28.3119 Y20.9226 
G01 X28.2916 Y20.8962 
G01 X28.2802 Y20.8875 
G01 X28.2707 Y20.8768 
G01 X28.2428 Y20.8587 
G01 X28.2163 Y20.8385 
G01 X28.2031 Y20.8330 
G01 X28.1911 Y20.8252 
G01 X28.1594 Y20.8149 
G01 X28.1287 Y20.8021 
G01 X28.1145 Y20.8003 
G01 X27.7582 Y20.6845 
G01 X26.9530 Y20.0995 
G01 X26.3680 Y19.2943 
G01 X26.0604 Y18.3477 
G01 X26.0604 Y14.9232 
G01 X26.0358 Y14.8315 
G01 X25.9884 Y14.7494 
G01 X25.7997 Y14.5607 
G01 X25.7404 Y14.4175 
G01 X25.7404 Y9.1825  
G01 X25.7997 Y9.0393  
G01 X25.8960 Y8.9431  
G01 X25.9434 Y8.8609  
G01 X25.9551 Y8.8173  
G01 X25.9680 Y8.7692  
G01 X25.9680 Y8.6743  
G01 X25.9434 Y8.5827  
G01 X25.9157 Y8.5347  
G01 X25.8960 Y8.5005  
G01 X25.8289 Y8.4334  
G01 X25.3506 Y7.9551  
G01 X25.0979 Y7.3451  
G01 X25.0979 Y6.6849  
G01 X25.3506 Y6.0749  
G01 X25.8174 Y5.6081  
G01 X26.4274 Y5.3554  
G01 X27.0876 Y5.3554  
G01 X27.6976 Y5.6081  
G01 X28.1644 Y6.0749  
G01 X28.4171 Y6.6849  
G01 X28.4171 Y7.3451  
G01 X28.1644 Y7.9551  
G01 X28.1566 Y7.9629  
G01 X28.1116 Y8.0079  
G01 X28.0801 Y8.0625  
G01 X28.0642 Y8.0901  
G01 X28.0549 Y8.1245  
G01 X28.0396 Y8.1817  
G01 X28.0396 Y8.5574  
G01 X28.0642 Y8.6491  
G01 X28.1116 Y8.7313  
G01 X28.1787 Y8.7984  
G01 X28.2609 Y8.8458  
G01 X28.3525 Y8.8704  
G01 X28.7475 Y8.8704  
G01 X28.8907 Y8.9297  
G01 X29.0003 Y9.0393  
G01 X29.0596 Y9.1825  
G01 X29.0596 Y14.4175 
G01 X29.0003 Y14.5607 
G01 X28.8907 Y14.6703 
G01 X28.7475 Y14.7296 
G01 X28.3525 Y14.7296 
G01 X28.2609 Y14.7542 
G01 X28.1787 Y14.8016 
G01 X28.1116 Y14.8687 
G01 X28.0642 Y14.9509 
G01 X28.0396 Y15.0425 
G01 X28.0396 Y16.4728 
G01 X28.0396 Y16.5208 
G01 X28.0396 Y16.5672 
G01 X28.0520 Y16.6134 
G01 X28.0642 Y16.6589 
G01 X28.0880 Y16.7002 
G01 X28.1116 Y16.7410 
G01 X28.1456 Y16.7751 
G01 X28.1787 Y16.8081 
G01 X28.2198 Y16.8318 
G01 X28.2609 Y16.8556 
G01 X28.3072 Y16.8680 
G01 X28.3525 Y16.8801 
G01 X28.4011 Y16.8801 
G01 X28.4474 Y16.8801 
G01 X28.4937 Y16.8677 
G01 X28.5391 Y16.8556 
G01 X28.5804 Y16.8317 
G01 X28.6213 Y16.8081 
G01 X28.6546 Y16.7887 
G01 X28.6911 Y16.7789 
G01 X29.6996 Y16.7789 
G01 X29.6996 Y16.8121 
G01 X28.6880 Y16.8121 
G01 X28.6475 Y16.8289 
G01 X28.6164 Y16.8600 
G01 X28.5996 Y16.9005 
G01 X28.5996 Y18.5445 
G01 X28.6164 Y18.5850 
G01 X28.6475 Y18.6161 
G01 X28.6880 Y18.6329 
G01 X31.7320 Y18.6329 
G01 X31.7725 Y18.6161 
G01 X31.8036 Y18.5850 
G01 X31.8204 Y18.5445 
G01 X31.8204 Y18.2329 
G01 X31.8536 Y18.2329 
G01 X31.8536 Y18.5414 
G01 X31.8520 Y18.5474 
G01 X31.8402 Y18.5836 
G01 X31.8397 Y18.5931 
G01 X31.8373 Y18.6024 
G01 X31.8373 Y18.6404 
G01 X31.8353 Y18.6784 
G01 X31.8373 Y18.6877 
G01 X31.8373 Y18.6973 
G01 X31.8471 Y18.7340 
G01 X31.8550 Y18.7712 
G01 X31.8593 Y18.7797 
G01 X31.8618 Y18.7889 
G01 X31.8808 Y18.8218 
G01 X31.8981 Y18.8557 
G01 X31.9045 Y18.8628 
G01 X31.9093 Y18.8711 
G01 X31.9361 Y18.8980 
G01 X31.9616 Y18.9262 
G01 X31.9696 Y18.9315 
G01 X31.9764 Y18.9382 
G01 X32.0093 Y18.9572 
G01 X32.0412 Y18.9779 
G01 X32.0503 Y18.9809 
G01 X32.0585 Y18.9857 
G01 X32.0952 Y18.9955 
G01 X32.7601 Y19.2115 
G01 X33.2652 Y19.5785 
G01 X33.2787 Y19.5920 
G01 X33.3034 Y19.6063 
G01 X33.3265 Y19.6231 
G01 X33.3444 Y19.6299 
G01 X33.3609 Y19.6395 
G01 X33.3885 Y19.6468 
G01 X33.4151 Y19.6571 
G01 X33.4341 Y19.6591 
G01 X33.4526 Y19.6640 
G01 X33.4811 Y19.6640 
G01 X33.5095 Y19.6670 
G01 X33.5284 Y19.6640 
G01 X33.5474 Y19.6640 
G01 X33.5750 Y19.6566 
G01 X33.6032 Y19.6522 
G01 X33.6207 Y19.6444 
G01 X33.6391 Y19.6395 
G01 X33.6639 Y19.6252 
G01 X33.6899 Y19.6136 
G01 X33.7048 Y19.6015 
G01 X33.7213 Y19.5920 
G01 X33.7415 Y19.5718 
G01 X33.7637 Y19.5538 
G01 X33.7749 Y19.5384 
G01 X33.7884 Y19.5249 
G01 X33.8027 Y19.5002 
G01 X33.8195 Y19.4771 
G01 X33.8263 Y19.4593 
G01 X33.8358 Y19.4427 
G01 X33.8432 Y19.4151 
G01 X33.8535 Y19.3885 
G01 X33.8555 Y19.3695 
G01 X33.8604 Y19.3511 
G01 X33.8604 Y19.3225 
G01 X33.8634 Y19.2941 
G01 X33.8604 Y19.2753 
G01 X33.8604 Y17.3850 
G01 X33.9197 Y17.2418 
G01 X34.0293 Y17.1322 
G01 X34.1725 Y17.0729 
G01 X41.4775 Y17.0729 
G01 X41.6182 Y17.1312 
G01 X41.6238 Y17.1335 
G01 X41.7059 Y17.1675 
G01 X41.7639 Y17.1751 
G01 X41.8000 Y17.1799 
G01 X41.8338 Y17.1755 
G01 X41.8941 Y17.1675 
G01 X41.9817 Y17.1312 
G01 X42.1225 Y17.0729 
G01 X49.5675 Y17.0729 
G01 X49.7107 Y17.1322 
G01 X49.8203 Y17.2418 
G01 X49.8796 Y17.3850 
G01 X49.8796 Y27.0650 
G01 X49.8203 Y27.2082 
G01 X49.7107 Y27.3178 
G01 X49.5675 Y27.3771 
G01 X45.7595 Y27.3771 
G01 X45.6679 Y27.4017 
G01 X45.5857 Y27.4491 
G01 X45.5186 Y27.5162 
G01 X45.4712 Y27.5984 
G01 X45.4466 Y27.6900 
G01 X45.4466 Y28.8174 
G01 X45.4712 Y28.9091 
G01 X45.5186 Y28.9913 
G01 X45.5857 Y29.0584 
G01 X45.6679 Y29.1058 
G01 X45.7595 Y29.1304 
G01 X46.0475 Y29.1304 
G01 X46.1907 Y29.1897 
G01 X46.3003 Y29.2993 
G01 X46.3596 Y29.4425 
G01 X46.3596 Y31.1975 
G01 X46.3003 Y31.3407 
G01 X46.1907 Y31.4503 
G01 X46.0475 Y31.5096 
G01 X45.6146 Y31.5096 
G01 X45.5750 Y31.5202 
G01 X45.5229 Y31.5342 
G01 X45.4407 Y31.5816 
G01 X45.3736 Y31.6487 
G01 X45.3605 Y31.6714 
G01 X45.3262 Y31.7309 
G01 X45.3016 Y31.8225 
G01 X45.3016 Y31.9174 
G01 X45.3122 Y31.9570 
G01 X45.3262 Y32.0091 
G01 X45.3736 Y32.0913 
G01 X45.3896 Y32.1073 
G01 X45.3896 Y33.0927 
G01 X45.3736 Y33.1087 
G01 X45.3262 Y33.1909 
G01 X45.3118 Y33.2446 
G01 X45.3016 Y33.2825 
G01 X45.3016 Y33.3774 
G01 X45.3262 Y33.4691 
G01 X45.3613 Y33.5299 
G01 X45.3736 Y33.5513 
G01 X45.4407 Y33.6184 
G01 X45.5229 Y33.6658 
G01 X45.5767 Y33.6802 
G01 X45.6146 Y33.6904 
G01 X46.0475 Y33.6904 
G01 X46.1907 Y33.7497 
G01 X46.3003 Y33.8593 
G01 X46.3596 Y34.0025 
G01 X46.3596 Y35.7575 
G01 X46.2880 Y35.9302 
G01 X46.2761 Y35.9509 
G01 X46.2700 Y35.9739 
G01 X46.2608 Y35.9959 
G01 X46.2577 Y36.0195 
G01 X46.2516 Y36.0425 
G01 X46.2516 Y36.0664 
G01 X46.2484 Y36.0900 
G01 X46.2516 Y36.1136 
G01 X46.2516 Y36.1374 
G01 X46.2577 Y36.1605 
G01 X46.2608 Y36.1841 
G01 X46.2700 Y36.2061 
G01 X46.2761 Y36.2291 
G01 X46.2880 Y36.2497 
G01 X46.2971 Y36.2717 
G01 X46.3117 Y36.2907 
G01 X46.3236 Y36.3113 
G01 X46.3404 Y36.3281 
G01 X46.3549 Y36.3470 
G01 X46.3738 Y36.3615 
G01 X46.3907 Y36.3784 
G01 X46.4113 Y36.3903 
G01 X46.4302 Y36.4048 
G01 X46.4522 Y36.4139 
G01 X46.4728 Y36.4258 
G01 X46.4959 Y36.4320 
G01 X46.5179 Y36.4411 
G01 X46.5415 Y36.4442 
G01 X46.5645 Y36.4504 
G01 X46.5883 Y36.4504 
G01 X46.6120 Y36.4535 
G01 X46.6356 Y36.4504 
G01 X47.6094 Y36.4504 
G01 X47.6235 Y36.4530 
G01 X47.6567 Y36.4504 
G01 X47.6899 Y36.4504 
G01 X47.7038 Y36.4467 
G01 X47.7259 Y36.4449 
G01 X47.7686 Y36.4427 
G01 X47.7731 Y36.4412 
G01 X47.7779 Y36.4409 
G01 X47.8182 Y36.4266 
G01 X47.8915 Y36.4028 
G01 X47.9010 Y36.4018 
G01 X47.9365 Y36.3882 
G01 X47.9726 Y36.3764 
G01 X47.9807 Y36.3712 
G01 X47.9896 Y36.3678 
G01 X48.0204 Y36.3454 
G01 X48.0522 Y36.3247 
G01 X48.0586 Y36.3176 
G01 X48.0942 Y36.2918 
G01 X48.1029 Y36.2879 
G01 X48.1324 Y36.2640 
G01 X48.1632 Y36.2416 
G01 X48.1692 Y36.2342 
G01 X48.1767 Y36.2282 
G01 X48.1990 Y36.1974 
G01 X48.2229 Y36.1679 
G01 X48.2268 Y36.1592 
G01 X48.2526 Y36.1236 
G01 X48.2597 Y36.1172 
G01 X48.2804 Y36.0854 
G01 X48.3028 Y36.0546 
G01 X48.3062 Y36.0457 
G01 X48.3114 Y36.0376 
G01 X48.3231 Y36.0015 
G01 X48.3368 Y35.9660 
G01 X48.3378 Y35.9565 
G01 X48.3616 Y35.8832 
G01 X48.3759 Y35.8429 
G01 X48.3762 Y35.8381 
G01 X48.3777 Y35.8336 
G01 X48.3799 Y35.7909 
G01 X48.3817 Y35.7688 
G01 X48.3854 Y35.7550 
G01 X48.3854 Y35.7217 
G01 X48.3880 Y35.6885 
G01 X48.3854 Y35.6744 
G01 X48.3854 Y35.5407 
G01 X48.3608 Y35.4490 
G01 X48.3134 Y35.3669 
G01 X48.2463 Y35.2998 
G01 X48.1802 Y35.2337 
G01 X48.1209 Y35.0905 
G01 X48.1209 Y30.1095 
G01 X48.1802 Y29.9663 
G01 X48.2898 Y29.8567 
G01 X48.4330 Y29.7974 
G01 X54.3030 Y29.7974 
G01 X54.4462 Y29.8567 
G01 X54.5558 Y29.9663 
G01 X54.6151 Y30.1095 
G01 X54.6151 Y35.0905 
G01 X54.5558 Y35.2337 
G01 X54.4462 Y35.3433 
G01 X54.3030 Y35.4026 
G01 X50.7275 Y35.4026 
G01 X50.6359 Y35.4272 
G01 X50.5537 Y35.4746 
G01 X50.4866 Y35.5417 
G01 X50.4392 Y35.6239 
G01 X50.4146 Y35.7155 
G01 X50.4146 Y36.1465 
G01 X50.1432 Y36.9817 
G01 X49.6271 Y37.6921 
G01 X48.9167 Y38.2082 
G01 X48.0816 Y38.4796 
G01 X33.4701 Y38.4796 
G01 X32.5905 Y38.1938 
G01 X31.8423 Y37.6502 
G01 X31.2987 Y36.9020 
G01 X31.0129 Y36.0224 
G01 X31.0129 Y35.7155 
G01 X30.9883 Y35.6239 
G01 X30.9409 Y35.5417 
G01 X30.8738 Y35.4746 
G01 X30.7916 Y35.4272 
G01 X30.6999 Y35.4026 
G01 X28.9770 Y35.4026 
G01 X28.8338 Y35.3433 
G01 X28.7242 Y35.2337 
G01 X28.6649 Y35.0905 
G01 X28.6649 Y30.1095 
G01 X28.7242 Y29.9663 
G01 X28.8338 Y29.8567 
G01 X28.9770 Y29.7974 
G01 X30.6999 Y29.7974 
G01 X30.7916 Y29.7728 
G01 X30.8738 Y29.7254 
G01 X30.9409 Y29.6583 
G01 X30.9883 Y29.5761 
G01 X31.0129 Y29.4844 
G01 X31.0129 Y26.4682 
G01 X31.1239 Y26.2002 
G01 X31.1358 Y26.1795 
G01 X31.1420 Y26.1565 
G01 X31.1511 Y26.1345 
G01 X31.1542 Y26.1109 
G01 X31.1604 Y26.0878 
G01 X31.1604 Y26.0640 
G01 X31.1635 Y26.0404 
G01 X31.1604 Y26.0168 
G01 X31.1604 Y23.9787 
G01 X31.1645 Y23.9716 
G01 X31.1706 Y23.9486 
G01 X31.1798 Y23.9266 
G01 X31.1829 Y23.9030 
G01 X31.1890 Y23.8799 
G01 X31.1890 Y23.8561 
G01 X31.1921 Y23.8325 
G01 X31.1890 Y23.8089 
G01 X31.1890 Y23.7850 
G01 X31.1829 Y23.7620 
G01 X31.1798 Y23.7384 
G01 X31.1706 Y23.7164 
G01 X31.1645 Y23.6934 
G01 X31.1526 Y23.6728 
G01 X31.1435 Y23.6507 
G01 X31.1289 Y23.6318 
G01 X31.1170 Y23.6112 
G01 X31.1002 Y23.5944 
G01 X31.0857 Y23.5755 
G01 X31.0668 Y23.5610 
G01 X31.0499 Y23.5441 
G01 X31.0293 Y23.5322 
G01 X31.0104 Y23.5177 
G01 X30.9884 Y23.5086 
G01 X30.9677 Y23.4967 
G01 X30.9447 Y23.4905 
G01 X30.9227 Y23.4814 
G01 X30.8991 Y23.4783 
G01 X30.8761 Y23.4721 
G01 X30.8523 Y23.4721 
G01 X30.8286 Y23.4690 
G01 X30.8050 Y23.4721 
G01 X28.6325 Y23.4721 
G01 X28.4893 Y23.4128 
G01 X28.3797 Y23.3032 
G01 X28.3438 Y23.2164 
G01 X28.3376 Y23.1934 
G01 X28.3257 Y23.1727 
G01 X28.3166 Y23.1507 
G01 X28.3021 Y23.1318 
G01 X28.2902 Y23.1112 
G01 X28.2733 Y23.0944 
G01 X28.2588 Y23.0755 
G01 X28.2399 Y23.0610 
G01 X28.2230 Y23.0441 
G01 X28.2024 Y23.0322 
G01 X28.1835 Y23.0177 
G01 X28.1615 Y23.0086 
G01 X28.1409 Y22.9967 
G01 X28.1178 Y22.9905 
G01 X28.0958 Y22.9814 
G01 X28.0722 Y22.9783 
G01 X28.0492 Y22.9721 
G01 X28.0254 Y22.9721 
G01 X28.0018 Y22.9690 
G01 X27.9781 Y22.9721 
G01 X27.3050 Y22.9721 
G01 X27.2133 Y22.9967 
G01 X27.1311 Y23.0441 
G01 X21.8136 Y28.3616 
G01 X21.7465 Y28.4287 
G01 X21.6991 Y28.5109 
G01 X21.6745 Y28.6026 
G01 X21.6745 Y28.6974 
G01 X21.6991 Y28.7891 
G01 X21.7465 Y28.8713 
G01 X21.8136 Y28.9384 
G01 X21.8958 Y28.9858 
G01 X21.9875 Y29.0104 
G01 X22.4927 Y29.0104 
G01 X23.1896 Y29.7072 
G01 X23.1896 Y30.6927 
G01 X22.8707 Y31.0116 
G01 X22.8036 Y31.0787 
G01 X22.7562 Y31.1609 
G01 X22.7327 Y31.2487 
G01 X22.7316 Y31.2525 
G01 X22.7316 Y31.3474 
G01 X22.7562 Y31.4391 
G01 X22.8036 Y31.5213 
G01 X22.8180 Y31.5357 
G01 X22.8707 Y31.5884 
G01 X23.5896 Y32.3073 
G01 X23.5896 Y33.2927 
G01 X22.8927 Y33.9896 
G01 X21.9073 Y33.9896 
G01 X21.1665 Y33.2489 
G01 X21.1520 Y33.2300 
G01 X21.1331 Y33.2155 
G01 X21.1163 Y33.1986 
G01 X21.0956 Y33.1867 
G01 X21.0767 Y33.1722 
G01 X21.0547 Y33.1631 
G01 X21.0341 Y33.1512 
G01 X21.0111 Y33.1450 
G01 X20.9891 Y33.1359 
G01 X20.9654 Y33.1328 
G01 X20.9424 Y33.1266 
G01 X20.9186 Y33.1266 
G01 X20.8950 Y33.1235 
G01 X20.8714 Y33.1266 
G01 X20.8475 Y33.1266 
G01 X20.8245 Y33.1328 
G01 X20.8009 Y33.1359 
G01 X20.7789 Y33.1450 
G01 X20.7559 Y33.1512 
G01 X20.7352 Y33.1631 
G01 X20.7132 Y33.1722 
G01 X20.6943 Y33.1867 
G01 X20.6737 Y33.1986 
G01 X20.6568 Y33.2155 
G01 X20.6379 Y33.2300 
G01 X20.6234 Y33.2489 
G01 X20.6066 Y33.2657 
G01 X20.5947 Y33.2864 
G01 X20.5802 Y33.3053 
G01 X20.5711 Y33.3272 
G01 X20.5591 Y33.3479 
G01 X20.5530 Y33.3709 
G01 X20.5303 Y33.4257 
G01 X20.4207 Y33.5353 
G01 X20.2775 Y33.5946 
G01 X19.9168 Y33.5946 
G01 X19.8772 Y33.6052 
G01 X19.8251 Y33.6192 
G01 X19.7667 Y33.6528 
G01 X19.7429 Y33.6666 
G01 X19.5630 Y33.8465 
G01 X19.5493 Y33.8693 
G01 X19.5142 Y33.9301 
G01 X19.4896 Y34.0218 
G01 X19.4896 Y34.0596 
G01 X19.4865 Y34.0832 
G01 X19.4896 Y34.1068 
G01 X19.4896 Y34.1306 
G01 X19.4958 Y34.1536 
G01 X19.4989 Y34.1773 
G01 X19.5080 Y34.1993 
G01 X19.5142 Y34.2223 
G01 X19.5261 Y34.2429 
G01 X19.5352 Y34.2649 
G01 X19.5497 Y34.2838 
G01 X19.5616 Y34.3045 
G01 X19.5785 Y34.3213 
G01 X19.5930 Y34.3402 
G01 X19.6119 Y34.3547 
G01 X19.6287 Y34.3716 
G01 X19.6493 Y34.3835 
G01 X19.6682 Y34.3980 
G01 X19.6903 Y34.4071 
G01 X19.7109 Y34.4190 
G01 X19.7233 Y34.4224 
G01 X19.8303 Y34.5293 
G01 X19.8896 Y34.6725 
G01 X19.8896 Y36.3206 
G01 X19.8878 Y36.3238 
G01 X19.8816 Y36.3468 
G01 X19.8725 Y36.3688 
G01 X19.8694 Y36.3925 
G01 X19.8632 Y36.4155 
G01 X19.8632 Y36.4393 
G01 X19.8601 Y36.4629 
G01 X19.8632 Y36.4865 
G01 X19.8632 Y36.5104 
G01 X19.8694 Y36.5334 
G01 X19.8725 Y36.5570 
G01 X19.8816 Y36.5790 
G01 X19.8878 Y36.6020 
G01 X19.8997 Y36.6227 
G01 X19.9088 Y36.6447 
G01 X19.9233 Y36.6636 
G01 X19.9250 Y36.6666 
G01 X19.9896 Y36.8225 
G01 X19.9896 Y38.3775 
G01 X19.9303 Y38.5207 
G01 X19.8207 Y38.6303 
G01 X19.6775 Y38.6896 
G01 X18.1225 Y38.6896 
G01 X17.9793 Y38.6303 
G01 X17.8697 Y38.5207 
G01 X17.8104 Y38.3775 
G01 X17.8104 Y36.9525 
G01 X17.7858 Y36.8609 
G01 X17.7384 Y36.7787 
G01 X17.6713 Y36.7116 
G01 X17.5891 Y36.6642 
G01 X17.4974 Y36.6396 
G01 X16.5025 Y36.6396 
G01 X16.4109 Y36.6642 
G01 X16.3287 Y36.7116 
G01 X16.2616 Y36.7787 
G01 X16.2142 Y36.8609 
G01 X16.1896 Y36.9525 
G01 X16.1896 Y38.3775 
G01 X16.1303 Y38.5207 
G01 X16.0207 Y38.6303 
G01 X15.8775 Y38.6896 
G01 X14.3225 Y38.6896 
G01 X14.1793 Y38.6303 
G01 X14.0697 Y38.5207 
G01 X14.0104 Y38.3775 
G01 X14.0104 Y36.8225 
G01 X14.0697 Y36.6793 
G01 X14.1793 Y36.5697 
G01 X14.3225 Y36.5104 
G01 X14.4474 Y36.5104 
G01 X14.5391 Y36.4858 
G01 X14.6213 Y36.4384 
G01 X14.6884 Y36.3713 
G01 X14.7358 Y36.2891 
G01 X14.7604 Y36.1974 
G01 X14.7604 Y34.7525 
G01 X14.7358 Y34.6609 
G01 X14.6884 Y34.5787 
G01 X14.6213 Y34.5116 
G01 X14.5391 Y34.4642 
G01 X14.4474 Y34.4396 
G01 X12.6981 Y34.4396 
G01 X12.6501 Y34.4396 
G01 X12.6032 Y34.4396 
G01 X12.5782 Y34.4463 
G01 X12.5115 Y34.4642 
G01 X12.4294 Y34.5116 
G01 X12.4157 Y34.5253 
G01 X12.2725 Y34.5846 
G01 X11.1275 Y34.5846 
G01 X10.9843 Y34.5253 
G01 X10.8747 Y34.4157 
G01 X10.8154 Y34.2725 
G01 X10.8154 Y33.8575 
G01 X10.7908 Y33.7659 
G01 X10.7434 Y33.6837 
G01 X10.6763 Y33.6166 
G01 X10.5941 Y33.5692 
G01 X10.5024 Y33.5446 
G01 X10.3075 Y33.5446 
G01 X10.2159 Y33.5692 
G01 X10.1337 Y33.6166 
G01 X10.0666 Y33.6837 
G01 X10.0192 Y33.7659 
G01 X9.9946  Y33.8575 
G01 X9.9946  Y34.2725 
G01 X9.9353  Y34.4157 
G01 X9.8257  Y34.5253 
G01 X9.6825  Y34.5846 
G01 X8.5375  Y34.5846 
G01 X8.3965  Y34.5262 
G01 X8.3862  Y34.5128 
G01 X8.3673  Y34.4983 
G01 X8.3505  Y34.4815 
G01 X8.3298  Y34.4695 
G01 X8.3109  Y34.4550 
G01 X8.2889  Y34.4459 
G01 X8.2683  Y34.4340 
G01 X8.2453  Y34.4278 
G01 X8.2233  Y34.4187 
G01 X8.1997  Y34.4156 
G01 X8.1766  Y34.4094 
G01 X8.1528  Y34.4094 
G01 X8.1292  Y34.4063 
G01 X8.1056  Y34.4094 
G01 X8.0817  Y34.4094 
G01 X8.0587  Y34.4156 
G01 X8.0351  Y34.4187 
G01 X8.0131  Y34.4278 
G01 X7.9901  Y34.4340 
G01 X7.9694  Y34.4459 
G01 X7.9474  Y34.4550 
G01 X7.9285  Y34.4695 
G01 X7.9079  Y34.4815 
G01 X7.8911  Y34.4983 
G01 X7.8721  Y34.5128 
G01 X7.8576  Y34.5317 
G01 X7.8408  Y34.5486 
G01 X7.8289  Y34.5692 
G01 X7.8144  Y34.5881 
G01 X7.8053  Y34.6101 
G01 X7.7934  Y34.6307 
G01 X7.7872  Y34.6538 
G01 X7.7422  Y34.7623 
G01 X7.5452  Y34.9594 
G01 X6.6127  Y35.8918 
G01 X6.5456  Y35.9589 
G01 X6.4982  Y36.0411 
G01 X6.4736  Y36.1328 
G01 X6.4736  Y36.5391 
G01 X6.2983  Y36.9623 
G01 X5.9743  Y37.2863 
G01 X5.5511  Y37.4616 
G01 X3.5689  Y37.4616 
G01 X3.1457  Y37.2863 
G01 X2.8217  Y36.9623 
G01 X2.6464  Y36.5391 
G01 X2.6464  Y36.0809 
G01 X2.8217  Y35.6577 
G01 X3.1510  Y35.3284 
G01 X3.2181  Y35.2613 
G01 X3.2655  Y35.1791 
G01 X3.2891  Y35.0913 
G01 X3.2901  Y35.0874 
G01 X3.2901  Y34.9925 
G01 X3.2847  Y34.9724 
G01 X3.2655  Y34.9009 
G01 X3.2181  Y34.8187 
G01 X3.2106  Y34.8112 
G01 X3.1510  Y34.7516 
G01 X2.8217  Y34.4223 
G01 X2.6464  Y33.9991 
G01 X2.6464  Y33.6528 
G01 X2.6454  Y33.6489 
G01 X2.6218  Y33.5611 
G01 X2.5754  Y33.4807 
G01 X0.6213  Y31.5258 
G01 X0.5409  Y31.4794 
G01 X0.4474  Y31.4538 
G01 X0.3525  Y31.4538 
G01 X0.2609  Y31.4784 
G01 X0.1787  Y31.5258 
G01 X0.1116  Y31.5929 
G01 X0.0652  Y31.6733 
G01 X0.0396  Y31.7668 
G01 X0.0396  Y39.2474 
G01 X0.0642  Y39.3391 
G01 X0.1116  Y39.4213 
G01 X0.1787  Y39.4884 
G01 X0.2609  Y39.5358 
G01 X0.3525  Y39.5604 
G01 X57.0474 Y39.5604 
G01 X57.1391 Y39.5358 
G01 X57.2213 Y39.4884 
G01 X57.2884 Y39.4213 
G01 X57.3358 Y39.3391 
G01 X57.3604 Y39.2474 
G01 X57.3604 Y14.0747 
G01 X57.3635 Y14.0511 
G01 X57.3604 Y14.0275 
G01 X57.3604 Y14.0037 
G01 X57.3542 Y13.9806 
G01 X57.3511 Y13.9570 
G01 X57.3420 Y13.9350 
G01 X57.3358 Y13.9120 
G01 X57.3239 Y13.8913 
G01 X57.3148 Y13.8693 
G01 X57.3003 Y13.8504 
G01 X57.2884 Y13.8298 
G01 X57.2715 Y13.8130 
G01 X57.2570 Y13.7941 
G01 X57.2381 Y13.7796 
G01 X57.2213 Y13.7627 
G01 X57.2007 Y13.7508 
G01 X57.1818 Y13.7363 
G01 X57.1597 Y13.7272 
G01 X57.1391 Y13.7153 
G01 X57.1161 Y13.7091 
G01 X57.0941 Y13.7000 
G01 X57.0705 Y13.6969 
G01 X57.0474 Y13.6907 
G01 X57.0236 Y13.6907 
G01 X57.0000 Y13.6876 
G01 X56.9764 Y13.6907 
G01 X56.9526 Y13.6907 
G01 X56.9295 Y13.6969 
G01 X56.9059 Y13.7000 
G01 X56.8839 Y13.7091 
G01 X56.8609 Y13.7153 
G01 X56.8402 Y13.7272 
G01 X56.8182 Y13.7363 
G01 X56.7993 Y13.7508 
G01 X56.7787 Y13.7627 
G01 X56.7619 Y13.7796 
G01 X56.7430 Y13.7941 
G01 X56.7285 Y13.8130 
G01 X56.7116 Y13.8298 
G01 X56.6997 Y13.8504 
G01 X56.6852 Y13.8693 
G01 X56.6761 Y13.8913 
G01 X56.6642 Y13.9120 
G01 X56.6580 Y13.9350 
G01 X56.6019 Y14.0704 
G01 X56.0704 Y14.6019 
G01 X55.3759 Y14.8896 
G01 X54.6241 Y14.8896 
G01 X53.9296 Y14.6019 
G01 X53.3981 Y14.0704 
G01 X53.1104 Y13.3759 
G01 X53.1104 Y12.6241 
G01 X53.3981 Y11.9296 
G01 X53.9296 Y11.3981 
G01 X54.6241 Y11.1104 
G01 X55.3759 Y11.1104 
G01 X56.0704 Y11.3981 
G01 X56.6019 Y11.9296 
G01 X56.6580 Y12.0650 
G01 X56.6642 Y12.0880 
G01 X56.6761 Y12.1086 
G01 X56.6852 Y12.1306 
G01 X56.6997 Y12.1496 
G01 X56.7116 Y12.1702 
G01 X56.7285 Y12.1870 
G01 X56.7430 Y12.2059 
G01 X56.7619 Y12.2204 
G01 X56.7787 Y12.2373 
G01 X56.7993 Y12.2492 
G01 X56.8182 Y12.2637 
G01 X56.8403 Y12.2728 
G01 X56.8609 Y12.2847 
G01 X56.8839 Y12.2909 
G01 X56.9059 Y12.3000 
G01 X56.9295 Y12.3031 
G01 X56.9526 Y12.3093 
G01 X56.9764 Y12.3093 
G01 X57.0000 Y12.3124 
G01 X57.0236 Y12.3093 
G01 X57.0474 Y12.3093 
G01 X57.0704 Y12.3031 
G01 X57.0941 Y12.3000 
G01 X57.1161 Y12.2909 
G01 X57.1391 Y12.2847 
G01 X57.1597 Y12.2728 
G01 X57.1818 Y12.2637 
G01 X57.2007 Y12.2492 
G01 X57.2213 Y12.2373 
G01 X57.2381 Y12.2204 
G01 X57.2570 Y12.2059 
G01 X57.2715 Y12.1870 
G01 X57.2884 Y12.1702 
G01 X57.3003 Y12.1496 
G01 X57.3148 Y12.1306 
G01 X57.3239 Y12.1086 
G01 X57.3358 Y12.0880 
G01 X57.3420 Y12.0650 
G01 X57.3511 Y12.0430 
G01 X57.3542 Y12.0194 
G01 X57.3604 Y11.9963 
G01 X57.3604 Y11.9725 
G01 X57.3635 Y11.9489 
G01 X57.3604 Y11.9253 
G01 X57.3604 Y0.3525  
G01 X57.3358 Y0.2609  
G01 X57.2884 Y0.1787  
G01 X57.2213 Y0.1116  
G01 X57.1391 Y0.0642  
G01 X57.0474 Y0.0396  
G01 X33.7265 Y0.0396  
G01 X33.6349 Y0.0642  
G01 X33.5527 Y0.1116  
G01 X33.4856 Y0.1787  
G01 X33.4382 Y0.2609  
G01 X33.4136 Y0.3525  
G01 X33.4136 Y2.3896  
G01 X33.3804 Y2.3896  
G01 X33.3804 Y0.4380  
G01 X33.3636 Y0.3975  
G01 X33.3325 Y0.3664  
G01 X33.2920 Y0.3496  
G01 X30.7080 Y0.3496  
G01 X30.6675 Y0.3664  
G01 X30.6364 Y0.3975  
G01 X30.6196 Y0.4380  
G01 X30.6196 Y2.3896  
G01 X30.5864 Y2.3896  
G01 X30.5864 Y0.3525  
G01 X30.5618 Y0.2609  
G01 X30.5144 Y0.1787  
G01 X30.4473 Y0.1116  
G01 X30.3651 Y0.0642  
G01 X30.2734 Y0.0396  
G01 X24.0345 Y0.0396  
G01 X24.0143 Y0.0450  
G01 X23.9429 Y0.0642  
G01 X23.8607 Y0.1116  
G01 X23.7936 Y0.1787  
G01 X23.7461 Y0.2609  
G01 X23.7226 Y0.3487  
G01 X23.7216 Y0.3525  
G01 X23.7216 Y0.4475  
G01 X23.7270 Y0.4676  
G01 X23.7461 Y0.5391  
G01 X23.7936 Y0.6213  
G01 X23.7997 Y0.6274  
G01 X23.8607 Y0.6884  
G01 X24.1019 Y0.9296  
G01 X24.3896 Y1.6241  
G01 X24.3896 Y2.3759  
G01 X24.1019 Y3.0704  
G01 X23.5704 Y3.6019  
G01 X22.8759 Y3.8896  
G01 X22.1241 Y3.8896  
G01 X21.4296 Y3.6019  
G01 X20.8981 Y3.0704  
G01 X20.6104 Y2.3759  
G01 X20.6104 Y1.6241  
G01 X20.8981 Y0.9296  
G01 X21.1393 Y0.6884  
G01 X21.2064 Y0.6213  
G01 X21.2539 Y0.5391  
G01 X21.2784 Y0.4474  
G01 X21.2784 Y0.3525  
G01 X21.2539 Y0.2609  
G01 X21.2064 Y0.1787  
G01 X21.1393 Y0.1116  
G01 X21.0571 Y0.0642  
G01 X20.9655 Y0.0396  
G01 X0.4474  Y0.0396  
G01 X0.3525  Y0.0396  
G01 X0.2609  Y0.0642  
G01 X0.1787  Y0.1116  
G01 X0.1116  Y0.1787  
G00 Z1.0000  
G00 X1.6768  Y19.8401 
G01 Z-0.1000 F50    
G01 X1.7096  Y19.8212 F100   
G01 X1.7461  Y19.8114 
G01 X1.8996  Y19.8114 
G01 X1.8996  Y19.8446 
G01 X1.7430  Y19.8446 
G01 X1.7025  Y19.8614 
G01 X1.6714  Y19.8925 
G01 X1.6546  Y19.9330 
G01 X1.6546  Y19.9396 
G01 X1.6214  Y19.9396 
G01 X1.6214  Y19.9361 
G01 X1.6312  Y19.8996 
G01 X1.6501  Y19.8668 
G01 X1.6768  Y19.8401 
G00 Z1.0000  
G00 X1.7025  Y20.8114 
G01 Z-0.1000 F50    
G01 X1.6714  Y20.8425 F100   
G01 X1.6546  Y20.8830 
G01 X1.6546  Y21.6170 
G01 X1.6714  Y21.6575 
G01 X1.7025  Y21.6886 
G01 X1.7430  Y21.7054 
G01 X2.7770  Y21.7054 
G01 X2.8175  Y21.6886 
G01 X2.8486  Y21.6575 
G01 X2.8654  Y21.6170 
G01 X2.8654  Y21.6104 
G01 X3.2396  Y21.6104 
G01 X3.2396  Y23.8254 
G01 X3.2642  Y23.9171 
G01 X3.3116  Y23.9993 
G01 X3.8616  Y24.5493 
G01 X3.8616  Y24.9881 
G01 X3.4000  Y24.9881 
G01 X3.3595  Y25.0049 
G01 X3.3284  Y25.0360 
G01 X3.3116  Y25.0765 
G01 X3.3116  Y26.9235 
G01 X3.3284  Y26.9640 
G01 X3.3595  Y26.9951 
G01 X3.4000  Y27.0119 
G01 X5.0440  Y27.0119 
G01 X5.0845  Y26.9951 
G01 X5.1156  Y26.9640 
G01 X5.1324  Y26.9235 
G01 X5.1324  Y25.0765 
G01 X5.1156  Y25.0360 
G01 X5.0845  Y25.0049 
G01 X5.0440  Y24.9881 
G01 X4.5824  Y24.9881 
G01 X4.5824  Y24.3526 
G01 X4.5578  Y24.2609 
G01 X4.5104  Y24.1787 
G01 X4.4433  Y24.1116 
G01 X3.9604  Y23.6287 
G01 X3.9604  Y21.6104 
G01 X6.6896  Y21.6104 
G01 X6.6896  Y21.6270 
G01 X6.7064  Y21.6675 
G01 X6.7375  Y21.6986 
G01 X6.7780  Y21.7154 
G01 X8.0220  Y21.7154 
G01 X8.0625  Y21.6986 
G01 X8.0936  Y21.6675 
G01 X8.1104  Y21.6270 
G01 X8.1104  Y20.9830 
G01 X8.0936  Y20.9425 
G01 X8.0625  Y20.9114 
G01 X8.0220  Y20.8946 
G01 X7.4111  Y20.8946 
G01 X7.3924  Y20.8896 
G01 X5.7832  Y20.8896 
G01 X5.7391  Y20.8642 
G01 X5.6474  Y20.8396 
G01 X2.8457  Y20.8396 
G01 X2.8175  Y20.8114 
G01 X2.7770  Y20.7946 
G01 X1.7430  Y20.7946 
G01 X1.7025  Y20.8114 
G00 Z1.0000  
G00 X1.7025  Y21.7614 
G01 Z-0.1000 F50    
G01 X1.6714  Y21.7925 F100   
G01 X1.6546  Y21.8330 
G01 X1.6546  Y22.5670 
G01 X1.6714  Y22.6075 
G01 X1.7025  Y22.6386 
G01 X1.7430  Y22.6554 
G01 X2.7770  Y22.6554 
G01 X2.8175  Y22.6386 
G01 X2.8486  Y22.6075 
G01 X2.8654  Y22.5670 
G01 X2.8654  Y21.8330 
G01 X2.8486  Y21.7925 
G01 X2.8175  Y21.7614 
G01 X2.7770  Y21.7446 
G01 X1.7430  Y21.7446 
G01 X1.7025  Y21.7614 
G00 Z1.0000  
G00 X4.2614  Y21.7925 
G01 Z-0.1000 F50    
G01 X4.2446  Y21.8330 F100   
G01 X4.2446  Y22.5670 
G01 X4.2614  Y22.6075 
G01 X4.2925  Y22.6386 
G01 X4.3330  Y22.6554 
G01 X5.3670  Y22.6554 
G01 X5.4075  Y22.6386 
G01 X5.4386  Y22.6075 
G01 X5.4554  Y22.5670 
G01 X5.4554  Y22.5604 
G01 X8.6396  Y22.5604 
G01 X8.6396  Y25.5896 
G01 X8.5780  Y25.5896 
G01 X8.5375  Y25.6064 
G01 X8.5064  Y25.6375 
G01 X8.4896  Y25.6780 
G01 X8.4896  Y27.1220 
G01 X8.5064  Y27.1625 
G01 X8.5375  Y27.1936 
G01 X8.5780  Y27.2104 
G01 X9.2396  Y27.2104 
G01 X9.2396  Y27.4396 
G01 X5.4025  Y27.4396 
G01 X5.3109  Y27.4642 
G01 X5.2287  Y27.5116 
G01 X5.1616  Y27.5787 
G01 X4.9227  Y27.8176 
G01 X3.7121  Y27.8176 
G01 X3.5435  Y27.8511 
G01 X3.3848  Y27.9169 
G01 X3.2419  Y28.0124 
G01 X3.1204  Y28.1339 
G01 X3.0249  Y28.2768 
G01 X2.9591  Y28.4355 
G01 X2.9256  Y28.6041 
G01 X2.9256  Y28.7759 
G01 X2.9591  Y28.9445 
G01 X3.0249  Y29.1032 
G01 X3.1204  Y29.2461 
G01 X3.2419  Y29.3676 
G01 X3.3848  Y29.4631 
G01 X3.5435  Y29.5289 
G01 X3.7121  Y29.5624 
G01 X5.4079  Y29.5624 
G01 X5.5765  Y29.5289 
G01 X5.7352  Y29.4631 
G01 X5.8781  Y29.3676 
G01 X5.9996  Y29.2461 
G01 X6.0951  Y29.1032 
G01 X6.1609  Y28.9445 
G01 X6.1944  Y28.7759 
G01 X6.1944  Y28.6041 
G01 X6.1609  Y28.4355 
G01 X6.0951  Y28.2768 
G01 X6.0174  Y28.1604 
G01 X9.2396  Y28.1604 
G01 X9.2396  Y30.8474 
G01 X9.2642  Y30.9391 
G01 X9.3116  Y31.0213 
G01 X9.3787  Y31.0884 
G01 X9.4609  Y31.1358 
G01 X9.5526  Y31.1604 
G01 X12.8674 Y31.1604 
G01 X12.9591 Y31.1358 
G01 X13.0413 Y31.0884 
G01 X13.1084 Y31.0213 
G01 X13.3612 Y30.7684 
G01 X13.3780 Y30.7754 
G01 X14.6220 Y30.7754 
G01 X14.6582 Y30.7604 
G01 X15.0396 Y30.7604 
G01 X15.0396 Y33.4396 
G01 X12.2857 Y33.4396 
G01 X12.2575 Y33.4114 
G01 X12.2170 Y33.3946 
G01 X11.1830 Y33.3946 
G01 X11.1425 Y33.4114 
G01 X11.1114 Y33.4425 
G01 X11.0946 Y33.4830 
G01 X11.0946 Y34.2170 
G01 X11.1114 Y34.2575 
G01 X11.1425 Y34.2886 
G01 X11.1830 Y34.3054 
G01 X12.2170 Y34.3054 
G01 X12.2575 Y34.2886 
G01 X12.2886 Y34.2575 
G01 X12.3054 Y34.2170 
G01 X12.3054 Y34.1604 
G01 X15.0396 Y34.1604 
G01 X15.0396 Y36.4507 
G01 X14.8787 Y36.6116 
G01 X14.8116 Y36.6787 
G01 X14.7642 Y36.7609 
G01 X14.7565 Y36.7896 
G01 X14.3780 Y36.7896 
G01 X14.3375 Y36.8064 
G01 X14.3064 Y36.8375 
G01 X14.2896 Y36.8780 
G01 X14.2896 Y38.3220 
G01 X14.3064 Y38.3625 
G01 X14.3375 Y38.3936 
G01 X14.3780 Y38.4104 
G01 X15.8220 Y38.4104 
G01 X15.8625 Y38.3936 
G01 X15.8936 Y38.3625 
G01 X15.9104 Y38.3220 
G01 X15.9104 Y36.8780 
G01 X15.8936 Y36.8375 
G01 X15.8625 Y36.8064 
G01 X15.8220 Y36.7896 
G01 X15.7067 Y36.7896 
G01 X15.7358 Y36.7391 
G01 X15.7604 Y36.6474 
G01 X15.7604 Y30.3526 
G01 X15.7358 Y30.2609 
G01 X15.6884 Y30.1787 
G01 X15.6213 Y30.1116 
G01 X15.5391 Y30.0642 
G01 X15.4474 Y30.0396 
G01 X14.7090 Y30.0396 
G01 X14.6936 Y30.0025 
G01 X14.6625 Y29.9714 
G01 X14.6220 Y29.9546 
G01 X13.3780 Y29.9546 
G01 X13.3375 Y29.9714 
G01 X13.3064 Y30.0025 
G01 X13.2910 Y30.0396 
G01 X13.1725 Y30.0396 
G01 X13.0809 Y30.0642 
G01 X12.9987 Y30.1116 
G01 X12.6707 Y30.4396 
G01 X9.9604  Y30.4396 
G01 X9.9604  Y27.2104 
G01 X10.0220 Y27.2104 
G01 X10.0625 Y27.1936 
G01 X10.0936 Y27.1625 
G01 X10.1104 Y27.1220 
G01 X10.1104 Y25.6780 
G01 X10.0936 Y25.6375 
G01 X10.0625 Y25.6064 
G01 X10.0220 Y25.5896 
G01 X9.3604  Y25.5896 
G01 X9.3604  Y19.1526 
G01 X9.3358  Y19.0609 
G01 X9.2884  Y18.9787 
G01 X9.2213  Y18.9116 
G01 X8.7863  Y18.4766 
G01 X8.7041  Y18.4292 
G01 X8.6124  Y18.4046 
G01 X8.0945  Y18.4046 
G01 X8.0625  Y18.3714 
G01 X8.0220  Y18.3546 
G01 X6.7780  Y18.3546 
G01 X6.7375  Y18.3714 
G01 X6.7064  Y18.4025 
G01 X6.6896  Y18.4430 
G01 X6.6896  Y19.0870 
G01 X6.7064  Y19.1275 
G01 X6.7375  Y19.1586 
G01 X6.7780  Y19.1754 
G01 X8.0220  Y19.1754 
G01 X8.0625  Y19.1586 
G01 X8.0936  Y19.1275 
G01 X8.4157  Y19.1254 
G01 X8.6396  Y19.3493 
G01 X8.6396  Y21.8396 
G01 X5.4554  Y21.8396 
G01 X5.4554  Y21.8330 
G01 X5.4386  Y21.7925 
G01 X5.4075  Y21.7614 
G01 X5.3670  Y21.7446 
G01 X4.3330  Y21.7446 
G01 X4.2925  Y21.7614 
G01 X4.2614  Y21.7925 
G00 Z1.0000  
G00 X4.2925  Y20.7386 
G01 Z-0.1000 F50    
G01 X4.3330  Y20.7554 F100   
G01 X5.3670  Y20.7554 
G01 X5.4075  Y20.7386 
G01 X5.4386  Y20.7075 
G01 X5.4554  Y20.6670 
G01 X5.4554  Y20.3954 
G01 X6.7055  Y20.3954 
G01 X6.7375  Y20.4286 
G01 X6.7780  Y20.4454 
G01 X8.0220  Y20.4454 
G01 X8.0625  Y20.4286 
G01 X8.0936  Y20.3975 
G01 X8.1104  Y20.3570 
G01 X8.1104  Y19.7130 
G01 X8.0936  Y19.6725 
G01 X8.0625  Y19.6414 
G01 X8.0220  Y19.6246 
G01 X6.7780  Y19.6246 
G01 X6.7375  Y19.6414 
G01 X6.7064  Y19.6725 
G01 X5.0675  Y19.6746 
G01 X4.9759  Y19.6992 
G01 X4.8937  Y19.7466 
G01 X4.8266  Y19.8137 
G01 X4.7957  Y19.8446 
G01 X4.3330  Y19.8446 
G01 X4.2925  Y19.8614 
G01 X4.2614  Y19.8925 
G01 X4.2446  Y19.9330 
G01 X4.2446  Y20.6670 
G01 X4.2614  Y20.7075 
G01 X4.2925  Y20.7386 
G00 Z1.0000  
G00 X6.6691  Y17.1346 
G01 Z-0.1000 F50    
G01 X6.6851  Y17.1068 F100   
G01 X6.7118  Y17.0801 
G01 X6.7446  Y17.0612 
G01 X6.7811  Y17.0514 
G01 X7.0396  Y17.0514 
G01 X7.0396  Y17.0846 
G01 X6.7780  Y17.0846 
G01 X6.7375  Y17.1014 
G01 X6.7064  Y17.1325 
G01 X6.6691  Y17.1346 
G00 Z1.0000  
G00 X7.7604  Y17.0846 
G01 Z-0.1000 F50    
G01 X7.7604  Y17.0514 F100   
G01 X8.0189  Y17.0514 
G01 X8.0554  Y17.0612 
G01 X8.0882  Y17.0801 
G01 X8.1149  Y17.1068 
G01 X8.1309  Y17.1346 
G01 X8.0945  Y17.1346 
G01 X8.0625  Y17.1014 
G01 X8.0220  Y17.0846 
G01 X7.7604  Y17.0846 
G00 Z1.0000  
G00 X12.3064 Y17.1325 
G01 Z-0.1000 F50    
G01 X12.2896 Y17.1730 F100   
G01 X12.2896 Y17.8170 
G01 X12.3064 Y17.8575 
G01 X12.3375 Y17.8886 
G01 X12.3780 Y17.9054 
G01 X16.1590 Y17.9054 
G01 X16.2634 Y17.8774 
G01 X16.3570 Y17.8234 
G01 X16.6700 Y17.5104 
G01 X17.3771 Y17.5104 
G01 X17.9104 Y16.9771 
G01 X17.9104 Y16.2229 
G01 X17.3771 Y15.6896 
G01 X16.6229 Y15.6896 
G01 X16.0896 Y16.2229 
G01 X16.0896 Y16.9300 
G01 X15.9350 Y17.0846 
G01 X12.3780 Y17.0846 
G01 X12.3375 Y17.1014 
G01 X12.3064 Y17.1325 
G00 Z1.0000  
G00 X12.3064 Y18.4025 
G01 Z-0.1000 F50    
G01 X12.3055 Y18.4046 F100   
G01 X11.7875 Y18.4046 
G01 X11.6959 Y18.4292 
G01 X11.6137 Y18.4766 
G01 X11.5466 Y18.5437 
G01 X10.8616 Y19.2287 
G01 X10.8142 Y19.3109 
G01 X10.7896 Y19.4026 
G01 X10.7896 Y23.1396 
G01 X10.4780 Y23.1396 
G01 X10.4375 Y23.1564 
G01 X10.4064 Y23.1875 
G01 X10.3896 Y23.2280 
G01 X10.3896 Y24.7720 
G01 X10.4064 Y24.8125 
G01 X10.4375 Y24.8436 
G01 X10.4780 Y24.8604 
G01 X11.8220 Y24.8604 
G01 X11.8625 Y24.8436 
G01 X11.8936 Y24.8125 
G01 X11.9104 Y24.7720 
G01 X11.9104 Y23.2280 
G01 X11.8936 Y23.1875 
G01 X11.8625 Y23.1564 
G01 X11.8220 Y23.1396 
G01 X11.5104 Y23.1396 
G01 X11.5104 Y19.5993 
G01 X11.9843 Y19.1254 
G01 X12.3055 Y19.1254 
G01 X12.3375 Y19.1586 
G01 X12.3780 Y19.1754 
G01 X15.8896 Y19.1754 
G01 X15.8896 Y19.7771 
G01 X16.4229 Y20.3104 
G01 X17.1771 Y20.3104 
G01 X17.7104 Y19.7771 
G01 X17.7104 Y19.0229 
G01 X17.1771 Y18.4896 
G01 X16.4700 Y18.4896 
G01 X16.4170 Y18.4366 
G01 X16.3234 Y18.3826 
G01 X16.2190 Y18.3546 
G01 X12.3780 Y18.3546 
G01 X12.3375 Y18.3714 
G01 X12.3064 Y18.4025 
G00 Z1.0000  
G00 X12.3064 Y19.6725 
G01 Z-0.1000 F50    
G01 X12.2896 Y19.7130 F100   
G01 X12.2896 Y20.3570 
G01 X12.3064 Y20.3975 
G01 X12.3375 Y20.4286 
G01 X12.3780 Y20.4454 
G01 X14.2650 Y20.4454 
G01 X15.0896 Y21.2700 
G01 X15.0896 Y21.9771 
G01 X15.6229 Y22.5104 
G01 X16.3771 Y22.5104 
G01 X16.9104 Y21.9771 
G01 X16.9104 Y21.2229 
G01 X16.3771 Y20.6896 
G01 X15.6700 Y20.6896 
G01 X14.6870 Y19.7066 
G01 X14.5934 Y19.6526 
G01 X14.4890 Y19.6246 
G01 X12.3780 Y19.6246 
G01 X12.3375 Y19.6414 
G01 X12.3064 Y19.6725 
G00 Z1.0000  
G00 X12.3064 Y20.9425 
G01 Z-0.1000 F50    
G01 X12.2896 Y20.9830 F100   
G01 X12.2896 Y21.6270 
G01 X12.3064 Y21.6675 
G01 X12.3375 Y21.6986 
G01 X12.3780 Y21.7154 
G01 X12.6396 Y21.7154 
G01 X12.6396 Y23.1396 
G01 X12.3780 Y23.1396 
G01 X12.3375 Y23.1564 
G01 X12.3064 Y23.1875 
G01 X12.2896 Y23.2280 
G01 X12.2896 Y24.7720 
G01 X12.3064 Y24.8125 
G01 X12.3375 Y24.8436 
G01 X12.3780 Y24.8604 
G01 X12.6896 Y24.8604 
G01 X12.6896 Y25.5896 
G01 X12.3780 Y25.5896 
G01 X12.3375 Y25.6064 
G01 X12.3064 Y25.6375 
G01 X12.2896 Y25.6780 
G01 X12.2896 Y27.1220 
G01 X12.3064 Y27.1625 
G01 X12.3375 Y27.1936 
G01 X12.3780 Y27.2104 
G01 X13.8220 Y27.2104 
G01 X13.8625 Y27.1936 
G01 X13.8936 Y27.1625 
G01 X13.9104 Y27.1220 
G01 X13.9104 Y25.6780 
G01 X13.8936 Y25.6375 
G01 X13.8625 Y25.6064 
G01 X13.8220 Y25.5896 
G01 X13.4104 Y25.5896 
G01 X13.4104 Y24.8604 
G01 X13.7220 Y24.8604 
G01 X13.7625 Y24.8436 
G01 X13.7936 Y24.8125 
G01 X13.8104 Y24.7720 
G01 X13.8104 Y23.2280 
G01 X13.7936 Y23.1875 
G01 X13.7625 Y23.1564 
G01 X13.7220 Y23.1396 
G01 X13.3604 Y23.1396 
G01 X13.3604 Y21.7154 
G01 X13.6220 Y21.7154 
G01 X13.6625 Y21.6986 
G01 X13.6936 Y21.6675 
G01 X13.7104 Y21.6270 
G01 X13.7104 Y20.9830 
G01 X13.6936 Y20.9425 
G01 X13.6625 Y20.9114 
G01 X13.6220 Y20.8946 
G01 X12.3780 Y20.8946 
G01 X12.3375 Y20.9114 
G01 X12.3064 Y20.9425 
G00 Z1.0000  
G00 X11.8845 Y28.4049 
G01 Z-0.1000 F50    
G01 X11.8440 Y28.3881 F100   
G01 X10.2000 Y28.3881 
G01 X10.1595 Y28.4049 
G01 X10.1284 Y28.4360 
G01 X10.1116 Y28.4765 
G01 X10.1116 Y30.3235 
G01 X10.1284 Y30.3640 
G01 X10.1595 Y30.3951 
G01 X10.2000 Y30.4119 
G01 X11.8440 Y30.4119 
G01 X11.8845 Y30.3951 
G01 X11.9156 Y30.3640 
G01 X11.9324 Y30.3235 
G01 X11.9324 Y29.4554 
G01 X13.3055 Y29.4554 
G01 X13.3375 Y29.4886 
G01 X13.3780 Y29.5054 
G01 X14.6220 Y29.5054 
G01 X14.6625 Y29.4886 
G01 X14.6936 Y29.4575 
G01 X14.7104 Y29.4170 
G01 X14.7104 Y28.7730 
G01 X14.6936 Y28.7325 
G01 X14.6625 Y28.7014 
G01 X14.6220 Y28.6846 
G01 X13.3780 Y28.6846 
G01 X13.3375 Y28.7014 
G01 X13.3064 Y28.7325 
G01 X11.9324 Y28.7346 
G01 X11.9324 Y28.4765 
G01 X11.9156 Y28.4360 
G01 X11.8845 Y28.4049 
G00 Z1.0000  
G00 X11.8759 Y31.2992 
G01 Z-0.1000 F50    
G01 X11.7937 Y31.3466 F100   
G01 X11.7266 Y31.4137 
G01 X11.6457 Y31.4946 
G01 X11.1830 Y31.4946 
G01 X11.1425 Y31.5114 
G01 X11.1114 Y31.5425 
G01 X11.0946 Y31.5830 
G01 X11.0946 Y32.3170 
G01 X11.1114 Y32.3575 
G01 X11.1425 Y32.3886 
G01 X11.1830 Y32.4054 
G01 X12.2170 Y32.4054 
G01 X12.2575 Y32.3886 
G01 X12.2886 Y32.3575 
G01 X12.3054 Y32.3170 
G01 X12.3054 Y31.9954 
G01 X13.3055 Y31.9954 
G01 X13.3375 Y32.0286 
G01 X13.3780 Y32.0454 
G01 X14.6220 Y32.0454 
G01 X14.6625 Y32.0286 
G01 X14.6936 Y31.9975 
G01 X14.7104 Y31.9570 
G01 X14.7104 Y31.3130 
G01 X14.6936 Y31.2725 
G01 X14.6625 Y31.2414 
G01 X14.6220 Y31.2246 
G01 X13.3780 Y31.2246 
G01 X13.3375 Y31.2414 
G01 X13.3064 Y31.2725 
G01 X11.9675 Y31.2746 
G01 X11.8759 Y31.2992 
G00 Z1.0000  
G00 X13.3064 Y32.5425 
G01 Z-0.1000 F50    
G01 X13.3055 Y32.5446 F100   
G01 X9.7154  Y32.5446 
G01 X9.7154  Y32.5330 
G01 X9.6986  Y32.4925 
G01 X9.6675  Y32.4614 
G01 X9.6270  Y32.4446 
G01 X8.5930  Y32.4446 
G01 X8.5525  Y32.4614 
G01 X8.5214  Y32.4925 
G01 X8.5046  Y32.5330 
G01 X8.5046  Y32.5396 
G01 X7.6525  Y32.5396 
G01 X7.5609  Y32.5642 
G01 X7.4787  Y32.6116 
G01 X7.4116  Y32.6787 
G01 X6.9116  Y33.1787 
G01 X6.8642  Y33.2609 
G01 X6.8396  Y33.3526 
G01 X6.8396  Y34.2507 
G01 X5.6067  Y35.4836 
G01 X5.5765  Y35.4711 
G01 X5.4079  Y35.4376 
G01 X3.7121  Y35.4376 
G01 X3.5435  Y35.4711 
G01 X3.3848  Y35.5369 
G01 X3.2419  Y35.6324 
G01 X3.1204  Y35.7539 
G01 X3.0249  Y35.8968 
G01 X2.9591  Y36.0555 
G01 X2.9256  Y36.2241 
G01 X2.9256  Y36.3959 
G01 X2.9591  Y36.5645 
G01 X3.0249  Y36.7232 
G01 X3.1204  Y36.8661 
G01 X3.2419  Y36.9876 
G01 X3.3848  Y37.0831 
G01 X3.5435  Y37.1489 
G01 X3.7121  Y37.1824 
G01 X5.4079  Y37.1824 
G01 X5.5765  Y37.1489 
G01 X5.7352  Y37.0831 
G01 X5.8781  Y36.9876 
G01 X5.9996  Y36.8661 
G01 X6.0951  Y36.7232 
G01 X6.1609  Y36.5645 
G01 X6.1944  Y36.3959 
G01 X6.1944  Y36.2241 
G01 X6.1609  Y36.0555 
G01 X6.1296  Y35.9801 
G01 X7.4213  Y34.6884 
G01 X7.4884  Y34.6213 
G01 X7.5358  Y34.5391 
G01 X7.5604  Y34.4474 
G01 X7.5604  Y33.5493 
G01 X7.8493  Y33.2604 
G01 X8.5046  Y33.2604 
G01 X8.5046  Y33.2670 
G01 X8.5214  Y33.3075 
G01 X8.5525  Y33.3386 
G01 X8.5930  Y33.3554 
G01 X9.6270  Y33.3554 
G01 X9.6675  Y33.3386 
G01 X9.6986  Y33.3075 
G01 X9.7154  Y33.2670 
G01 X13.3055 Y33.2654 
G01 X13.3375 Y33.2986 
G01 X13.3780 Y33.3154 
G01 X14.6220 Y33.3154 
G01 X14.6625 Y33.2986 
G01 X14.6936 Y33.2675 
G01 X14.7104 Y33.2270 
G01 X14.7104 Y32.5830 
G01 X14.6936 Y32.5425 
G01 X14.6625 Y32.5114 
G01 X14.6220 Y32.4946 
G01 X13.3780 Y32.4946 
G01 X13.3375 Y32.5114 
G01 X13.3064 Y32.5425 
G00 Z1.0000  
G00 X9.6675  Y33.4114 
G01 Z-0.1000 F50    
G01 X9.6270  Y33.3946 F100   
G01 X8.5930  Y33.3946 
G01 X8.5525  Y33.4114 
G01 X8.5214  Y33.4425 
G01 X8.5046  Y33.4830 
G01 X8.5046  Y34.2170 
G01 X8.5214  Y34.2575 
G01 X8.5525  Y34.2886 
G01 X8.5930  Y34.3054 
G01 X9.6270  Y34.3054 
G01 X9.6675  Y34.2886 
G01 X9.6986  Y34.2575 
G01 X9.7154  Y34.2170 
G01 X9.7154  Y33.4830 
G01 X9.6986  Y33.4425 
G01 X9.6675  Y33.4114 
G00 Z1.0000  
G00 X6.1609  Y33.5155 
G01 Z-0.1000 F50    
G01 X6.0951  Y33.3568 F100   
G01 X5.9996  Y33.2139 
G01 X5.8781  Y33.0924 
G01 X5.7352  Y32.9969 
G01 X5.5765  Y32.9311 
G01 X5.4079  Y32.8976 
G01 X3.7121  Y32.8976 
G01 X3.5435  Y32.9311 
G01 X3.4709  Y32.9612 
G01 X1.3604  Y30.8507 
G01 X1.3604  Y27.0119 
G01 X2.2000  Y27.0119 
G01 X2.2405  Y26.9951 
G01 X2.2716  Y26.9640 
G01 X2.2884  Y26.9235 
G01 X2.2884  Y25.0765 
G01 X2.2716  Y25.0360 
G01 X2.2405  Y25.0049 
G01 X2.2000  Y24.9881 
G01 X0.5560  Y24.9881 
G01 X0.5155  Y25.0049 
G01 X0.4844  Y25.0360 
G01 X0.4676  Y25.0765 
G01 X0.4676  Y26.9235 
G01 X0.4844  Y26.9640 
G01 X0.5155  Y26.9951 
G01 X0.5560  Y27.0119 
G01 X0.6396  Y27.0119 
G01 X0.6396  Y31.0474 
G01 X0.6642  Y31.1391 
G01 X0.7116  Y31.2213 
G01 X2.9728  Y33.4825 
G01 X2.9591  Y33.5155 
G01 X2.9256  Y33.6841 
G01 X2.9256  Y33.8559 
G01 X2.9591  Y34.0245 
G01 X3.0249  Y34.1832 
G01 X3.1204  Y34.3261 
G01 X3.2419  Y34.4476 
G01 X3.3848  Y34.5431 
G01 X3.5435  Y34.6089 
G01 X3.7121  Y34.6424 
G01 X5.4079  Y34.6424 
G01 X5.5765  Y34.6089 
G01 X5.7352  Y34.5431 
G01 X5.8781  Y34.4476 
G01 X5.9996  Y34.3261 
G01 X6.0951  Y34.1832 
G01 X6.1609  Y34.0245 
G01 X6.1944  Y33.8559 
G01 X6.1944  Y33.6841 
G01 X6.1609  Y33.5155 
G00 Z1.0000  
G00 X7.2631  Y30.3897 
G01 Z-0.1000 F50    
G01 X7.2442  Y30.3569 F100   
G01 X7.2344  Y30.3204 
G01 X7.2344  Y29.9104 
G01 X7.2676  Y29.9104 
G01 X7.2676  Y30.3235 
G01 X7.2844  Y30.3640 
G01 X7.3155  Y30.3951 
G01 X7.3560  Y30.4119 
G01 X7.6676  Y30.4119 
G01 X7.6676  Y30.4451 
G01 X7.3591  Y30.4451 
G01 X7.3226  Y30.4353 
G01 X7.2898  Y30.4164 
G01 X7.2631  Y30.3897 
G00 Z1.0000  
G00 X16.6616 Y30.8287 
G01 Z-0.1000 F50    
G01 X16.6142 Y30.9109 F100   
G01 X16.5896 Y31.0025 
G01 X16.5896 Y34.6396 
G01 X16.2780 Y34.6396 
G01 X16.2375 Y34.6564 
G01 X16.2064 Y34.6875 
G01 X16.1896 Y34.7280 
G01 X16.1896 Y36.2720 
G01 X16.2064 Y36.3125 
G01 X16.2375 Y36.3436 
G01 X16.2780 Y36.3604 
G01 X17.6220 Y36.3604 
G01 X17.6625 Y36.3436 
G01 X17.6936 Y36.3125 
G01 X17.7104 Y36.2720 
G01 X17.7104 Y34.7280 
G01 X17.6936 Y34.6875 
G01 X17.6625 Y34.6564 
G01 X17.6220 Y34.6396 
G01 X17.3104 Y34.6396 
G01 X17.3104 Y31.1993 
G01 X17.7493 Y30.7604 
G01 X18.9418 Y30.7604 
G01 X18.9780 Y30.7754 
G01 X21.2879 Y30.7754 
G01 X21.6229 Y31.1104 
G01 X22.3771 Y31.1104 
G01 X22.9104 Y30.5771 
G01 X22.9104 Y29.8229 
G01 X22.3771 Y29.2896 
G01 X21.6229 Y29.2896 
G01 X21.0896 Y29.8229 
G01 X21.0896 Y29.9546 
G01 X18.9780 Y29.9546 
G01 X18.9375 Y29.9714 
G01 X18.9064 Y30.0025 
G01 X18.8910 Y30.0396 
G01 X17.5526 Y30.0396 
G01 X17.4609 Y30.0642 
G01 X17.3787 Y30.1116 
G01 X17.3116 Y30.1787 
G01 X16.6616 Y30.8287 
G00 Z1.0000  
G00 X18.9064 Y31.2725 
G01 Z-0.1000 F50    
G01 X18.8896 Y31.3130 F100   
G01 X18.8896 Y31.9570 
G01 X18.9064 Y31.9975 
G01 X18.9375 Y32.0286 
G01 X18.9780 Y32.0454 
G01 X21.0650 Y32.0454 
G01 X21.4896 Y32.4700 
G01 X21.4896 Y33.1771 
G01 X22.0229 Y33.7104 
G01 X22.7771 Y33.7104 
G01 X23.3104 Y33.1771 
G01 X23.3104 Y32.4229 
G01 X22.7771 Y31.8896 
G01 X22.0700 Y31.8896 
G01 X21.4870 Y31.3066 
G01 X21.3934 Y31.2526 
G01 X21.2890 Y31.2246 
G01 X18.9780 Y31.2246 
G01 X18.9375 Y31.2414 
G01 X18.9064 Y31.2725 
G00 Z1.0000  
G00 X18.9064 Y32.5425 
G01 Z-0.1000 F50    
G01 X18.8896 Y32.5830 F100   
G01 X18.8896 Y33.1057 
G01 X18.5616 Y33.4337 
G01 X18.5142 Y33.5159 
G01 X18.4896 Y33.6076 
G01 X18.4896 Y34.6396 
G01 X18.1780 Y34.6396 
G01 X18.1375 Y34.6564 
G01 X18.1064 Y34.6875 
G01 X18.0896 Y34.7280 
G01 X18.0896 Y36.2720 
G01 X18.1064 Y36.3125 
G01 X18.1375 Y36.3436 
G01 X18.1780 Y36.3604 
G01 X18.5396 Y36.3604 
G01 X18.5396 Y36.7896 
G01 X18.1780 Y36.7896 
G01 X18.1375 Y36.8064 
G01 X18.1064 Y36.8375 
G01 X18.0896 Y36.8780 
G01 X18.0896 Y38.3220 
G01 X18.1064 Y38.3625 
G01 X18.1375 Y38.3936 
G01 X18.1780 Y38.4104 
G01 X19.6220 Y38.4104 
G01 X19.6625 Y38.3936 
G01 X19.6936 Y38.3625 
G01 X19.7104 Y38.3220 
G01 X19.7104 Y36.8780 
G01 X19.6936 Y36.8375 
G01 X19.6625 Y36.8064 
G01 X19.6220 Y36.7896 
G01 X19.2604 Y36.7896 
G01 X19.2604 Y36.3604 
G01 X19.5220 Y36.3604 
G01 X19.5625 Y36.3436 
G01 X19.5936 Y36.3125 
G01 X19.6104 Y36.2720 
G01 X19.6104 Y34.7280 
G01 X19.5936 Y34.6875 
G01 X19.5625 Y34.6564 
G01 X19.5220 Y34.6396 
G01 X19.2104 Y34.6396 
G01 X19.2104 Y33.8043 
G01 X19.6993 Y33.3154 
G01 X20.2220 Y33.3154 
G01 X20.2625 Y33.2986 
G01 X20.2936 Y33.2675 
G01 X20.3104 Y33.2270 
G01 X20.3104 Y32.5830 
G01 X20.2936 Y32.5425 
G01 X20.2625 Y32.5114 
G01 X20.2220 Y32.4946 
G01 X18.9780 Y32.4946 
G01 X18.9375 Y32.5114 
G01 X18.9064 Y32.5425 
G00 Z1.0000  
G00 X18.9375 Y29.4886 
G01 Z-0.1000 F50    
G01 X18.9780 Y29.5054 F100   
G01 X20.2220 Y29.5054 
G01 X20.2625 Y29.4886 
G01 X20.2877 Y29.4634 
G01 X20.3570 Y29.4234 
G01 X27.0875 Y22.6929 
G01 X28.5996 Y22.6929 
G01 X28.5996 Y23.1045 
G01 X28.6164 Y23.1450 
G01 X28.6475 Y23.1761 
G01 X28.6880 Y23.1929 
G01 X31.7320 Y23.1929 
G01 X31.7725 Y23.1761 
G01 X31.8036 Y23.1450 
G01 X31.8204 Y23.1045 
G01 X31.8204 Y21.4605 
G01 X31.8036 Y21.4200 
G01 X31.7725 Y21.3889 
G01 X31.7320 Y21.3721 
G01 X28.6880 Y21.3721 
G01 X28.6475 Y21.3889 
G01 X28.6164 Y21.4200 
G01 X28.5996 Y21.4605 
G01 X28.5996 Y21.8721 
G01 X26.8635 Y21.8721 
G01 X26.7591 Y21.9001 
G01 X26.6655 Y21.9541 
G01 X26.5891 Y22.0305 
G01 X19.9350 Y28.6846 
G01 X18.9780 Y28.6846 
G01 X18.9375 Y28.7014 
G01 X18.9064 Y28.7325 
G01 X18.8896 Y28.7730 
G01 X18.8896 Y29.4170 
G01 X18.9064 Y29.4575 
G01 X18.9375 Y29.4886 
G00 Z1.0000  
G00 X28.9609 Y30.1245 
G01 Z-0.1000 F50    
G01 X28.9441 Y30.1650 F100   
G01 X28.9441 Y35.0350 
G01 X28.9609 Y35.0755 
G01 X28.9920 Y35.1066 
G01 X29.0325 Y35.1234 
G01 X31.2921 Y35.1234 
G01 X31.2921 Y35.7083 
G01 X31.3253 Y36.0030 
G01 X31.3913 Y36.2921 
G01 X31.4892 Y36.5720 
G01 X31.6179 Y36.8392 
G01 X31.7757 Y37.0903 
G01 X31.9606 Y37.3222 
G01 X32.1703 Y37.5319 
G01 X32.4022 Y37.7168 
G01 X32.6533 Y37.8746 
G01 X32.9205 Y38.0033 
G01 X33.2004 Y38.1012 
G01 X33.4895 Y38.1672 
G01 X33.7842 Y38.2004 
G01 X47.7149 Y38.2004 
G01 X47.7933 Y38.2004 
G01 X48.0927 Y38.1640 
G01 X48.3855 Y38.0919 
G01 X48.6675 Y37.9849 
G01 X48.9345 Y37.8448 
G01 X49.1827 Y37.6735 
G01 X49.4085 Y37.4735 
G01 X49.6084 Y37.2477 
G01 X49.7798 Y36.9995 
G01 X49.9199 Y36.7325 
G01 X50.0269 Y36.4505 
G01 X50.0990 Y36.1577 
G01 X50.1354 Y35.8583 
G01 X50.1354 Y35.1234 
G01 X54.2475 Y35.1234 
G01 X54.2880 Y35.1066 
G01 X54.3191 Y35.0755 
G01 X54.3359 Y35.0350 
G01 X54.3359 Y30.1650 
G01 X54.3191 Y30.1245 
G01 X54.2880 Y30.0934 
G01 X54.2475 Y30.0766 
G01 X48.4885 Y30.0766 
G01 X48.4480 Y30.0934 
G01 X48.4169 Y30.1245 
G01 X48.4001 Y30.1650 
G01 X48.4001 Y35.0350 
G01 X48.4169 Y35.0755 
G01 X48.4480 Y35.1066 
G01 X48.4885 Y35.1234 
G01 X48.6646 Y35.1234 
G01 X48.6646 Y35.7075 
G01 X48.6627 Y35.7692 
G01 X48.6479 Y35.8917 
G01 X48.6183 Y36.0116 
G01 X48.5746 Y36.1270 
G01 X48.5172 Y36.2363 
G01 X48.4471 Y36.3379 
G01 X48.3652 Y36.4302 
G01 X48.2728 Y36.5121 
G01 X48.1713 Y36.5822 
G01 X48.0620 Y36.6396 
G01 X47.9466 Y36.6833 
G01 X47.8267 Y36.7129 
G01 X47.7042 Y36.7277 
G01 X47.6425 Y36.7296 
G01 X33.9325 Y36.7296 
G01 X33.8669 Y36.7278 
G01 X33.7366 Y36.7131 
G01 X33.6087 Y36.6839 
G01 X33.4849 Y36.6406 
G01 X33.3667 Y36.5837 
G01 X33.2557 Y36.5139 
G01 X33.1531 Y36.4321 
G01 X33.0604 Y36.3394 
G01 X32.9786 Y36.2368 
G01 X32.9088 Y36.1258 
G01 X32.8519 Y36.0076 
G01 X32.8086 Y35.8838 
G01 X32.7794 Y35.7559 
G01 X32.7647 Y35.6256 
G01 X32.7629 Y35.5600 
G01 X32.7629 Y35.1234 
G01 X34.7915 Y35.1234 
G01 X34.8320 Y35.1066 
G01 X34.8631 Y35.0755 
G01 X34.8799 Y35.0350 
G01 X34.8799 Y30.1650 
G01 X34.8631 Y30.1245 
G01 X34.8320 Y30.0934 
G01 X34.7915 Y30.0766 
G01 X32.7629 Y30.0766 
G01 X32.7629 Y26.9746 
G01 X33.4488 Y26.2887 
G01 X33.5512 Y26.1863 
G01 X33.6317 Y26.0658 
G01 X33.6871 Y25.9320 
G01 X33.7154 Y25.7899 
G01 X33.7154 Y21.1411 
G01 X33.6811 Y20.8804 
G01 X33.6130 Y20.6265 
G01 X33.5124 Y20.3836 
G01 X33.3810 Y20.1560 
G01 X33.2210 Y19.9474 
G01 X33.0351 Y19.7615 
G01 X32.8265 Y19.6015 
G01 X32.5989 Y19.4701 
G01 X32.3560 Y19.3695 
G01 X32.1021 Y19.3014 
G01 X31.8414 Y19.2671 
G01 X31.6376 Y19.2671 
G01 X31.5119 Y19.2921 
G01 X29.2025 Y19.2921 
G01 X29.1216 Y19.2898 
G01 X28.9609 Y19.2717 
G01 X28.8033 Y19.2357 
G01 X28.6506 Y19.1823 
G01 X28.5049 Y19.1122 
G01 X28.3680 Y19.0261 
G01 X28.2416 Y18.9253 
G01 X28.1272 Y18.8109 
G01 X28.0264 Y18.6845 
G01 X27.9403 Y18.5476 
G01 X27.8702 Y18.4019 
G01 X27.8168 Y18.2492 
G01 X27.7808 Y18.0916 
G01 X27.7627 Y17.9309 
G01 X27.7604 Y17.8500 
G01 X27.7604 Y14.4504 
G01 X28.6920 Y14.4504 
G01 X28.7325 Y14.4336 
G01 X28.7636 Y14.4025 
G01 X28.7804 Y14.3620 
G01 X28.7804 Y9.2380  
G01 X28.7636 Y9.1975  
G01 X28.7325 Y9.1664  
G01 X28.6920 Y9.1496  
G01 X27.7604 Y9.1496  
G01 X27.7604 Y7.9643  
G01 X27.8104 Y7.9143  
G01 X27.9381 Y7.7385  
G01 X28.0368 Y7.5449  
G01 X28.1039 Y7.3382  
G01 X28.1379 Y7.1236  
G01 X28.1379 Y6.9064  
G01 X28.1039 Y6.6918  
G01 X28.0368 Y6.4851  
G01 X27.9381 Y6.2915  
G01 X27.8104 Y6.1157  
G01 X27.6568 Y5.9621  
G01 X27.4810 Y5.8344  
G01 X27.2874 Y5.7357  
G01 X27.0807 Y5.6686  
G01 X26.8661 Y5.6346  
G01 X26.6489 Y5.6346  
G01 X26.4343 Y5.6686  
G01 X26.2276 Y5.7357  
G01 X26.0340 Y5.8344  
G01 X25.8582 Y5.9621  
G01 X25.7046 Y6.1157  
G01 X25.5769 Y6.2915  
G01 X25.4782 Y6.4851  
G01 X25.4111 Y6.6918  
G01 X25.3771 Y6.9064  
G01 X25.3771 Y7.1236  
G01 X25.4111 Y7.3382  
G01 X25.4782 Y7.5449  
G01 X25.5769 Y7.7385  
G01 X25.7046 Y7.9143  
G01 X25.8582 Y8.0679  
G01 X26.0340 Y8.1956  
G01 X26.2276 Y8.2943  
G01 X26.3396 Y8.3307  
G01 X26.3396 Y9.1496  
G01 X26.1080 Y9.1496  
G01 X26.0675 Y9.1664  
G01 X26.0364 Y9.1975  
G01 X26.0196 Y9.2380  
G01 X26.0196 Y14.3620 
G01 X26.0364 Y14.4025 
G01 X26.0675 Y14.4336 
G01 X26.1080 Y14.4504 
G01 X26.3396 Y14.4504 
G01 X26.3396 Y18.0108 
G01 X26.3756 Y18.3303 
G01 X26.4472 Y18.6438 
G01 X26.5534 Y18.9473 
G01 X26.6929 Y19.2370 
G01 X26.8639 Y19.5093 
G01 X27.0644 Y19.7607 
G01 X27.2918 Y19.9881 
G01 X27.5432 Y20.1885 
G01 X27.8155 Y20.3596 
G01 X28.1052 Y20.4991 
G01 X28.4087 Y20.6053 
G01 X28.7222 Y20.6769 
G01 X29.0417 Y20.7129 
G01 X31.5119 Y20.7129 
G01 X31.6376 Y20.7379 
G01 X31.7100 Y20.7379 
G01 X31.7450 Y20.7390 
G01 X31.8143 Y20.7482 
G01 X31.8818 Y20.7663 
G01 X31.9464 Y20.7930 
G01 X32.0070 Y20.8280 
G01 X32.0625 Y20.8706 
G01 X32.1119 Y20.9200 
G01 X32.1545 Y20.9755 
G01 X32.1895 Y21.0360 
G01 X32.2162 Y21.1007 
G01 X32.2343 Y21.1682 
G01 X32.2435 Y21.2375 
G01 X32.2446 Y21.2725 
G01 X32.2446 Y23.3396 
G01 X32.2153 Y23.3396 
G01 X32.0490 Y23.3727 
G01 X31.8924 Y23.4375 
G01 X31.7515 Y23.5317 
G01 X31.6317 Y23.6515 
G01 X31.5375 Y23.7924 
G01 X31.4727 Y23.9490 
G01 X31.4396 Y24.1153 
G01 X31.4396 Y26.2262 
G01 X31.3758 Y26.3217 
G01 X31.3204 Y26.4555 
G01 X31.2921 Y26.5976 
G01 X31.2921 Y30.0766 
G01 X29.0325 Y30.0766 
G01 X28.9920 Y30.0934 
G01 X28.9609 Y30.1245 
G00 Z1.0000  
G00 X34.1875 Y27.0811 
G01 Z-0.1000 F50    
G01 X34.2280 Y27.0979 F100   
G01 X35.1726 Y27.0979 
G01 X35.1726 Y33.2094 
G01 X35.2099 Y33.5170 
G01 X35.2841 Y33.8178 
G01 X35.3939 Y34.1074 
G01 X35.5379 Y34.3818 
G01 X35.7139 Y34.6367 
G01 X35.9194 Y34.8686 
G01 X36.1513 Y35.0741 
G01 X36.4062 Y35.2501 
G01 X36.6805 Y35.3940 
G01 X36.9702 Y35.5039 
G01 X37.1996 Y35.5604 
G01 X37.1996 Y35.7020 
G01 X37.2164 Y35.7425 
G01 X37.2475 Y35.7736 
G01 X37.2880 Y35.7904 
G01 X40.3320 Y35.7904 
G01 X40.3725 Y35.7736 
G01 X40.4036 Y35.7425 
G01 X40.4204 Y35.7020 
G01 X40.4204 Y34.0580 
G01 X40.4036 Y34.0175 
G01 X40.3725 Y33.9864 
G01 X40.3320 Y33.9696 
G01 X37.2880 Y33.9696 
G01 X37.2475 Y33.9864 
G01 X37.2200 Y34.0139 
G01 X37.1695 Y33.9874 
G01 X37.0612 Y33.9126 
G01 X36.9627 Y33.8253 
G01 X36.8754 Y33.7268 
G01 X36.8006 Y33.6185 
G01 X36.7394 Y33.5019 
G01 X36.6928 Y33.3788 
G01 X36.6613 Y33.2510 
G01 X36.6454 Y33.1203 
G01 X36.6434 Y33.0545 
G01 X36.6434 Y27.0979 
G01 X39.7276 Y27.0979 
G01 X39.7276 Y27.2004 
G01 X39.7611 Y27.3690 
G01 X39.8269 Y27.5277 
G01 X39.9224 Y27.6706 
G01 X40.0439 Y27.7921 
G01 X40.1868 Y27.8876 
G01 X40.3455 Y27.9534 
G01 X40.5141 Y27.9869 
G01 X40.6859 Y27.9869 
G01 X40.8545 Y27.9534 
G01 X41.0132 Y27.8876 
G01 X41.1561 Y27.7921 
G01 X41.2776 Y27.6706 
G01 X41.3731 Y27.5277 
G01 X41.4389 Y27.3690 
G01 X41.4724 Y27.2004 
G01 X41.4724 Y27.0712 
G01 X41.4936 Y27.0500 
G01 X41.5104 Y27.0095 
G01 X41.5104 Y17.4405 
G01 X41.4936 Y17.4000 
G01 X41.4625 Y17.3689 
G01 X41.4220 Y17.3521 
G01 X34.2280 Y17.3521 
G01 X34.1875 Y17.3689 
G01 X34.1564 Y17.4000 
G01 X34.1396 Y17.4405 
G01 X34.1396 Y27.0095 
G01 X34.1564 Y27.0500 
G01 X34.1875 Y27.0811 
G00 Z1.0000  
G00 X37.2164 Y29.4575 
G01 Z-0.1000 F50    
G01 X37.1996 Y29.4980 F100   
G01 X37.1996 Y31.1420 
G01 X37.2164 Y31.1825 
G01 X37.2475 Y31.2136 
G01 X37.2880 Y31.2304 
G01 X38.5896 Y31.2304 
G01 X38.5896 Y31.7229 
G01 X38.0896 Y32.2229 
G01 X38.0896 Y32.9771 
G01 X38.6229 Y33.5104 
G01 X39.3771 Y33.5104 
G01 X39.9104 Y32.9771 
G01 X39.9104 Y32.2229 
G01 X39.4104 Y31.7229 
G01 X39.4104 Y31.2304 
G01 X40.3320 Y31.2304 
G01 X40.3725 Y31.2136 
G01 X40.4036 Y31.1825 
G01 X40.4204 Y31.1420 
G01 X40.4204 Y29.4980 
G01 X40.4036 Y29.4575 
G01 X40.3725 Y29.4264 
G01 X40.3320 Y29.4096 
G01 X37.2880 Y29.4096 
G01 X37.2475 Y29.4264 
G01 X37.2164 Y29.4575 
G00 Z1.0000  
G00 X42.8764 Y29.4575 
G01 Z-0.1000 F50    
G01 X42.8596 Y29.4980 F100   
G01 X42.8596 Y31.1420 
G01 X42.8764 Y31.1825 
G01 X42.9075 Y31.2136 
G01 X42.9480 Y31.2304 
G01 X45.9920 Y31.2304 
G01 X46.0325 Y31.2136 
G01 X46.0636 Y31.1825 
G01 X46.0804 Y31.1420 
G01 X46.0804 Y29.4980 
G01 X46.0636 Y29.4575 
G01 X46.0325 Y29.4264 
G01 X45.9920 Y29.4096 
G01 X45.1674 Y29.4096 
G01 X45.1674 Y27.0979 
G01 X49.5120 Y27.0979 
G01 X49.5525 Y27.0811 
G01 X49.5836 Y27.0500 
G01 X49.6004 Y27.0095 
G01 X49.6004 Y17.4405 
G01 X49.5836 Y17.4000 
G01 X49.5525 Y17.3689 
G01 X49.5120 Y17.3521 
G01 X42.1780 Y17.3521 
G01 X42.1375 Y17.3689 
G01 X42.1064 Y17.4000 
G01 X42.0896 Y17.4405 
G01 X42.0896 Y27.0095 
G01 X42.1064 Y27.0500 
G01 X42.1375 Y27.0811 
G01 X42.1780 Y27.0979 
G01 X42.2676 Y27.0979 
G01 X42.2676 Y27.2004 
G01 X42.3011 Y27.3690 
G01 X42.3669 Y27.5277 
G01 X42.4624 Y27.6706 
G01 X42.5839 Y27.7921 
G01 X42.7268 Y27.8876 
G01 X42.8855 Y27.9534 
G01 X43.0541 Y27.9869 
G01 X43.2259 Y27.9869 
G01 X43.3945 Y27.9534 
G01 X43.5532 Y27.8876 
G01 X43.6961 Y27.7921 
G01 X43.6966 Y29.4096 
G01 X42.9480 Y29.4096 
G01 X42.9075 Y29.4264 
G01 X42.8764 Y29.4575 
G00 Z1.0000  
G00 X43.2896 Y32.2229 
G01 Z-0.1000 F50    
G01 X43.2896 Y32.9771 F100   
G01 X43.7896 Y33.4771 
G01 X43.7896 Y33.9696 
G01 X42.9480 Y33.9696 
G01 X42.9075 Y33.9864 
G01 X42.8764 Y34.0175 
G01 X42.8596 Y34.0580 
G01 X42.8596 Y35.7020 
G01 X42.8764 Y35.7425 
G01 X42.9075 Y35.7736 
G01 X42.9480 Y35.7904 
G01 X45.9920 Y35.7904 
G01 X46.0325 Y35.7736 
G01 X46.0636 Y35.7425 
G01 X46.0804 Y35.7020 
G01 X46.0804 Y34.0580 
G01 X46.0636 Y34.0175 
G01 X46.0325 Y33.9864 
G01 X45.9920 Y33.9696 
G01 X44.6104 Y33.9696 
G01 X44.6104 Y33.4771 
G01 X45.1104 Y32.9771 
G01 X45.1104 Y32.2229 
G01 X44.5771 Y31.6896 
G01 X43.8229 Y31.6896 
G01 X43.2896 Y32.2229 
G00 Z1.0000  
G00 X51.9151 Y23.1707 
G01 Z-0.1000 F50    
G01 X51.8962 Y23.1379 F100   
G01 X51.8864 Y23.1014 
G01 X51.8864 Y22.7929 
G01 X51.9196 Y22.7929 
G01 X51.9196 Y23.1045 
G01 X51.9364 Y23.1450 
G01 X51.9675 Y23.1761 
G01 X52.0080 Y23.1929 
G01 X53.0196 Y23.1929 
G01 X53.0196 Y23.2261 
G01 X52.0111 Y23.2261 
G01 X51.9746 Y23.2163 
G01 X51.9418 Y23.1974 
G01 X51.9151 Y23.1707 
G00 Z1.0000  
G00 X54.0404 Y23.1929 
G01 Z-0.1000 F50    
G01 X55.0520 Y23.1929 F100   
G01 X55.0925 Y23.1761 
G01 X55.1236 Y23.1450 
G01 X55.1404 Y23.1045 
G01 X55.1404 Y22.7929 
G01 X55.1736 Y22.7929 
G01 X55.1736 Y23.1014 
G01 X55.1638 Y23.1379 
G01 X55.1449 Y23.1707 
G01 X55.1182 Y23.1974 
G01 X55.0854 Y23.2163 
G01 X55.0489 Y23.2261 
G01 X54.0404 Y23.2261 
G01 X54.0404 Y23.1929 
G00 Z1.0000  
G00 X53.9771 Y21.1104 
G01 Z-0.1000 F50    
G01 X54.5104 Y20.5771 F100   
G01 X54.5104 Y19.8229 
G01 X54.0104 Y19.3229 
G01 X54.0104 Y18.6329 
G01 X55.0520 Y18.6329 
G01 X55.0925 Y18.6161 
G01 X55.1236 Y18.5850 
G01 X55.1404 Y18.5445 
G01 X55.1404 Y16.9005 
G01 X55.1236 Y16.8600 
G01 X55.0925 Y16.8289 
G01 X55.0520 Y16.8121 
G01 X52.0080 Y16.8121 
G01 X51.9675 Y16.8289 
G01 X51.9364 Y16.8600 
G01 X51.9196 Y16.9005 
G01 X51.9196 Y18.5445 
G01 X51.9364 Y18.5850 
G01 X51.9675 Y18.6161 
G01 X52.0080 Y18.6329 
G01 X53.1896 Y18.6329 
G01 X53.1896 Y19.3229 
G01 X52.6896 Y19.8229 
G01 X52.6896 Y20.5771 
G01 X53.2229 Y21.1104 
G01 X53.9771 Y21.1104 
G00 Z1.0000  
G00 X54.6777 Y21.1176 
G01 Z-0.1000 F50    
G01 X54.7251 Y21.1998 F100   
G01 X54.7922 Y21.2669 
G01 X54.8744 Y21.3143 
G01 X54.9426 Y21.3326 
G01 X54.9661 Y21.3389 
G01 X55.0489 Y21.3389 
G01 X55.0854 Y21.3487 
G01 X55.1182 Y21.3676 
G01 X55.1449 Y21.3943 
G01 X55.1638 Y21.4271 
G01 X55.1736 Y21.4636 
G01 X55.1736 Y21.7721 
G01 X55.1404 Y21.7721 
G01 X55.1404 Y21.4605 
G01 X55.1236 Y21.4200 
G01 X55.0925 Y21.3889 
G01 X55.0520 Y21.3721 
G01 X52.7113 Y21.3721 
G01 X52.6063 Y21.3253 
G01 X52.4434 Y21.2313 
G01 X52.4749 Y21.1998 
G01 X52.5223 Y21.1176 
G01 X52.5469 Y21.0259 
G01 X52.5469 Y20.9310 
G01 X52.5400 Y20.9054 
G01 X52.5223 Y20.8394 
G01 X52.4749 Y20.7572 
G01 X52.4104 Y20.6927 
G01 X52.4104 Y19.7072 
G01 X52.5568 Y19.5609 
G01 X52.6239 Y19.4938 
G01 X52.6713 Y19.4116 
G01 X52.6909 Y19.3385 
G01 X52.6959 Y19.3199 
G01 X52.6959 Y19.2250 
G01 X52.6713 Y19.1334 
G01 X52.6239 Y19.0512 
G01 X52.5568 Y18.9841 
G01 X52.4746 Y18.9367 
G01 X52.4015 Y18.9171 
G01 X52.3829 Y18.9121 
G01 X51.9525 Y18.9121 
G01 X51.8093 Y18.8528 
G01 X51.6997 Y18.7432 
G01 X51.6404 Y18.6000 
G01 X51.6404 Y16.8450 
G01 X51.6997 Y16.7018 
G01 X51.8093 Y16.5922 
G01 X51.9525 Y16.5329 
G01 X55.1075 Y16.5329 
G01 X55.2507 Y16.5922 
G01 X55.3603 Y16.7018 
G01 X55.4196 Y16.8450 
G01 X55.4196 Y18.6000 
G01 X55.3603 Y18.7432 
G01 X55.2507 Y18.8528 
G01 X55.1075 Y18.9121 
G01 X54.8171 Y18.9121 
G01 X54.7969 Y18.9175 
G01 X54.7254 Y18.9367 
G01 X54.6432 Y18.9841 
G01 X54.5761 Y19.0512 
G01 X54.5287 Y19.1334 
G01 X54.5041 Y19.2250 
G01 X54.5041 Y19.3199 
G01 X54.5095 Y19.3401 
G01 X54.5287 Y19.4116 
G01 X54.5761 Y19.4938 
G01 X54.5816 Y19.4993 
G01 X54.6432 Y19.5609 
G01 X54.7896 Y19.7072 
G01 X54.7896 Y20.6927 
G01 X54.7251 Y20.7572 
G01 X54.6777 Y20.8394 
G01 X54.6594 Y20.9075 
G01 X54.6531 Y20.9310 
G01 X54.6531 Y21.0259 
G01 X54.6777 Y21.1176 
G00 Z1.0000  
G00 X30.9309 Y16.7789 
G01 Z-0.1000 F50    
G01 X30.8883 Y16.8108 F100   
G01 X30.7204 Y16.8121 
G01 X30.7204 Y16.7789 
G01 X30.9309 Y16.7789 
G00 Z1.0000  
G00 X23.5704 Y15.6019 
G01 Z-0.1000 F50    
G01 X22.8759 Y15.8896 F100   
G01 X22.1241 Y15.8896 
G01 X21.4296 Y15.6019 
G01 X20.8981 Y15.0704 
G01 X20.6104 Y14.3759 
G01 X20.6104 Y13.6241 
G01 X20.8981 Y12.9296 
G01 X21.4296 Y12.3981 
G01 X22.1241 Y12.1104 
G01 X22.8759 Y12.1104 
G01 X23.5704 Y12.3981 
G01 X24.1019 Y12.9296 
G01 X24.3896 Y13.6241 
G01 X24.3896 Y14.3759 
G01 X24.1019 Y15.0704 
G01 X23.5704 Y15.6019 
G00 Z1.0000  
G00 X31.1271 Y8.3037  
G01 Z-0.1000 F50    
G01 X30.4239 Y7.6005  F100   
G01 X30.4239 Y7.3794  
G01 X30.4571 Y7.3794  
G01 X30.4571 Y7.5868  
G01 X31.1271 Y8.2568  
G01 X31.1271 Y8.3037  
G00 Z1.0000  
G00 X32.5479 Y8.3037  
G01 Z-0.1000 F50    
G01 X32.5479 Y8.2568  F100   
G01 X33.2179 Y7.5868  
G01 X33.2179 Y7.3794  
G01 X33.2511 Y7.3794  
G01 X33.2511 Y7.6005  
G01 X32.5479 Y8.3037  
G00 Z1.0000  
G00 X33.2179 Y6.6506  
G01 Z-0.1000 F50    
G01 X33.2179 Y6.4432  F100   
G01 X32.5479 Y5.7732  
G01 X32.5479 Y5.6504  
G01 X33.2920 Y5.6504  
G01 X33.3325 Y5.6336  
G01 X33.3636 Y5.6025  
G01 X33.3804 Y5.5620  
G01 X33.3804 Y3.6104  
G01 X33.4136 Y3.6104  
G01 X33.4136 Y5.5589  
G01 X33.4038 Y5.5954  
G01 X33.3849 Y5.6282  
G01 X33.3582 Y5.6549  
G01 X33.3254 Y5.6738  
G01 X33.2280 Y5.6999  
G01 X33.1458 Y5.7474  
G01 X33.0797 Y5.8134  
G01 X33.0592 Y5.8482  
G01 X33.0312 Y5.8967  
G01 X33.0067 Y5.9883  
G01 X33.0067 Y6.0832  
G01 X33.0312 Y6.1749  
G01 X33.0787 Y6.2571  
G01 X33.1458 Y6.3242  
G01 X33.2511 Y6.4295  
G01 X33.2511 Y6.6506  
G01 X33.2179 Y6.6506  
G00 Z1.0000  
G00 X30.4571 Y6.6506  
G01 Z-0.1000 F50    
G01 X30.4239 Y6.6506  F100   
G01 X30.4239 Y6.4295  
G01 X30.6317 Y6.2216  
G01 X30.6989 Y6.1545  
G01 X30.7463 Y6.0723  
G01 X30.7659 Y5.9992  
G01 X30.7709 Y5.9807  
G01 X30.7709 Y5.8858  
G01 X30.7463 Y5.7941  
G01 X30.6989 Y5.7119  
G01 X30.6151 Y5.6282  
G01 X30.5962 Y5.5954  
G01 X30.5864 Y5.5589  
G01 X30.5864 Y3.6104  
G01 X30.6196 Y3.6104  
G01 X30.6196 Y5.5620  
G01 X30.6364 Y5.6025  
G01 X30.6675 Y5.6336  
G01 X30.7080 Y5.6504  
G01 X31.1271 Y5.6504  
G01 X31.1271 Y5.7732  
G01 X30.4571 Y6.4432  
G01 X30.4571 Y6.6506  
G00 Z1.0000  
G00 X0.0316  Y0.1173  
G01 Z-0.1000 F50    
G01 X-0.0290 Y0.2223  F100   
G01 X-0.0604 Y0.3394  
G01 X-0.0604 Y24.3303 
G01 X-0.0644 Y24.3605 
G01 X-0.0604 Y24.3906 
G01 X-0.0604 Y24.4211 
G01 X-0.0525 Y24.4505 
G01 X-0.0485 Y24.4807 
G01 X-0.0369 Y24.5088 
G01 X-0.0290 Y24.5381 
G01 X-0.0138 Y24.5645 
G01 X-0.0021 Y24.5927 
G01 X0.0164  Y24.6168 
G01 X0.0316  Y24.6431 
G01 X0.0531  Y24.6647 
G01 X0.0717  Y24.6888 
G01 X0.0958  Y24.7073 
G01 X0.1173  Y24.7288 
G01 X0.1437  Y24.7441 
G01 X0.1678  Y24.7626 
G01 X0.1959  Y24.7742 
G01 X0.2223  Y24.7895 
G01 X0.2517  Y24.7973 
G01 X0.2798  Y24.8090 
G01 X0.3100  Y24.8130 
G01 X0.3394  Y24.8208 
G01 X0.3699  Y24.8208 
G01 X0.4000  Y24.8248 
G01 X0.4302  Y24.8208 
G01 X0.4606  Y24.8208 
G01 X0.4900  Y24.8130 
G01 X0.5202  Y24.8090 
G01 X2.2356  Y24.8089 
G01 X2.3396  Y24.8520 
G01 X2.3396  Y24.9626 
G01 X2.2972  Y24.9201 
G01 X2.2199  Y24.8881 
G01 X0.5361  Y24.8881 
G01 X0.4588  Y24.9201 
G01 X0.3996  Y24.9793 
G01 X0.3676  Y25.0566 
G01 X0.3676  Y26.9433 
G01 X0.3996  Y27.0207 
G01 X0.4588  Y27.0799 
G01 X0.5361  Y27.1119 
G01 X0.5396  Y27.1119 
G01 X0.5396  Y31.0606 
G01 X0.5710  Y31.1777 
G01 X0.6316  Y31.2827 
G01 X2.8584  Y33.5095 
G01 X2.8256  Y33.6742 
G01 X2.8256  Y33.8658 
G01 X2.8630  Y34.0536 
G01 X2.9363  Y34.2306 
G01 X3.0427  Y34.3899 
G01 X3.1781  Y34.5253 
G01 X3.3374  Y34.6317 
G01 X3.5144  Y34.7050 
G01 X3.7022  Y34.7424 
G01 X5.4178  Y34.7424 
G01 X5.6056  Y34.7050 
G01 X5.7826  Y34.6317 
G01 X5.9419  Y34.5253 
G01 X6.0773  Y34.3899 
G01 X6.1837  Y34.2306 
G01 X6.2570  Y34.0536 
G01 X6.2944  Y33.8658 
G01 X6.2944  Y33.6742 
G01 X6.2570  Y33.4864 
G01 X6.1837  Y33.3094 
G01 X6.0773  Y33.1501 
G01 X5.9419  Y33.0147 
G01 X5.7826  Y32.9083 
G01 X5.6056  Y32.8350 
G01 X5.4178  Y32.7976 
G01 X3.7022  Y32.7976 
G01 X3.5144  Y32.8350 
G01 X3.4944  Y32.8433 
G01 X1.4604  Y30.8093 
G01 X1.4604  Y27.1119 
G01 X2.2199  Y27.1119 
G01 X2.2972  Y27.0799 
G01 X2.3396  Y27.0374 
G01 X2.3396  Y27.1480 
G01 X2.2356  Y27.1911 
G01 X1.9394  Y27.1911 
G01 X1.8223  Y27.2225 
G01 X1.7173  Y27.2831 
G01 X1.6316  Y27.3688 
G01 X1.5710  Y27.4738 
G01 X1.5396  Y27.5909 
G01 X1.5396  Y30.6464 
G01 X1.5710  Y30.7635 
G01 X1.6316  Y30.8685 
G01 X2.1825  Y31.4194 
G01 X2.1969  Y31.4392 
G01 X2.2252  Y31.4621 
G01 X2.2510  Y31.4879 
G01 X2.2642  Y31.4955 
G01 X2.2718  Y31.5087 
G01 X2.3146  Y31.5515 
G01 X2.3575  Y31.5944 
G01 X2.3655  Y31.6024 
G01 X2.4187  Y31.6331 
G01 X2.4705  Y31.6630 
G01 X2.5289  Y31.6787 
G01 X2.5876  Y31.6944 
G01 X2.6481  Y31.6944 
G01 X2.9388  Y31.6944 
G01 X3.0427  Y31.8499 
G01 X3.1781  Y31.9853 
G01 X3.3374  Y32.0917 
G01 X3.5144  Y32.1650 
G01 X3.7022  Y32.2024 
G01 X5.4178  Y32.2024 
G01 X5.4533  Y32.1953 
G01 X5.4499  Y32.2060 
G01 X5.4336  Y32.2453 
G01 X5.4312  Y32.2634 
G01 X5.4256  Y32.2808 
G01 X5.4233  Y32.3233 
G01 X5.4178  Y32.3655 
G01 X5.4202  Y32.3836 
G01 X5.4192  Y32.4019 
G01 X5.4281  Y32.4435 
G01 X5.4336  Y32.4856 
G01 X5.4406  Y32.5026 
G01 X5.4444  Y32.5205 
G01 X5.4637  Y32.5583 
G01 X5.4800  Y32.5976 
G01 X5.4911  Y32.6122 
G01 X5.4995  Y32.6285 
G01 X5.5279  Y32.6601 
G01 X5.5538  Y32.6938 
G01 X5.5683  Y32.7050 
G01 X5.5806  Y32.7186 
G01 X5.6162  Y32.7417 
G01 X5.6500  Y32.7676 
G01 X5.6669  Y32.7746 
G01 X5.6822  Y32.7846 
G01 X5.7227  Y32.7977 
G01 X5.9177  Y32.8785 
G01 X6.0696  Y33.0304 
G01 X6.1553  Y33.1162 
G01 X6.2004  Y33.1422 
G01 X6.2603  Y33.1768 
G01 X6.3774  Y33.2081 
G01 X6.4987  Y33.2081 
G01 X6.5627  Y33.1910 
G01 X6.6157  Y33.1768 
G01 X6.7207  Y33.1162 
G01 X6.7874  Y33.0494 
G01 X6.8064  Y33.0304 
G01 X6.9162  Y32.9207 
G01 X7.1349  Y32.7020 
G01 X7.2207  Y32.6162 
G01 X7.3943  Y32.4425 
G01 X7.5927  Y32.3604 
G01 X8.1716  Y32.3604 
G01 X8.2887  Y32.3290 
G01 X8.3937  Y32.2684 
G01 X8.4046  Y32.2575 
G01 X8.4046  Y32.3368 
G01 X8.4366  Y32.4142 
G01 X8.4474  Y32.4250 
G01 X8.4366  Y32.4358 
G01 X8.4351  Y32.4396 
G01 X7.6394  Y32.4396 
G01 X7.5223  Y32.4710 
G01 X7.4173  Y32.5316 
G01 X7.3316  Y32.6173 
G01 X6.8316  Y33.1173 
G01 X6.7710  Y33.2223 
G01 X6.7396  Y33.3394 
G01 X6.7396  Y34.2093 
G01 X5.5792  Y35.3697 
G01 X5.4178  Y35.3376 
G01 X3.7022  Y35.3376 
G01 X3.5144  Y35.3750 
G01 X3.3374  Y35.4483 
G01 X3.1781  Y35.5547 
G01 X3.0427  Y35.6901 
G01 X2.9363  Y35.8494 
G01 X2.8630  Y36.0264 
G01 X2.8256  Y36.2142 
G01 X2.8256  Y36.4058 
G01 X2.8630  Y36.5936 
G01 X2.9363  Y36.7706 
G01 X3.0427  Y36.9299 
G01 X3.1781  Y37.0653 
G01 X3.3374  Y37.1717 
G01 X3.5144  Y37.2450 
G01 X3.7022  Y37.2824 
G01 X5.4178  Y37.2824 
G01 X5.6056  Y37.2450 
G01 X5.7826  Y37.1717 
G01 X5.9419  Y37.0653 
G01 X6.0773  Y36.9299 
G01 X6.1837  Y36.7706 
G01 X6.2570  Y36.5936 
G01 X6.2944  Y36.4058 
G01 X6.2944  Y36.2142 
G01 X6.2570  Y36.0264 
G01 X6.2476  Y36.0035 
G01 X7.4827  Y34.7684 
G01 X7.5684  Y34.6827 
G01 X7.6290  Y34.5777 
G01 X7.6604  Y34.4606 
G01 X7.6604  Y33.5907 
G01 X7.8907  Y33.3604 
G01 X8.4351  Y33.3604 
G01 X8.4366  Y33.3642 
G01 X8.4474  Y33.3750 
G01 X8.4366  Y33.3858 
G01 X8.4046  Y33.4631 
G01 X8.4046  Y34.2368 
G01 X8.4366  Y34.3142 
G01 X8.4958  Y34.3734 
G01 X8.5731  Y34.4054 
G01 X9.6469  Y34.4054 
G01 X9.7242  Y34.3734 
G01 X9.7834  Y34.3142 
G01 X9.8154  Y34.2368 
G01 X9.8154  Y33.4631 
G01 X9.7834  Y33.3858 
G01 X9.7725  Y33.3750 
G01 X9.7821  Y33.3654 
G01 X11.0471 Y33.3654 
G01 X11.0266 Y33.3858 
G01 X10.9946 Y33.4631 
G01 X10.9946 Y34.2368 
G01 X11.0266 Y34.3142 
G01 X11.0858 Y34.3734 
G01 X11.1631 Y34.4054 
G01 X12.2369 Y34.4054 
G01 X12.3142 Y34.3734 
G01 X12.3734 Y34.3142 
G01 X12.3956 Y34.2604 
G01 X14.9396 Y34.2604 
G01 X14.9396 Y36.4093 
G01 X14.8173 Y36.5316 
G01 X14.7316 Y36.6173 
G01 X14.6898 Y36.6896 
G01 X14.3581 Y36.6896 
G01 X14.2808 Y36.7216 
G01 X14.2216 Y36.7808 
G01 X14.1896 Y36.8581 
G01 X14.1896 Y38.3419 
G01 X14.2216 Y38.4192 
G01 X14.2808 Y38.4784 
G01 X14.3581 Y38.5104 
G01 X15.8419 Y38.5104 
G01 X15.9192 Y38.4784 
G01 X15.9784 Y38.4192 
G01 X16.0104 Y38.3419 
G01 X16.0104 Y36.8581 
G01 X15.9784 Y36.7808 
G01 X15.9192 Y36.7216 
G01 X15.8515 Y36.6936 
G01 X15.8604 Y36.6606 
G01 X15.8604 Y30.3394 
G01 X15.8290 Y30.2223 
G01 X15.7684 Y30.1173 
G01 X15.6827 Y30.0316 
G01 X15.5777 Y29.9710 
G01 X15.4606 Y29.9396 
G01 X14.7721 Y29.9396 
G01 X14.7192 Y29.8866 
G01 X14.6418 Y29.8546 
G01 X13.3581 Y29.8546 
G01 X13.2808 Y29.8866 
G01 X13.2278 Y29.9396 
G01 X13.1594 Y29.9396 
G01 X13.0423 Y29.9710 
G01 X12.9373 Y30.0316 
G01 X12.6293 Y30.3396 
G01 X12.0324 Y30.3396 
G01 X12.0324 Y29.5554 
G01 X13.2628 Y29.5554 
G01 X13.2808 Y29.5734 
G01 X13.3581 Y29.6054 
G01 X14.6418 Y29.6054 
G01 X14.7192 Y29.5734 
G01 X14.7784 Y29.5142 
G01 X14.8104 Y29.4368 
G01 X14.8104 Y28.7531 
G01 X14.7784 Y28.6758 
G01 X14.7192 Y28.6166 
G01 X14.6418 Y28.5846 
G01 X13.3581 Y28.5846 
G01 X13.2808 Y28.6166 
G01 X13.2628 Y28.6346 
G01 X12.0324 Y28.6346 
G01 X12.0324 Y28.4566 
G01 X12.0004 Y28.3793 
G01 X11.9412 Y28.3201 
G01 X11.8638 Y28.2881 
G01 X10.1801 Y28.2881 
G01 X10.1028 Y28.3201 
G01 X10.0604 Y28.3626 
G01 X10.0604 Y27.3027 
G01 X10.1192 Y27.2784 
G01 X10.1784 Y27.2192 
G01 X10.2104 Y27.1419 
G01 X10.2104 Y25.6581 
G01 X10.1784 Y25.5808 
G01 X10.1192 Y25.5216 
G01 X10.0419 Y25.4896 
G01 X9.4604  Y25.4896 
G01 X9.4604  Y19.1394 
G01 X9.4290  Y19.0223 
G01 X9.3684  Y18.9173 
G01 X9.2827  Y18.8316 
G01 X8.8477  Y18.3966 
G01 X8.7427  Y18.3360 
G01 X8.6256  Y18.3046 
G01 X8.1372  Y18.3046 
G01 X8.1192  Y18.2866 
G01 X8.0419  Y18.2546 
G01 X6.7581  Y18.2546 
G01 X6.6808  Y18.2866 
G01 X6.6216  Y18.3458 
G01 X6.5896  Y18.4231 
G01 X6.5896  Y19.1069 
G01 X6.6216  Y19.1842 
G01 X6.6808  Y19.2434 
G01 X6.7581  Y19.2754 
G01 X8.0419  Y19.2754 
G01 X8.1192  Y19.2434 
G01 X8.1372  Y19.2254 
G01 X8.3743  Y19.2254 
G01 X8.5396  Y19.3907 
G01 X8.5396  Y21.7396 
G01 X8.1629  Y21.7396 
G01 X8.1784  Y21.7242 
G01 X8.2104  Y21.6469 
G01 X8.2104  Y20.9631 
G01 X8.1784  Y20.8858 
G01 X8.1192  Y20.8266 
G01 X8.0419  Y20.7946 
G01 X7.4243  Y20.7946 
G01 X7.4056  Y20.7896 
G01 X5.8100  Y20.7896 
G01 X5.7777  Y20.7710 
G01 X5.6606  Y20.7396 
G01 X5.5335  Y20.7396 
G01 X5.5554  Y20.6868 
G01 X5.5554  Y20.4954 
G01 X6.6628  Y20.4954 
G01 X6.6808  Y20.5134 
G01 X6.7581  Y20.5454 
G01 X8.0419  Y20.5454 
G01 X8.1192  Y20.5134 
G01 X8.1784  Y20.4542 
G01 X8.2104  Y20.3769 
G01 X8.2104  Y19.6931 
G01 X8.1784  Y19.6158 
G01 X8.1192  Y19.5566 
G01 X8.0419  Y19.5246 
G01 X6.7581  Y19.5246 
G01 X6.6808  Y19.5566 
G01 X6.6628  Y19.5746 
G01 X5.0544  Y19.5746 
G01 X4.9373  Y19.6060 
G01 X4.8323  Y19.6666 
G01 X4.7543  Y19.7446 
G01 X4.3131  Y19.7446 
G01 X4.2358  Y19.7766 
G01 X4.1766  Y19.8358 
G01 X4.1446  Y19.9131 
G01 X4.1446  Y20.6868 
G01 X4.1665  Y20.7396 
G01 X2.9435  Y20.7396 
G01 X2.9654  Y20.6868 
G01 X2.9654  Y20.5575 
G01 X2.9763  Y20.5684 
G01 X3.0813  Y20.6290 
G01 X3.1984  Y20.6604 
G01 X3.6656  Y20.6604 
G01 X3.7827  Y20.6290 
G01 X3.8877  Y20.5684 
G01 X3.9734  Y20.4827 
G01 X4.0340  Y20.3777 
G01 X4.0654  Y20.2606 
G01 X4.0654  Y19.8974 
G01 X4.1095  Y19.7909 
G01 X4.1909  Y19.7095 
G01 X4.2974  Y19.6654 
G01 X4.5914  Y19.6654 
G01 X4.7085  Y19.6340 
G01 X4.7986  Y19.5820 
G01 X5.0077  Y19.4954 
G01 X6.1106  Y19.4954 
G01 X6.2277  Y19.4640 
G01 X6.3327  Y19.4034 
G01 X6.4184  Y19.3177 
G01 X6.4790  Y19.2127 
G01 X6.5104  Y19.0956 
G01 X6.5104  Y18.4074 
G01 X6.5545  Y18.3010 
G01 X6.5886  Y18.2668 
G01 X6.6388  Y18.2166 
G01 X6.6743  Y18.1811 
G01 X6.7122  Y18.1155 
G01 X6.7350  Y18.0761 
G01 X6.7503  Y18.0188 
G01 X6.7543  Y18.0038 
G01 X6.7581  Y18.0054 
G01 X8.0419  Y18.0054 
G01 X8.0978  Y17.9822 
G01 X8.1356  Y18.0477 
G01 X8.2213  Y18.1334 
G01 X8.3263  Y18.1940 
G01 X8.4434  Y18.2254 
G01 X8.6723  Y18.2254 
G01 X8.8707  Y18.3075 
G01 X9.1980  Y18.6349 
G01 X9.4574  Y18.8943 
G01 X9.5396  Y19.0927 
G01 X9.5396  Y22.7500 
G01 X9.5652  Y22.8454 
G01 X9.5710  Y22.8670 
G01 X9.5996  Y22.9166 
G01 X9.6316  Y22.9720 
G01 X9.7173  Y23.0578 
G01 X9.7468  Y23.0748 
G01 X9.8223  Y23.1184 
G01 X9.8466  Y23.1249 
G01 X9.9394  Y23.1497 
G01 X10.0606 Y23.1497 
G01 X10.1561 Y23.1242 
G01 X10.1777 Y23.1184 
G01 X10.2273 Y23.0897 
G01 X10.2827 Y23.0578 
G01 X10.3290 Y23.0115 
G01 X10.3541 Y22.9970 
G01 X10.3822 Y22.9853 
G01 X10.4063 Y22.9668 
G01 X10.4327 Y22.9516 
G01 X10.4542 Y22.9301 
G01 X10.4784 Y22.9115 
G01 X10.4969 Y22.8874 
G01 X10.5184 Y22.8659 
G01 X10.5336 Y22.8395 
G01 X10.5522 Y22.8154 
G01 X10.5638 Y22.7873 
G01 X10.5790 Y22.7609 
G01 X10.5869 Y22.7315 
G01 X10.5985 Y22.7034 
G01 X10.6025 Y22.6732 
G01 X10.6104 Y22.6438 
G01 X10.6104 Y22.6134 
G01 X10.6144 Y22.5832 
G01 X10.6104 Y22.5530 
G01 X10.6104 Y19.3427 
G01 X10.6925 Y19.1443 
G01 X11.2699 Y18.5670 
G01 X11.5293 Y18.3075 
G01 X11.7589 Y18.2125 
G01 X11.8277 Y18.1940 
G01 X11.9327 Y18.1334 
G01 X12.0184 Y18.0477 
G01 X12.0790 Y17.9427 
G01 X12.1104 Y17.8256 
G01 X12.1104 Y17.1374 
G01 X12.1545 Y17.0310 
G01 X12.2360 Y16.9495 
G01 X12.3424 Y16.9054 
G01 X15.5106 Y16.9054 
G01 X15.6277 Y16.8740 
G01 X15.7327 Y16.8134 
G01 X15.8184 Y16.7277 
G01 X15.8790 Y16.6227 
G01 X15.9104 Y16.5056 
G01 X15.9104 Y16.1487 
G01 X16.5487 Y15.5104 
G01 X17.4513 Y15.5104 
G01 X18.0896 Y16.1487 
G01 X18.0896 Y17.0513 
G01 X17.4093 Y17.7316 
G01 X17.3236 Y17.8173 
G01 X17.2630 Y17.9223 
G01 X17.2316 Y18.0394 
G01 X17.2316 Y18.1606 
G01 X17.2630 Y18.2777 
G01 X17.3236 Y18.3827 
G01 X17.8896 Y18.9487 
G01 X17.8896 Y19.8513 
G01 X17.2093 Y20.5316 
G01 X17.1658 Y20.5751 
G01 X17.1236 Y20.6173 
G01 X17.1128 Y20.6360 
G01 X17.0630 Y20.7223 
G01 X17.0316 Y20.8394 
G01 X17.0316 Y20.9007 
G01 X17.0316 Y20.9606 
G01 X17.0342 Y20.9704 
G01 X17.0630 Y21.0777 
G01 X17.0896 Y21.1238 
G01 X17.0896 Y22.0513 
G01 X16.4513 Y22.6896 
G01 X15.5487 Y22.6896 
G01 X14.9104 Y22.0513 
G01 X14.9104 Y21.4743 
G01 X14.8939 Y21.4129 
G01 X14.8790 Y21.3572 
G01 X14.8184 Y21.2522 
G01 X14.7575 Y21.1913 
G01 X14.7184 Y21.1522 
G01 X14.6936 Y21.1275 
G01 X14.6327 Y21.0665 
G01 X14.5277 Y21.0059 
G01 X14.4720 Y20.9910 
G01 X14.4106 Y20.9745 
G01 X14.2894 Y20.9745 
G01 X14.2253 Y20.9917 
G01 X14.1723 Y21.0059 
G01 X14.0673 Y21.0665 
G01 X14.0238 Y21.1100 
G01 X13.9816 Y21.1522 
G01 X13.9210 Y21.2572 
G01 X13.9061 Y21.3129 
G01 X13.8896 Y21.3743 
G01 X13.8896 Y21.6626 
G01 X13.8455 Y21.7690 
G01 X13.7583 Y21.8562 
G01 X13.7437 Y21.8675 
G01 X13.7173 Y21.8827 
G01 X13.6958 Y21.9042 
G01 X13.6716 Y21.9227 
G01 X13.6531 Y21.9469 
G01 X13.6316 Y21.9684 
G01 X13.6164 Y21.9948 
G01 X13.5978 Y22.0189 
G01 X13.5862 Y22.0470 
G01 X13.5710 Y22.0734 
G01 X13.5631 Y22.1028 
G01 X13.5514 Y22.1309 
G01 X13.5475 Y22.1611 
G01 X13.5396 Y22.1905 
G01 X13.5396 Y22.2209 
G01 X13.5356 Y22.2511 
G01 X13.5396 Y22.2813 
G01 X13.5396 Y22.5323 
G01 X13.5356 Y22.5625 
G01 X13.5396 Y22.5926 
G01 X13.5396 Y22.6231 
G01 X13.5475 Y22.6525 
G01 X13.5514 Y22.6827 
G01 X13.5631 Y22.7108 
G01 X13.5710 Y22.7402 
G01 X13.5862 Y22.7665 
G01 X13.5978 Y22.7947 
G01 X13.6164 Y22.8188 
G01 X13.6316 Y22.8452 
G01 X13.6531 Y22.8667 
G01 X13.6716 Y22.8908 
G01 X13.6958 Y22.9093 
G01 X13.7173 Y22.9309 
G01 X13.7437 Y22.9461 
G01 X13.7678 Y22.9646 
G01 X13.7959 Y22.9763 
G01 X13.8223 Y22.9915 
G01 X13.8517 Y22.9994 
G01 X13.8640 Y23.0045 
G01 X13.9455 Y23.0860 
G01 X13.9896 Y23.1924 
G01 X13.9896 Y24.8076 
G01 X13.9230 Y24.9683 
G01 X13.9084 Y24.9930 
G01 X13.9066 Y24.9973 
G01 X13.8986 Y25.0273 
G01 X13.8873 Y25.0546 
G01 X13.8837 Y25.0818 
G01 X13.8759 Y25.1098 
G01 X13.8753 Y25.1144 
G01 X13.8753 Y25.1459 
G01 X13.8714 Y25.1748 
G01 X13.8750 Y25.2016 
G01 X13.8747 Y25.2310 
G01 X13.8753 Y25.2356 
G01 X13.8835 Y25.2663 
G01 X13.8873 Y25.2950 
G01 X13.8975 Y25.3198 
G01 X13.9049 Y25.3484 
G01 X13.9066 Y25.3527 
G01 X13.9226 Y25.3804 
G01 X13.9337 Y25.4070 
G01 X13.9499 Y25.4281 
G01 X13.9645 Y25.4540 
G01 X13.9672 Y25.4577 
G01 X13.9900 Y25.4804 
G01 X14.0075 Y25.5032 
G01 X14.0285 Y25.5194 
G01 X14.0460 Y25.5372 
G01 X14.0896 Y25.6424 
G01 X14.0896 Y27.1576 
G01 X14.0455 Y27.2640 
G01 X13.9640 Y27.3455 
G01 X13.8576 Y27.3896 
G01 X12.3424 Y27.3896 
G01 X12.2360 Y27.3455 
G01 X12.1545 Y27.2640 
G01 X12.1104 Y27.1576 
G01 X12.1104 Y25.6424 
G01 X12.1196 Y25.6202 
G01 X12.1236 Y25.5900 
G01 X12.1314 Y25.5606 
G01 X12.1314 Y25.5302 
G01 X12.1354 Y25.5000 
G01 X12.1314 Y25.4698 
G01 X12.1314 Y25.4394 
G01 X12.1236 Y25.4100 
G01 X12.1196 Y25.3798 
G01 X12.1080 Y25.3517 
G01 X12.1001 Y25.3223 
G01 X12.0849 Y25.2959 
G01 X12.0732 Y25.2678 
G01 X12.0547 Y25.2437 
G01 X12.0395 Y25.2173 
G01 X12.0179 Y25.1958 
G01 X11.9994 Y25.1716 
G01 X11.9753 Y25.1531 
G01 X11.9537 Y25.1316 
G01 X11.9274 Y25.1164 
G01 X11.9032 Y25.0978 
G01 X11.8751 Y25.0862 
G01 X11.8488 Y25.0710 
G01 X11.8194 Y25.0631 
G01 X11.7912 Y25.0514 
G01 X11.7611 Y25.0475 
G01 X11.7317 Y25.0396 
G01 X11.7012 Y25.0396 
G01 X11.6711 Y25.0356 
G01 X11.6409 Y25.0396 
G01 X10.7591 Y25.0396 
G01 X10.7289 Y25.0356 
G01 X10.6988 Y25.0396 
G01 X10.6683 Y25.0396 
G01 X10.6389 Y25.0475 
G01 X10.6087 Y25.0514 
G01 X10.5806 Y25.0631 
G01 X10.5512 Y25.0710 
G01 X10.5249 Y25.0862 
G01 X10.4968 Y25.0978 
G01 X10.4726 Y25.1164 
G01 X10.4463 Y25.1316 
G01 X10.4247 Y25.1531 
G01 X10.4006 Y25.1716 
G01 X10.3821 Y25.1958 
G01 X10.3605 Y25.2173 
G01 X10.3453 Y25.2437 
G01 X10.3268 Y25.2678 
G01 X10.3151 Y25.2959 
G01 X10.2999 Y25.3223 
G01 X10.2920 Y25.3517 
G01 X10.2804 Y25.3798 
G01 X10.2764 Y25.4100 
G01 X10.2685 Y25.4394 
G01 X10.2685 Y25.4698 
G01 X10.2646 Y25.5000 
G01 X10.2685 Y25.5302 
G01 X10.2685 Y25.5606 
G01 X10.2764 Y25.5900 
G01 X10.2804 Y25.6202 
G01 X10.2896 Y25.6424 
G01 X10.2896 Y27.1576 
G01 X10.2455 Y27.2640 
G01 X10.2316 Y27.2779 
G01 X10.1883 Y27.3529 
G01 X10.1710 Y27.3829 
G01 X10.1490 Y27.4651 
G01 X10.1396 Y27.5000 
G01 X10.1396 Y27.5613 
G01 X10.1396 Y27.6212 
G01 X10.1396 Y27.8091 
G01 X10.1710 Y27.9262 
G01 X10.2316 Y28.0312 
G01 X10.3173 Y28.1169 
G01 X10.4223 Y28.1775 
G01 X10.5394 Y28.2089 
G01 X11.8796 Y28.2089 
G01 X11.9860 Y28.2530 
G01 X12.0785 Y28.3455 
G01 X12.0830 Y28.3513 
G01 X12.0982 Y28.3777 
G01 X12.1198 Y28.3992 
G01 X12.1383 Y28.4234 
G01 X12.1624 Y28.4419 
G01 X12.1840 Y28.4634 
G01 X12.2103 Y28.4786 
G01 X12.2345 Y28.4972 
G01 X12.2626 Y28.5088 
G01 X12.2889 Y28.5240 
G01 X12.3183 Y28.5319 
G01 X12.3465 Y28.5435 
G01 X12.3766 Y28.5475 
G01 X12.4060 Y28.5554 
G01 X12.4365 Y28.5554 
G01 X12.4667 Y28.5594 
G01 X12.4968 Y28.5554 
G01 X13.0999 Y28.5554 
G01 X13.1301 Y28.5594 
G01 X13.1603 Y28.5554 
G01 X13.1907 Y28.5554 
G01 X13.2201 Y28.5475 
G01 X13.2503 Y28.5435 
G01 X13.2784 Y28.5319 
G01 X13.3078 Y28.5240 
G01 X13.3342 Y28.5088 
G01 X13.3424 Y28.5054 
G01 X14.6576 Y28.5054 
G01 X14.7640 Y28.5495 
G01 X14.8455 Y28.6309 
G01 X14.8896 Y28.7374 
G01 X14.8896 Y29.4606 
G01 X14.9210 Y29.5777 
G01 X14.9816 Y29.6827 
G01 X15.0673 Y29.7684 
G01 X15.1723 Y29.8290 
G01 X15.2894 Y29.8604 
G01 X15.5073 Y29.8604 
G01 X15.7057 Y29.9425 
G01 X15.8575 Y30.0943 
G01 X15.9586 Y30.3386 
G01 X15.9665 Y30.3680 
G01 X15.9817 Y30.3944 
G01 X15.9934 Y30.4225 
G01 X16.0119 Y30.4466 
G01 X16.0271 Y30.4730 
G01 X16.0486 Y30.4945 
G01 X16.0672 Y30.5186 
G01 X16.0913 Y30.5372 
G01 X16.1128 Y30.5587 
G01 X16.1392 Y30.5739 
G01 X16.1633 Y30.5924 
G01 X16.1915 Y30.6041 
G01 X16.2178 Y30.6193 
G01 X16.2472 Y30.6272 
G01 X16.2753 Y30.6388 
G01 X16.3055 Y30.6428 
G01 X16.3349 Y30.6507 
G01 X16.3653 Y30.6507 
G01 X16.3955 Y30.6546 
G01 X16.4257 Y30.6507 
G01 X16.4561 Y30.6507 
G01 X16.4855 Y30.6428 
G01 X16.5157 Y30.6388 
G01 X16.5438 Y30.6272 
G01 X16.5732 Y30.6193 
G01 X16.5996 Y30.6041 
G01 X16.6277 Y30.5924 
G01 X16.6518 Y30.5739 
G01 X16.6782 Y30.5587 
G01 X16.6997 Y30.5372 
G01 X16.7239 Y30.5186 
G01 X16.7424 Y30.4945 
G01 X17.0349 Y30.2020 
G01 X17.2943 Y29.9425 
G01 X17.4927 Y29.8604 
G01 X18.3106 Y29.8604 
G01 X18.4277 Y29.8290 
G01 X18.5327 Y29.7684 
G01 X18.6184 Y29.6827 
G01 X18.6790 Y29.5777 
G01 X18.7104 Y29.4606 
G01 X18.7104 Y28.7374 
G01 X18.7545 Y28.6309 
G01 X18.8360 Y28.5495 
G01 X18.9424 Y28.5054 
G01 X19.7307 Y28.5054 
G01 X19.8478 Y28.4740 
G01 X19.9528 Y28.4134 
G01 X26.3100 Y22.0561 
G01 X26.5835 Y21.7827 
G01 X26.8002 Y21.6929 
G01 X27.9716 Y21.6929 
G01 X28.0018 Y21.6969 
G01 X28.0319 Y21.6929 
G01 X28.0624 Y21.6929 
G01 X28.0918 Y21.6850 
G01 X28.1219 Y21.6810 
G01 X28.1501 Y21.6694 
G01 X28.1795 Y21.6615 
G01 X28.2058 Y21.6463 
G01 X28.2339 Y21.6347 
G01 X28.2581 Y21.6161 
G01 X28.2844 Y21.6009 
G01 X28.3060 Y21.5794 
G01 X28.3301 Y21.5609 
G01 X28.3486 Y21.5367 
G01 X28.3702 Y21.5152 
G01 X28.3854 Y21.4888 
G01 X28.4039 Y21.4647 
G01 X28.4156 Y21.4366 
G01 X28.4308 Y21.4102 
G01 X28.4387 Y21.3808 
G01 X28.4437 Y21.3685 
G01 X28.4537 Y21.3532 
G01 X28.4669 Y21.3127 
G01 X28.4831 Y21.2735 
G01 X28.4855 Y21.2553 
G01 X28.4912 Y21.2379 
G01 X28.4934 Y21.1954 
G01 X28.4990 Y21.1533 
G01 X28.4966 Y21.1351 
G01 X28.4975 Y21.1168 
G01 X28.4887 Y21.0752 
G01 X28.4831 Y21.0331 
G01 X28.4761 Y21.0162 
G01 X28.4723 Y20.9982 
G01 X28.4530 Y20.9603 
G01 X28.4367 Y20.9211 
G01 X28.4256 Y20.9066 
G01 X28.4173 Y20.8902 
G01 X28.3888 Y20.8586 
G01 X28.3629 Y20.8249 
G01 X28.3484 Y20.8138 
G01 X28.3362 Y20.8001 
G01 X28.3005 Y20.7770 
G01 X28.2668 Y20.7511 
G01 X28.2499 Y20.7441 
G01 X28.2345 Y20.7341 
G01 X28.1940 Y20.7210 
G01 X28.1548 Y20.7047 
G01 X28.1366 Y20.7023 
G01 X27.8042 Y20.5943 
G01 X27.0246 Y20.0279 
G01 X26.4582 Y19.2483 
G01 X26.1604 Y18.3318 
G01 X26.1604 Y14.9100 
G01 X26.1290 Y14.7929 
G01 X26.0684 Y14.6880 
G01 X25.8845 Y14.5040 
G01 X25.8404 Y14.3976 
G01 X25.8404 Y9.2024  
G01 X25.8845 Y9.0960  
G01 X25.8903 Y9.0902  
G01 X25.9106 Y9.0698  
G01 X25.9760 Y9.0045  
G01 X26.0366 Y8.8995  
G01 X26.0515 Y8.8438  
G01 X26.0680 Y8.7824  
G01 X26.0680 Y8.6612  
G01 X26.0508 Y8.5971  
G01 X26.0366 Y8.5441  
G01 X25.9760 Y8.4391  
G01 X25.9352 Y8.3983  
G01 X25.8903 Y8.3534  
G01 X25.4353 Y7.8984  
G01 X25.1979 Y7.3252  
G01 X25.1979 Y6.7048  
G01 X25.4353 Y6.1316  
G01 X25.8741 Y5.6928  
G01 X26.4473 Y5.4554  
G01 X27.0677 Y5.4554  
G01 X27.6409 Y5.6928  
G01 X28.0797 Y6.1316  
G01 X28.3171 Y6.7048  
G01 X28.3171 Y7.3252  
G01 X28.0797 Y7.8984  
G01 X28.0316 Y7.9465  
G01 X28.0146 Y7.9760  
G01 X27.9710 Y8.0515  
G01 X27.9645 Y8.0758  
G01 X27.9396 Y8.1686  
G01 X27.9396 Y8.5706  
G01 X27.9710 Y8.6877  
G01 X28.0316 Y8.7927  
G01 X28.1173 Y8.8784  
G01 X28.2223 Y8.9390  
G01 X28.3394 Y8.9704  
G01 X28.7276 Y8.9704  
G01 X28.8340 Y9.0145  
G01 X28.9155 Y9.0960  
G01 X28.9596 Y9.2024  
G01 X28.9596 Y14.3976 
G01 X28.9155 Y14.5040 
G01 X28.8340 Y14.5855 
G01 X28.7276 Y14.6296 
G01 X28.3394 Y14.6296 
G01 X28.2223 Y14.6610 
G01 X28.1173 Y14.7216 
G01 X28.0316 Y14.8073 
G01 X27.9710 Y14.9123 
G01 X27.9396 Y15.0294 
G01 X27.9396 Y16.4598 
G01 X27.9396 Y16.5206 
G01 X27.9396 Y16.5804 
G01 X27.9555 Y16.6397 
G01 X27.9710 Y16.6974 
G01 X28.0016 Y16.7506 
G01 X28.0316 Y16.8024 
G01 X28.0749 Y16.8457 
G01 X28.1173 Y16.8881 
G01 X28.1705 Y16.9188 
G01 X28.2223 Y16.9488 
G01 X28.2816 Y16.9647 
G01 X28.3394 Y16.9801 
G01 X28.4008 Y16.9801 
G01 X28.4606 Y16.9801 
G01 X28.4996 Y16.9698 
G01 X28.4996 Y18.5644 
G01 X28.5316 Y18.6417 
G01 X28.5908 Y18.7009 
G01 X28.6681 Y18.7329 
G01 X31.7433 Y18.7329 
G01 X31.7498 Y18.7573 
G01 X31.7599 Y18.8048 
G01 X31.7655 Y18.8157 
G01 X31.7686 Y18.8275 
G01 X31.7929 Y18.8696 
G01 X31.8150 Y18.9129 
G01 X31.8231 Y18.9219 
G01 X31.8292 Y18.9325 
G01 X31.8636 Y18.9669 
G01 X31.8961 Y19.0029 
G01 X31.9063 Y19.0096 
G01 X31.9150 Y19.0182 
G01 X31.9570 Y19.0425 
G01 X31.9977 Y19.0690 
G01 X32.0094 Y19.0727 
G01 X32.0199 Y19.0789 
G01 X32.0668 Y19.0914 
G01 X32.7141 Y19.3017 
G01 X33.2001 Y19.6548 
G01 X33.2173 Y19.6720 
G01 X33.2489 Y19.6903 
G01 X33.2784 Y19.7117 
G01 X33.3012 Y19.7204 
G01 X33.3223 Y19.7326 
G01 X33.3575 Y19.7421 
G01 X33.3916 Y19.7552 
G01 X33.4158 Y19.7577 
G01 X33.4394 Y19.7640 
G01 X33.4759 Y19.7640 
G01 X33.5122 Y19.7678 
G01 X33.5362 Y19.7640 
G01 X33.5606 Y19.7640 
G01 X33.5959 Y19.7546 
G01 X33.6319 Y19.7489 
G01 X33.6542 Y19.7389 
G01 X33.6777 Y19.7326 
G01 X33.7093 Y19.7144 
G01 X33.7426 Y19.6996 
G01 X33.7616 Y19.6842 
G01 X33.7827 Y19.6720 
G01 X33.8085 Y19.6462 
G01 X33.8368 Y19.6233 
G01 X33.8512 Y19.6035 
G01 X33.8684 Y19.5863 
G01 X33.8867 Y19.5547 
G01 X33.9081 Y19.5252 
G01 X33.9168 Y19.5024 
G01 X33.9290 Y19.4813 
G01 X33.9385 Y19.4461 
G01 X33.9515 Y19.4120 
G01 X33.9541 Y19.3878 
G01 X33.9604 Y19.3642 
G01 X33.9604 Y19.3277 
G01 X33.9642 Y19.2915 
G01 X33.9604 Y19.2674 
G01 X33.9604 Y17.4049 
G01 X34.0045 Y17.2984 
G01 X34.0859 Y17.2170 
G01 X34.1924 Y17.1729 
G01 X41.4576 Y17.1729 
G01 X41.5678 Y17.2185 
G01 X41.6261 Y17.2427 
G01 X41.6798 Y17.2649 
G01 X41.7058 Y17.2684 
G01 X41.8000 Y17.2808 
G01 X41.9202 Y17.2649 
G01 X41.9795 Y17.2404 
G01 X42.0322 Y17.2186 
G01 X42.1424 Y17.1729 
G01 X49.5476 Y17.1729 
G01 X49.6540 Y17.2170 
G01 X49.7355 Y17.2984 
G01 X49.7796 Y17.4049 
G01 X49.7796 Y27.0451 
G01 X49.7355 Y27.1515 
G01 X49.6540 Y27.2330 
G01 X49.5476 Y27.2771 
G01 X45.7464 Y27.2771 
G01 X45.6293 Y27.3085 
G01 X45.5243 Y27.3691 
G01 X45.4386 Y27.4548 
G01 X45.3780 Y27.5598 
G01 X45.3466 Y27.6769 
G01 X45.3466 Y28.8306 
G01 X45.3780 Y28.9477 
G01 X45.4386 Y29.0527 
G01 X45.5243 Y29.1384 
G01 X45.6293 Y29.1990 
G01 X45.7464 Y29.2304 
G01 X46.0276 Y29.2304 
G01 X46.1340 Y29.2745 
G01 X46.2155 Y29.3559 
G01 X46.2596 Y29.4624 
G01 X46.2596 Y31.1776 
G01 X46.2155 Y31.2840 
G01 X46.1340 Y31.3655 
G01 X46.0276 Y31.4096 
G01 X45.6014 Y31.4096 
G01 X45.5059 Y31.4352 
G01 X45.4843 Y31.4410 
G01 X45.4347 Y31.4696 
G01 X45.3793 Y31.5016 
G01 X45.2936 Y31.5873 
G01 X45.2416 Y31.6774 
G01 X45.2330 Y31.6923 
G01 X45.2212 Y31.7362 
G01 X45.2016 Y31.8094 
G01 X45.2016 Y31.9306 
G01 X45.2272 Y32.0261 
G01 X45.2330 Y32.0477 
G01 X45.2616 Y32.0973 
G01 X45.2896 Y32.1457 
G01 X45.2896 Y33.0543 
G01 X45.2606 Y33.1044 
G01 X45.2330 Y33.1523 
G01 X45.2265 Y33.1766 
G01 X45.2016 Y33.2694 
G01 X45.2016 Y33.3906 
G01 X45.2218 Y33.4659 
G01 X45.2330 Y33.5077 
G01 X45.2431 Y33.5253 
G01 X45.2936 Y33.6127 
G01 X45.3793 Y33.6984 
G01 X45.4364 Y33.7314 
G01 X45.4843 Y33.7590 
G01 X45.5086 Y33.7655 
G01 X45.6014 Y33.7904 
G01 X46.0276 Y33.7904 
G01 X46.1340 Y33.8345 
G01 X46.2155 Y33.9160 
G01 X46.2596 Y34.0224 
G01 X46.2596 Y35.7376 
G01 X46.1982 Y35.8859 
G01 X46.1829 Y35.9123 
